; generated by Slic3r 1.2.9 on 2018-03-19 at 16:22:06

; external perimeters extrusion width = 0.20mm
; perimeters extrusion width = 0.21mm
; infill extrusion width = 0.21mm
; solid infill extrusion width = 0.21mm
; top infill extrusion width = 0.21mm

M107
M104 S200 ; set temperature

M109 S200 ; wait for temperature to be reached
G21 ; set units to millimeters
G90 ; use absolute coordinates
G1 Z0.200 F7800.000
G1 X0.472 Y-18.881 F7800.000
G1 X-0.472 Y-19.824 F3600.000
G1 X-0.472 Y-19.574
G1 X0.472 Y-18.630
G1 X0.472 Y-18.356
G1 X-0.472 Y-19.299
G1 X-0.472 Y-19.049
G1 X0.472 Y-18.105
G1 X0.472 Y-17.832
G1 X-0.472 Y-18.774
G1 X-0.472 Y-18.524
G1 X0.472 Y-17.580
G1 X0.472 Y-17.307
G1 X-0.472 Y-18.250
G1 X-0.472 Y-17.999
G1 X0.472 Y-17.055
G1 X0.472 Y-16.782
G1 X-0.472 Y-17.725
G1 X-0.472 Y-17.474
G1 X0.472 Y-16.530
G1 X0.472 Y-16.257
G1 X-0.472 Y-17.200
G1 X-0.472 Y-16.949
G1 X0.472 Y-16.005
G1 X0.472 Y-15.733
G1 X-0.472 Y-16.675
G1 X-0.472 Y-16.424
G1 X0.472 Y-15.480
G1 X0.472 Y-15.208
G1 X-0.472 Y-16.151
G1 X-0.472 Y-15.899
G1 X0.472 Y-14.955
G1 X0.472 Y-14.683
G1 X-0.472 Y-15.626
G1 X-0.472 Y-15.374
G1 X0.472 Y-14.430
G1 X0.472 Y-14.158
G1 X-0.472 Y-15.101
G1 X-0.472 Y-14.849
G1 X0.472 Y-13.905
G1 X0.472 Y-13.634
G1 X-0.472 Y-14.576
G1 X-0.472 Y-14.323
G1 X0.472 Y-13.380
G1 X0.472 Y-13.109
G1 X-0.472 Y-14.052
G1 X-0.472 Y-13.798
G1 X0.472 Y-12.855
G1 X0.472 Y-12.584
G1 X-0.472 Y-13.527
G1 X-0.472 Y-13.273
G1 X0.472 Y-12.329
G1 X0.472 Y-12.059
G1 X-0.472 Y-13.002
G1 X-0.472 Y-12.748
G1 X0.472 Y-11.804
G1 X0.472 Y-11.535
G1 X-0.472 Y-12.477
G1 X-0.472 Y-12.223
G1 X0.472 Y-11.279
G1 X0.472 Y-11.010
G1 X-0.472 Y-11.953
G1 X-0.472 Y-11.698
G1 X0.472 Y-10.754
G1 X0.472 Y-10.485
G1 X-0.472 Y-11.428
G1 X-0.472 Y-11.173
G1 X0.472 Y-10.229
G1 X0.472 Y-9.960
G1 X-0.472 Y-10.903
G1 X-0.472 Y-10.648
G1 X0.472 Y-9.704
G1 X0.472 Y-9.436
G1 X-0.472 Y-10.378
G1 X-0.472 Y-10.123
G1 X0.472 Y-9.179
G1 X0.472 Y-8.911
G1 X-0.472 Y-9.854
G1 X-0.472 Y-9.598
G1 X0.472 Y-8.654
G1 X0.472 Y-8.386
G1 X-0.472 Y-9.329
G1 X-0.472 Y-9.073
G1 X0.472 Y-8.129
G1 X0.472 Y-7.861
G1 X-0.472 Y-8.804
G1 X-0.472 Y-8.548
G1 X0.472 Y-7.604
G1 X0.472 Y-7.337
G1 X-0.472 Y-8.279
G1 X-0.472 Y-8.022
G1 X0.472 Y-7.079
G1 X0.472 Y-6.812
G1 X-0.472 Y-7.755
G1 X-0.472 Y-7.497
G1 X0.472 Y-6.554
G1 X0.472 Y-6.287
G1 X-0.472 Y-7.230
G1 X-0.472 Y-6.972
G1 X0.472 Y-6.028
G1 X0.472 Y-5.762
G1 X-0.472 Y-6.705
G1 X-0.472 Y-6.447
G1 X0.472 Y-5.503
G1 X0.472 Y-5.238
G1 X-0.472 Y-6.180
G1 X-0.472 Y-5.922
G1 X0.472 Y-4.978
G1 X0.472 Y-4.713
G1 X-0.472 Y-5.656
G1 X-0.472 Y-5.397
G1 X0.472 Y-4.453
G1 X0.472 Y-4.188
G1 X-0.472 Y-5.131
G1 X-0.472 Y-4.872
G1 X0.472 Y-3.928
G1 X0.472 Y-3.663
G1 X-0.472 Y-4.606
G1 X-0.472 Y-4.347
G1 X0.472 Y-3.403
G1 X0.472 Y-3.139
G1 X-0.472 Y-4.081
G1 X-0.472 Y-3.822
G1 X0.472 Y-2.878
G1 X0.472 Y-2.614
G1 X-0.472 Y-3.557
G1 X-0.472 Y-3.297
G1 X0.472 Y-2.353
G1 X0.472 Y-2.089
G1 X-0.472 Y-3.032
G1 X-0.472 Y-2.772
G1 X0.472 Y-1.828
G1 X0.472 Y-1.564
G1 X-0.472 Y-2.507
G1 X-0.472 Y-2.247
G1 X0.472 Y-1.303
G1 X0.472 Y-1.040
G1 X-0.472 Y-1.982
G1 X-0.472 Y-1.721
G1 X0.472 Y-0.778
G1 X0.472 Y-0.515
G1 X-0.472 Y-1.458
G1 X-0.472 Y-1.196
G1 X0.472 Y-0.253
G1 X0.472 Y0.010
G1 X-0.472 Y-0.933
G1 X-0.472 Y-0.671
G1 X0.472 Y0.273
G1 X0.472 Y0.535
G1 X-0.472 Y-0.408
G1 X-0.472 Y-0.146
G1 X0.472 Y0.798
G1 X0.472 Y1.059
G1 X-0.472 Y0.117
G1 X-0.472 Y0.379
G1 X0.472 Y1.323
G1 X0.472 Y1.584
G1 X-0.472 Y0.641
G1 X-0.472 Y0.904
G1 X0.472 Y1.848
G1 X0.472 Y2.109
G1 X-0.472 Y1.166
G1 X-0.472 Y1.429
G1 X0.472 Y2.373
G1 X0.472 Y2.634
G1 X-0.472 Y1.691
G1 X-0.472 Y1.954
G1 X0.472 Y2.898
G1 X0.472 Y3.158
G1 X-0.472 Y2.216
G1 X-0.472 Y2.479
G1 X0.472 Y3.423
G1 X0.472 Y3.683
G1 X-0.472 Y2.740
G1 X-0.472 Y3.004
G1 X0.472 Y3.948
G1 X0.472 Y4.208
G1 X-0.472 Y3.265
G1 X-0.472 Y3.529
G1 X0.472 Y4.473
G1 X0.472 Y4.733
G1 X-0.472 Y3.790
G1 X-0.472 Y4.054
G1 X0.472 Y4.998
G1 X0.472 Y5.257
G1 X-0.472 Y4.315
G1 X-0.472 Y4.579
G1 X0.472 Y5.523
G1 X0.472 Y5.782
G1 X-0.472 Y4.839
G1 X-0.472 Y5.105
G1 X0.472 Y6.048
G1 X0.472 Y6.307
G1 X-0.472 Y5.364
G1 X-0.472 Y5.630
G1 X0.472 Y6.573
G1 X0.472 Y6.832
G1 X-0.472 Y5.889
G1 X-0.472 Y6.155
G1 X0.472 Y7.099
G1 X0.472 Y7.356
G1 X-0.472 Y6.414
G1 X-0.472 Y6.680
G1 X0.472 Y7.624
G1 X0.472 Y7.881
G1 X-0.472 Y6.938
G1 X-0.472 Y7.205
G1 X0.472 Y8.149
G1 X0.472 Y8.406
G1 X-0.472 Y7.463
G1 X-0.472 Y7.730
G1 X0.472 Y8.674
G1 X0.472 Y8.930
G1 X-0.472 Y7.988
G1 X-0.472 Y8.255
G1 X0.472 Y9.199
G1 X0.472 Y9.455
G1 X-0.472 Y8.513
G1 X-0.472 Y8.780
G1 X0.472 Y9.724
G1 X0.472 Y9.980
G1 X-0.472 Y9.037
G1 X-0.472 Y9.305
G1 X0.472 Y10.249
G1 X0.472 Y10.505
G1 X-0.472 Y9.562
G1 X-0.472 Y9.830
G1 X0.472 Y10.774
G1 X0.472 Y11.029
G1 X-0.472 Y10.087
G1 X-0.472 Y10.355
G1 X0.472 Y11.299
G1 X0.472 Y11.554
G1 X-0.472 Y10.612
G1 X-0.472 Y10.880
G1 X0.472 Y11.824
G1 X0.472 Y12.079
G1 X-0.472 Y11.136
G1 X-0.472 Y11.406
G1 X0.472 Y12.349
G1 X0.472 Y12.604
G1 X-0.472 Y11.661
G1 X-0.472 Y11.931
G1 X0.472 Y12.874
G1 X0.472 Y13.128
G1 X-0.472 Y12.186
G1 X-0.472 Y12.456
G1 X0.472 Y13.400
G1 X0.472 Y13.653
G1 X-0.472 Y12.711
G1 X-0.472 Y12.981
G1 X0.472 Y13.925
G1 X0.472 Y14.178
G1 X-0.472 Y13.235
G1 X-0.472 Y13.506
G1 X0.472 Y14.450
G1 X0.472 Y14.703
G1 X-0.472 Y13.760
G1 X-0.472 Y14.031
G1 X0.472 Y14.975
G1 X0.472 Y15.227
G1 X-0.472 Y14.285
G1 X-0.472 Y14.556
G1 X0.472 Y15.500
G1 X0.472 Y15.752
G1 X-0.472 Y14.810
G1 X-0.472 Y15.081
G1 X0.472 Y16.025
G1 X0.472 Y16.277
G1 X-0.472 Y15.334
G1 X-0.472 Y15.606
G1 X0.472 Y16.550
G1 X0.472 Y16.802
G1 X-0.472 Y15.859
G1 X-0.472 Y16.131
G1 X0.472 Y17.075
G1 X0.472 Y17.326
G1 X-0.472 Y16.384
G1 X-0.472 Y16.656
G1 X0.472 Y17.600
G1 X0.472 Y17.851
G1 X-0.472 Y16.908
G1 X-0.472 Y17.181
G1 X0.472 Y18.125
G1 X0.472 Y18.376
G1 X-0.472 Y17.433
G1 X-0.472 Y17.706
G1 X0.472 Y18.650
G1 X0.472 Y18.901
G1 X-0.472 Y17.958
G1 X-0.472 Y18.232
G1 X0.472 Y19.175
G1 X0.472 Y19.425
G1 X-0.472 Y18.483
G1 X-0.472 Y18.757
G1 X0.472 Y19.700
G1 X0.472 Y19.950
G1 X-0.472 Y19.007
G1 X-0.726 Y19.028
G1 X0.218 Y19.972
G1 X-0.032 Y19.972
G1 X-0.977 Y19.028
G1 X-1.251 Y19.028
G1 X-0.307 Y19.972
G1 X-0.557 Y19.972
G1 X-1.502 Y19.028
G1 X-1.776 Y19.028
G1 X-0.832 Y19.972
G1 X-1.083 Y19.972
G1 X-2.028 Y19.028
G1 X-2.301 Y19.028
G1 X-1.357 Y19.972
G1 X-1.608 Y19.972
G1 X-2.553 Y19.028
G1 X-2.826 Y19.028
G1 X-1.882 Y19.972
G1 X-2.133 Y19.972
G1 X-3.078 Y19.028
G1 X-3.351 Y19.028
G1 X-2.407 Y19.972
G1 X-2.659 Y19.972
G1 X-4.472 Y18.161
G1 X-4.472 Y17.907
G1 X-3.528 Y18.851
G1 X-3.528 Y18.579
G1 X-4.472 Y17.636
G1 X-4.472 Y17.382
G1 X-3.528 Y18.326
G1 X-3.528 Y18.054
G1 X-4.472 Y17.112
G1 X-4.472 Y16.857
G1 X-3.528 Y17.801
G1 X-3.528 Y17.530
G1 X-4.472 Y16.587
G1 X-4.472 Y16.332
G1 X-3.528 Y17.276
G1 X-3.528 Y17.005
G1 X-4.472 Y16.062
G1 X-4.472 Y15.807
G1 X-3.528 Y16.751
G1 X-3.528 Y16.480
G1 X-4.472 Y15.537
G1 X-4.472 Y15.282
G1 X-3.528 Y16.226
G1 X-3.528 Y15.955
G1 X-4.472 Y15.013
G1 X-4.472 Y14.757
G1 X-3.528 Y15.700
G1 X-3.528 Y15.431
G1 X-4.472 Y14.488
G1 X-4.472 Y14.232
G1 X-3.528 Y15.175
G1 X-3.528 Y14.906
G1 X-4.472 Y13.963
G1 X-4.472 Y13.706
G1 X-3.528 Y14.650
G1 X-3.528 Y14.381
G1 X-4.472 Y13.438
G1 X-4.472 Y13.181
G1 X-3.528 Y14.125
G1 X-3.528 Y13.856
G1 X-4.472 Y12.914
G1 X-4.472 Y12.656
G1 X-3.528 Y13.600
G1 X-3.528 Y13.332
G1 X-4.472 Y12.389
G1 X-4.472 Y12.131
G1 X-3.528 Y13.075
G1 X-3.528 Y12.807
G1 X-4.472 Y11.864
G1 X-4.472 Y11.606
G1 X-3.528 Y12.550
G1 X-3.528 Y12.282
G1 X-4.472 Y11.339
G1 X-4.472 Y11.081
G1 X-3.528 Y12.025
G1 X-3.528 Y11.757
G1 X-4.472 Y10.815
G1 X-4.472 Y10.556
G1 X-3.528 Y11.500
G1 X-3.528 Y11.233
G1 X-4.472 Y10.290
G1 X-4.472 Y10.031
G1 X-3.528 Y10.975
G1 X-3.528 Y10.708
G1 X-4.472 Y9.765
G1 X-4.472 Y9.506
G1 X-3.528 Y10.450
G1 X-3.528 Y10.183
G1 X-4.472 Y9.240
G1 X-4.472 Y8.981
G1 X-3.528 Y9.925
G1 X-3.528 Y9.658
G1 X-4.472 Y8.716
G1 X-4.472 Y8.456
G1 X-3.528 Y9.400
G1 X-3.528 Y9.134
G1 X-4.472 Y8.191
G1 X-4.472 Y7.931
G1 X-3.528 Y8.874
G1 X-3.528 Y8.609
G1 X-4.472 Y7.666
G1 X-4.472 Y7.406
G1 X-3.528 Y8.349
G1 X-3.528 Y8.084
G1 X-4.472 Y7.141
G1 X-4.472 Y6.880
G1 X-3.528 Y7.824
G1 X-3.528 Y7.559
G1 X-4.472 Y6.617
G1 X-4.472 Y6.355
G1 X-3.528 Y7.299
G1 X-3.528 Y7.035
G1 X-4.472 Y6.092
G1 X-4.472 Y5.830
G1 X-3.528 Y6.774
G1 X-3.528 Y6.510
G1 X-4.472 Y5.567
G1 X-4.472 Y5.305
G1 X-3.528 Y6.249
G1 X-3.528 Y5.985
G1 X-4.472 Y5.042
G1 X-4.472 Y4.780
G1 X-3.528 Y5.724
G1 X-3.528 Y5.460
G1 X-4.472 Y4.518
G1 X-4.472 Y4.255
G1 X-3.528 Y5.199
G1 X-3.528 Y4.936
G1 X-4.472 Y3.993
G1 X-4.472 Y3.730
G1 X-3.528 Y4.674
G1 X-3.528 Y4.411
G1 X-4.472 Y3.468
G1 X-4.472 Y3.205
G1 X-3.528 Y4.149
G1 X-3.528 Y3.886
G1 X-4.472 Y2.943
G1 X-4.472 Y2.680
G1 X-3.528 Y3.624
G1 X-3.528 Y3.361
G1 X-4.472 Y2.419
G1 X-4.472 Y2.155
G1 X-3.528 Y3.099
G1 X-3.528 Y2.837
G1 X-4.472 Y1.894
G1 X-4.472 Y1.630
G1 X-3.528 Y2.573
G1 X-3.528 Y2.312
G1 X-4.472 Y1.369
G1 X-4.472 Y1.105
G1 X-3.528 Y2.048
G1 X-3.528 Y1.787
G1 X-4.472 Y0.844
G1 X-4.472 Y0.579
G1 X-3.528 Y1.523
G1 X-3.528 Y1.262
G1 X-4.472 Y0.320
G1 X-4.472 Y0.054
G1 X-3.528 Y0.998
G1 X-3.528 Y0.738
G1 X-4.472 Y-0.205
G1 X-4.472 Y-0.471
G1 X-3.528 Y0.473
G1 X-3.528 Y0.213
G1 X-4.472 Y-0.730
G1 X-4.472 Y-0.996
G1 X-3.528 Y-0.052
G1 X-3.528 Y-0.312
G1 X-4.472 Y-1.255
G1 X-4.472 Y-1.521
G1 X-3.528 Y-0.577
G1 X-3.528 Y-0.837
G1 X-4.472 Y-1.779
G1 X-4.472 Y-2.046
G1 X-3.528 Y-1.102
G1 X-3.528 Y-1.361
G1 X-4.472 Y-2.304
G1 X-4.472 Y-2.571
G1 X-3.528 Y-1.627
G1 X-3.528 Y-1.886
G1 X-4.472 Y-2.829
G1 X-4.472 Y-3.096
G1 X-3.528 Y-2.152
G1 X-3.528 Y-2.411
G1 X-4.472 Y-3.354
G1 X-4.472 Y-3.621
G1 X-3.528 Y-2.677
G1 X-3.528 Y-2.936
G1 X-4.472 Y-3.878
G1 X-4.472 Y-4.146
G1 X-3.528 Y-3.202
G1 X-3.528 Y-3.460
G1 X-4.472 Y-4.403
G1 X-4.472 Y-4.671
G1 X-3.528 Y-3.727
G1 X-3.528 Y-3.985
G1 X-4.472 Y-4.928
G1 X-4.472 Y-5.196
G1 X-3.528 Y-4.253
G1 X-3.528 Y-4.510
G1 X-4.472 Y-5.453
G1 X-4.472 Y-5.721
G1 X-3.528 Y-4.778
G1 X-3.528 Y-5.035
G1 X-4.472 Y-5.977
G1 X-4.472 Y-6.247
G1 X-3.528 Y-5.303
G1 X-3.528 Y-5.559
G1 X-4.472 Y-6.502
G1 X-4.472 Y-6.772
G1 X-3.528 Y-5.828
G1 X-3.528 Y-6.084
G1 X-4.472 Y-7.027
G1 X-4.472 Y-7.297
G1 X-3.528 Y-6.353
G1 X-3.528 Y-6.609
G1 X-4.472 Y-7.552
G1 X-4.472 Y-7.822
G1 X-3.528 Y-6.878
G1 X-3.528 Y-7.134
G1 X-4.472 Y-8.076
G1 X-4.472 Y-8.347
G1 X-3.528 Y-7.403
G1 X-3.528 Y-7.658
G1 X-4.472 Y-8.601
G1 X-4.472 Y-8.872
G1 X-3.528 Y-7.928
G1 X-3.528 Y-8.183
G1 X-4.472 Y-9.126
G1 X-4.472 Y-9.397
G1 X-3.528 Y-8.453
G1 X-3.528 Y-8.708
G1 X-4.472 Y-9.651
G1 X-4.472 Y-9.922
G1 X-3.528 Y-8.978
G1 X-3.528 Y-9.233
G1 X-4.472 Y-10.175
G1 X-4.472 Y-10.447
G1 X-3.528 Y-9.503
G1 X-3.528 Y-9.757
G1 X-4.472 Y-10.700
G1 X-4.472 Y-10.972
G1 X-3.528 Y-10.028
G1 X-3.528 Y-10.282
G1 X-4.472 Y-11.225
G1 X-4.472 Y-11.497
G1 X-3.528 Y-10.554
G1 X-3.528 Y-10.807
G1 X-4.472 Y-11.750
G1 X-4.472 Y-12.022
G1 X-3.528 Y-11.079
G1 X-3.528 Y-11.332
G1 X-4.472 Y-12.274
G1 X-4.472 Y-12.548
G1 X-3.528 Y-11.604
G1 X-3.528 Y-11.856
G1 X-4.472 Y-12.799
G1 X-4.472 Y-13.073
G1 X-3.528 Y-12.129
G1 X-3.528 Y-12.381
G1 X-4.472 Y-13.324
G1 X-4.472 Y-13.598
G1 X-3.528 Y-12.654
G1 X-3.528 Y-12.906
G1 X-4.472 Y-13.849
G1 X-4.472 Y-14.123
G1 X-3.528 Y-13.179
G1 X-3.528 Y-13.431
G1 X-4.472 Y-14.373
G1 X-4.472 Y-14.648
G1 X-3.528 Y-13.704
G1 X-3.528 Y-13.955
G1 X-4.472 Y-14.898
G1 X-4.472 Y-15.173
G1 X-3.528 Y-14.229
G1 X-3.528 Y-14.480
G1 X-4.472 Y-15.423
G1 X-4.472 Y-15.698
G1 X-3.528 Y-14.754
G1 X-3.528 Y-15.005
G1 X-4.472 Y-15.948
G1 X-4.472 Y-16.223
G1 X-3.528 Y-15.279
G1 X-3.528 Y-15.530
G1 X-4.472 Y-16.472
G1 X-4.472 Y-16.748
G1 X-3.528 Y-15.804
G1 X-3.528 Y-16.054
G1 X-4.472 Y-16.997
G1 X-4.472 Y-17.273
G1 X-3.528 Y-16.329
G1 X-3.528 Y-16.579
G1 X-4.472 Y-17.522
G1 X-4.472 Y-17.798
G1 X-3.528 Y-16.855
G1 X-3.528 Y-17.104
G1 X-4.472 Y-18.047
G1 X-4.472 Y-18.323
G1 X-3.528 Y-17.380
G1 X-3.528 Y-17.629
G1 X-4.472 Y-18.571
G1 X-4.472 Y-18.849
G1 X-3.528 Y-17.905
G1 X-3.528 Y-18.153
G1 X-4.472 Y-19.096
G1 X-4.404 Y-19.028 F7800.000
G1 X-5.349 Y-19.972 F3600.000
G1 X-5.595 Y-19.972
G1 X-4.651 Y-19.028
G1 X-4.929 Y-19.028
G1 X-5.874 Y-19.972
G1 X-6.120 Y-19.972
G1 X-5.177 Y-19.028
G1 X-5.455 Y-19.028
G1 X-6.400 Y-19.972
G1 X-6.645 Y-19.972
G1 X-5.702 Y-19.028
G1 X-5.980 Y-19.028
G1 X-6.925 Y-19.972
G1 X-7.171 Y-19.972
G1 X-6.227 Y-19.028
G1 X-6.506 Y-19.028
G1 X-7.451 Y-19.972
G1 X-7.696 Y-19.972
G1 X-6.752 Y-19.028
G1 X-7.031 Y-19.028
G1 X-7.976 Y-19.972
G1 X-8.221 Y-19.972
G1 X-7.277 Y-19.028
G1 X-7.528 Y-19.000
G1 X-8.472 Y-19.943
G1 X-8.472 Y-19.698
G1 X-7.528 Y-18.754
G1 X-7.528 Y-18.475
G1 X-8.472 Y-19.418
G1 X-8.472 Y-19.173
G1 X-7.528 Y-18.229
G1 X-7.528 Y-17.950
G1 X-8.472 Y-18.893
G1 X-8.472 Y-18.648
G1 X-7.528 Y-17.704
G1 X-7.528 Y-17.426
G1 X-8.472 Y-18.368
G1 X-8.472 Y-18.123
G1 X-7.528 Y-17.179
G1 X-7.528 Y-16.901
G1 X-8.472 Y-17.844
G1 X-8.472 Y-17.598
G1 X-7.528 Y-16.654
G1 X-7.528 Y-16.376
G1 X-8.472 Y-17.319
G1 X-8.472 Y-17.073
G1 X-7.528 Y-16.129
G1 X-7.528 Y-15.851
G1 X-8.472 Y-16.794
G1 X-8.472 Y-16.548
G1 X-7.528 Y-15.604
G1 X-7.528 Y-15.327
G1 X-8.472 Y-16.269
G1 X-8.472 Y-16.022
G1 X-7.528 Y-15.079
G1 X-7.528 Y-14.802
G1 X-8.472 Y-15.745
G1 X-8.472 Y-15.497
G1 X-7.528 Y-14.554
G1 X-7.528 Y-14.277
G1 X-8.472 Y-15.220
G1 X-8.472 Y-14.972
G1 X-7.528 Y-14.028
G1 X-7.528 Y-13.752
G1 X-8.472 Y-14.695
G1 X-8.472 Y-14.447
G1 X-7.528 Y-13.503
G1 X-7.528 Y-13.228
G1 X-8.472 Y-14.170
G1 X-8.472 Y-13.922
G1 X-7.528 Y-12.978
G1 X-7.528 Y-12.703
G1 X-8.472 Y-13.646
G1 X-8.472 Y-13.397
G1 X-7.528 Y-12.453
G1 X-7.528 Y-12.178
G1 X-8.472 Y-13.121
G1 X-8.472 Y-12.872
G1 X-7.528 Y-11.928
G1 X-7.528 Y-11.653
G1 X-8.472 Y-12.596
G1 X-8.472 Y-12.347
G1 X-7.528 Y-11.403
G1 X-7.528 Y-11.129
G1 X-8.472 Y-12.071
G1 X-8.472 Y-11.822
G1 X-7.528 Y-10.878
G1 X-7.528 Y-10.604
G1 X-8.472 Y-11.547
G1 X-8.472 Y-11.297
G1 X-7.528 Y-10.353
G1 X-7.528 Y-10.079
G1 X-8.472 Y-11.022
G1 X-8.472 Y-10.772
G1 X-7.528 Y-9.828
G1 X-7.528 Y-9.554
G1 X-8.472 Y-10.497
G1 X-8.472 Y-10.247
G1 X-7.528 Y-9.303
G1 X-7.528 Y-9.030
G1 X-8.472 Y-9.972
G1 X-8.472 Y-9.721
G1 X-7.528 Y-8.778
G1 X-7.528 Y-8.505
G1 X-8.472 Y-9.448
G1 X-8.472 Y-9.196
G1 X-7.528 Y-8.253
G1 X-7.528 Y-7.980
G1 X-8.472 Y-8.923
G1 X-8.472 Y-8.671
G1 X-7.528 Y-7.727
G1 X-7.528 Y-7.455
G1 X-8.472 Y-8.398
G1 X-8.472 Y-8.146
G1 X-7.528 Y-7.202
G1 X-7.528 Y-6.931
G1 X-8.472 Y-7.873
G1 X-8.472 Y-7.621
G1 X-7.528 Y-6.677
G1 X-7.528 Y-6.406
G1 X-8.472 Y-7.349
G1 X-8.472 Y-7.096
G1 X-7.528 Y-6.152
G1 X-7.528 Y-5.881
G1 X-8.472 Y-6.824
G1 X-8.472 Y-6.571
G1 X-7.528 Y-5.627
G1 X-7.528 Y-5.356
G1 X-8.472 Y-6.299
G1 X-8.472 Y-6.046
G1 X-7.528 Y-5.102
G1 X-7.528 Y-4.832
G1 X-8.472 Y-5.774
G1 X-8.472 Y-5.521
G1 X-7.528 Y-4.577
G1 X-7.528 Y-4.307
G1 X-8.472 Y-5.250
G1 X-8.472 Y-4.996
G1 X-7.528 Y-4.052
G1 X-7.528 Y-3.782
G1 X-8.472 Y-4.725
G1 X-8.472 Y-4.471
G1 X-7.528 Y-3.527
G1 X-7.528 Y-3.257
G1 X-8.472 Y-4.200
G1 X-8.472 Y-3.946
G1 X-7.528 Y-3.002
G1 X-7.528 Y-2.733
G1 X-8.472 Y-3.675
G1 X-8.472 Y-3.421
G1 X-7.528 Y-2.477
G1 X-7.528 Y-2.208
G1 X-8.472 Y-3.151
G1 X-8.472 Y-2.895
G1 X-7.528 Y-1.952
G1 X-7.528 Y-1.683
G1 X-8.472 Y-2.626
G1 X-8.472 Y-2.370
G1 X-7.528 Y-1.427
G1 X-7.528 Y-1.158
G1 X-8.472 Y-2.101
G1 X-8.472 Y-1.845
G1 X-7.528 Y-0.901
G1 X-7.528 Y-0.634
G1 X-8.472 Y-1.576
G1 X-8.472 Y-1.320
G1 X-7.528 Y-0.376
G1 X-7.528 Y-0.109
G1 X-8.472 Y-1.052
G1 X-8.472 Y-0.795
G1 X-7.528 Y0.149
G1 X-7.528 Y0.416
