; generated by Slic3r 1.2.9 on 2018-02-11 at 16:34:17

; external perimeters extrusion width = 0.20mm
; perimeters extrusion width = 0.21mm
; infill extrusion width = 0.21mm
; solid infill extrusion width = 0.21mm
; top infill extrusion width = 0.21mm

M107
M104 S200 ; set temperature

M109 S200 ; wait for temperature to be reached
G21 ; set units to millimeters
G90 ; use absolute coordinates
G1 Z0.200 F7800.000
G1 X8.028 Y-6.166 F7800.000
G1 X9.472 Y-4.723 F3600.000
G1 X9.472 Y-4.448
G1 X8.028 Y-5.889
G1 X8.028 Y-5.641
G1 X9.472 Y-4.197
G1 X9.472 Y-3.923
G1 X8.028 Y-5.365
G1 X8.028 Y-5.116
G1 X9.472 Y-3.672
G1 X9.472 Y-3.398
G1 X8.028 Y-4.840
G1 X8.028 Y-4.591
G1 X9.472 Y-3.147
G1 X9.472 Y-2.874
G1 X8.028 Y-4.315
G1 X8.028 Y-4.066
G1 X9.472 Y-2.622
G1 X9.472 Y-2.349
G1 X8.028 Y-3.791
G1 X8.028 Y-3.541
G1 X9.472 Y-2.097
G1 X9.472 Y-1.824
G1 X8.028 Y-3.266
G1 X8.028 Y-3.016
G1 X9.472 Y-1.572
G1 X9.472 Y-1.300
G1 X8.028 Y-2.741
G1 X8.028 Y-2.491
G1 X9.472 Y-1.047
G1 X9.472 Y-0.775
G1 X8.028 Y-2.217
G1 X8.028 Y-1.966
G1 X9.472 Y-0.522
G1 X9.472 Y-0.251
G1 X8.028 Y-1.692
G1 X8.028 Y-1.441
G1 X9.472 Y0.003
G1 X9.472 Y0.274
G1 X8.028 Y-1.167
G1 X8.028 Y-0.916
G1 X9.472 Y0.528
G1 X9.472 Y0.799
G1 X8.028 Y-0.643
G1 X8.028 Y-0.390
G1 X9.472 Y1.053
G1 X9.472 Y1.323
G1 X8.028 Y-0.118
G1 X8.028 Y0.135
G1 X9.472 Y1.578
G1 X9.472 Y1.848
G1 X8.028 Y0.407
G1 X8.028 Y0.660
G1 X9.472 Y2.104
G1 X9.472 Y2.373
G1 X8.028 Y0.931
G1 X8.028 Y1.185
G1 X9.472 Y2.629
G1 X9.472 Y2.897
G1 X8.028 Y1.456
G1 X8.028 Y1.710
G1 X9.472 Y3.154
G1 X9.472 Y3.422
G1 X8.028 Y1.980
G1 X8.028 Y2.235
G1 X9.472 Y3.679
G1 X9.472 Y3.947
G1 X8.028 Y2.505
G1 X8.028 Y2.760
G1 X9.472 Y4.204
G1 X9.472 Y4.471
G1 X8.028 Y3.030
G1 X8.028 Y3.285
G1 X9.472 Y4.729
G1 X9.472 Y4.996
G1 X8.028 Y3.554
G1 X8.028 Y3.810
G1 X9.472 Y5.254
G1 X9.472 Y5.521
G1 X8.028 Y4.079
G1 X8.028 Y4.335
G1 X9.472 Y5.779
G1 X9.472 Y6.045
G1 X8.028 Y4.604
G1 X8.028 Y4.860
G1 X9.472 Y6.304
G1 X9.472 Y6.570
G1 X8.028 Y5.128
G1 X8.028 Y5.385
G1 X9.472 Y6.829
G1 X9.472 Y7.095
G1 X8.028 Y5.653
G1 X8.028 Y5.911
G1 X9.472 Y7.354
G1 X9.472 Y7.619
G1 X8.028 Y6.178
G1 X8.028 Y6.436
G1 X9.472 Y7.879
G1 X9.472 Y8.144
G1 X8.028 Y6.702
G1 X8.028 Y6.961
G1 X9.472 Y8.404
G1 X9.472 Y8.669
G1 X8.028 Y7.227
G1 X8.028 Y7.486
G1 X9.472 Y8.930
G1 X9.472 Y9.193
G1 X8.028 Y7.752
G1 X8.028 Y8.011
G1 X9.472 Y9.455
G1 X9.472 Y9.718
G1 X8.028 Y8.276
G1 X8.028 Y8.536
G1 X9.472 Y9.980
G1 X9.472 Y10.243
G1 X8.028 Y8.801
G1 X8.028 Y9.061
G1 X9.472 Y10.505
G1 X9.472 Y10.767
G1 X8.028 Y9.326
G1 X8.028 Y9.586
G1 X9.472 Y11.030
G1 X9.472 Y11.292
G1 X8.028 Y9.850
G1 X8.028 Y10.111
G1 X9.472 Y11.555
G1 X9.472 Y11.817
G1 X8.028 Y10.375
G1 X8.028 Y10.636
G1 X9.472 Y12.080
G1 X9.472 Y12.341
G1 X8.028 Y10.900
G1 X8.028 Y11.161
G1 X9.472 Y12.605
G1 X9.472 Y12.866 F7800.000
G1 X8.028 Y11.424 F3600.000
G1 X8.028 Y11.686
G1 X10.814 Y14.472
G1 X10.555 Y14.472
G1 X8.028 Y11.949
G1 X8.028 Y12.211
G1 X10.289 Y14.472
G1 X10.030 Y14.472
G1 X8.028 Y12.474
G1 X8.028 Y12.737
G1 X9.763 Y14.472
G1 X9.504 Y14.472
G1 X8.028 Y12.998
G1 X8.028 Y13.262
G1 X9.238 Y14.472
G1 X8.979 Y14.472
G1 X8.028 Y13.523
G1 X8.028 Y13.787
G1 X8.713 Y14.472
G1 X8.453 Y14.472
G1 X8.028 Y14.048
G1 X8.028 Y14.312
G1 X8.188 Y14.472
G1 X9.635 Y13.028 F7800.000
G1 X11.081 Y14.472 F3600.000
G1 X11.339 Y14.472
G1 X9.895 Y13.028
G1 X10.160 Y13.028
G1 X11.606 Y14.472
G1 X11.864 Y14.472
G1 X10.420 Y13.028
G1 X10.686 Y13.028
G1 X12.132 Y14.472
G1 X12.389 Y14.472
G1 X10.945 Y13.028
G1 X11.211 Y13.028
G1 X12.657 Y14.472
G1 X12.914 Y14.472
G1 X11.470 Y13.028
G1 X11.737 Y13.028
G1 X13.183 Y14.472
G1 X13.439 Y14.472
G1 X11.995 Y13.028
G1 X12.262 Y13.028
G1 X13.708 Y14.472
G1 X13.964 Y14.472
G1 X12.520 Y13.028
G1 X12.788 Y13.028
G1 X14.234 Y14.472
G1 X14.489 Y14.472
G1 X13.045 Y13.028
G1 X13.313 Y13.028
G1 X14.759 Y14.472
G1 X15.014 Y14.472
G1 X13.570 Y13.028
G1 X13.839 Y13.028
G1 X15.285 Y14.472
G1 X15.539 Y14.472
G1 X14.096 Y13.028
G1 X14.364 Y13.028
G1 X15.810 Y14.472
G1 X16.064 Y14.472
G1 X14.621 Y13.028
G1 X14.890 Y13.028
G1 X16.336 Y14.472
G1 X16.589 Y14.472
G1 X15.146 Y13.028
G1 X15.415 Y13.028
G1 X16.861 Y14.472
G1 X17.115 Y14.472
G1 X15.671 Y13.028
G1 X15.941 Y13.028
G1 X17.387 Y14.472
G1 X17.640 Y14.472
G1 X16.196 Y13.028
G1 X16.466 Y13.028
G1 X17.912 Y14.472
G1 X18.165 Y14.472
G1 X16.721 Y13.028
G1 X16.992 Y13.028
G1 X18.438 Y14.472
G1 X18.690 Y14.472
G1 X17.246 Y13.028
G1 X17.517 Y13.028
G1 X18.963 Y14.472
G1 X19.215 Y14.472
G1 X17.771 Y13.028
G1 X18.043 Y13.028
G1 X19.489 Y14.472
G1 X19.740 Y14.472
G1 X18.296 Y13.028
G1 X18.568 Y13.028
G1 X20.014 Y14.472
G1 X20.265 Y14.472
G1 X18.821 Y13.028
G1 X19.094 Y13.028
G1 X20.540 Y14.472
G1 X20.790 Y14.472
G1 X19.346 Y13.028
G1 X19.619 Y13.028
G1 X21.065 Y14.472
G1 X21.315 Y14.472
G1 X19.871 Y13.028
G1 X20.145 Y13.028
G1 X21.591 Y14.472
G1 X21.840 Y14.472
G1 X20.396 Y13.028
G1 X20.670 Y13.028
G1 X22.116 Y14.472
G1 X22.365 Y14.472
G1 X20.922 Y13.028
G1 X21.196 Y13.028
G1 X22.642 Y14.472
G1 X22.890 Y14.472
G1 X21.447 Y13.028
G1 X21.721 Y13.028
G1 X23.167 Y14.472
G1 X23.416 Y14.472
G1 X21.972 Y13.028
G1 X22.247 Y13.028
G1 X23.693 Y14.472
G1 X23.941 Y14.472
G1 X22.497 Y13.028
G1 X22.772 Y13.028
G1 X24.218 Y14.472
G1 X24.466 Y14.472
G1 X23.022 Y13.028
G1 X23.298 Y13.028
G1 X24.744 Y14.472
G1 X24.991 Y14.472
G1 X23.547 Y13.028
G1 X23.823 Y13.028
G1 X25.269 Y14.472
G1 X25.516 Y14.472
G1 X24.072 Y13.028
G1 X24.349 Y13.028
G1 X25.795 Y14.472
G1 X26.041 Y14.472
G1 X24.597 Y13.028
G1 X24.874 Y13.028
G1 X26.320 Y14.472
G1 X26.566 Y14.472
G1 X25.122 Y13.028
G1 X25.400 Y13.028
G1 X26.846 Y14.472
G1 X27.091 Y14.472
G1 X25.647 Y13.028
G1 X25.925 Y13.028
G1 X27.371 Y14.472
G1 X27.616 Y14.472
G1 X26.172 Y13.028
G1 X26.451 Y13.028
G1 X27.897 Y14.472
G1 X28.141 Y14.472
G1 X26.697 Y13.028
G1 X26.976 Y13.028
G1 X28.422 Y14.472
G1 X28.666 Y14.472
G1 X27.223 Y13.028
G1 X27.502 Y13.028
G1 X28.948 Y14.472
G1 X29.191 Y14.472
G1 X27.748 Y13.028
G1 X28.027 Y13.028
G1 X29.473 Y14.472
G1 X29.717 Y14.472
G1 X28.273 Y13.028
G1 X28.553 Y13.028
G1 X29.999 Y14.472
G1 X30.242 Y14.472
G1 X28.798 Y13.028
G1 X29.078 Y13.028
G1 X30.524 Y14.472
G1 X30.767 Y14.472
G1 X29.323 Y13.028
G1 X29.604 Y13.028
G1 X31.050 Y14.472
G1 X31.292 Y14.472
G1 X29.848 Y13.028
G1 X30.129 Y13.028
G1 X31.575 Y14.472
G1 X31.817 Y14.472
G1 X30.373 Y13.028
G1 X30.528 Y12.902 F7800.000
G1 X31.972 Y14.343 F3600.000
G1 X31.972 Y14.102
G1 X30.528 Y12.658
G1 X30.528 Y12.377
G1 X31.972 Y13.819
G1 X31.972 Y13.577
G1 X30.528 Y12.133
G1 X30.528 Y11.852
G1 X31.972 Y13.294
G1 X31.972 Y13.052
G1 X30.528 Y11.608
G1 X30.528 Y11.328
G1 X31.972 Y12.769
G1 X31.972 Y12.527
G1 X30.528 Y11.083
G1 X30.528 Y10.803
G1 X31.972 Y12.245
G1 X31.972 Y12.002
G1 X30.528 Y10.558
G1 X30.528 Y10.278
G1 X31.972 Y11.720
G1 X31.972 Y11.477
G1 X30.528 Y10.033
G1 X30.528 Y9.754
G1 X31.972 Y11.195
G1 X31.972 Y10.951
G1 X30.528 Y9.508
G1 X30.528 Y9.229
G1 X31.972 Y10.671
G1 X31.972 Y10.426
G1 X30.528 Y8.983
G1 X30.528 Y8.704
G1 X31.972 Y10.146
G1 X31.972 Y9.901
G1 X30.528 Y8.457
G1 X30.528 Y8.180
G1 X31.972 Y9.621
G1 X31.972 Y9.376
G1 X30.528 Y7.932
G1 X30.528 Y7.655
G1 X31.972 Y9.097
G1 X31.972 Y8.851
G1 X30.528 Y7.407
G1 X30.528 Y7.130
G1 X31.972 Y8.572
G1 X31.972 Y8.326
G1 X30.528 Y6.882
G1 X30.528 Y6.606
G1 X31.972 Y8.047
G1 X31.972 Y7.801
G1 X30.528 Y6.357
G1 X30.528 Y6.081
G1 X31.972 Y7.523
G1 X31.972 Y7.276
G1 X30.528 Y5.832
G1 X30.528 Y5.556
G1 X31.972 Y6.998
G1 X31.972 Y6.751
G1 X30.528 Y5.307
G1 X30.528 Y5.032
G1 X31.972 Y6.473
G1 X31.972 Y6.226
G1 X30.528 Y4.782
G1 X30.528 Y4.507
G1 X31.972 Y5.949
G1 X31.972 Y5.701
G1 X30.528 Y4.257
G1 X30.528 Y3.982
G1 X31.972 Y5.424
G1 X31.972 Y5.176
G1 X30.528 Y3.732
G1 X30.528 Y3.458
G1 X31.972 Y4.899
G1 X31.972 Y4.650
G1 X30.528 Y3.207
G1 X30.528 Y2.933
G1 X31.972 Y4.375
G1 X31.972 Y4.125
G1 X30.528 Y2.682
G1 X30.528 Y2.408
G1 X31.972 Y3.850
G1 X31.972 Y3.600
G1 X30.528 Y2.156
G1 X30.528 Y1.884
G1 X31.972 Y3.325
G1 X31.972 Y3.075
G1 X30.528 Y1.631
G1 X30.528 Y1.359
G1 X31.972 Y2.801
G1 X31.972 Y2.550
G1 X30.528 Y1.106
G1 X30.528 Y0.835
G1 X31.972 Y2.276
G1 X31.972 Y2.025
G1 X30.528 Y0.581
G1 X30.528 Y0.310
G1 X31.972 Y1.751
G1 X31.972 Y1.500
G1 X30.528 Y0.056
G1 X30.528 Y-0.215
G1 X31.972 Y1.227
G1 X31.972 Y0.975
G1 X30.528 Y-0.469
G1 X30.528 Y-0.739
G1 X31.972 Y0.702
G1 X31.972 Y0.450
G1 X30.528 Y-0.994
G1 X30.528 Y-1.264
G1 X31.972 Y0.177
G1 X31.972 Y-0.075
G1 X30.528 Y-1.519
G1 X30.528 Y-1.789
G1 X31.972 Y-0.347
G1 X31.972 Y-0.600
G1 X30.528 Y-2.044
G1 X30.528 Y-2.313
G1 X31.972 Y-0.872
G1 X31.972 Y-1.125
G1 X30.528 Y-2.569
G1 X30.528 Y-2.838
G1 X31.972 Y-1.396
G1 X31.972 Y-1.651
G1 X30.528 Y-3.094
G1 X30.528 Y-3.363
G1 X31.972 Y-1.921
G1 X31.972 Y-2.176
G1 X30.528 Y-3.619
G1 X30.528 Y-3.887
G1 X31.972 Y-2.446
G1 X31.972 Y-2.701
G1 X30.528 Y-4.144
G1 X30.528 Y-4.412
G1 X31.972 Y-2.970
G1 X31.972 Y-3.226
G1 X30.528 Y-4.670
G1 X30.528 Y-4.937
G1 X31.972 Y-3.495
G1 X31.972 Y-3.751
G1 X30.528 Y-5.195
G1 X30.528 Y-5.461
G1 X31.972 Y-4.020
G1 X31.972 Y-4.276
G1 X30.528 Y-5.720
G1 X30.528 Y-5.986
G1 X31.972 Y-4.544
G1 X31.972 Y-4.801
G1 X30.528 Y-6.245
G1 X30.528 Y-6.511 F7800.000
G1 X31.972 Y-5.069 F3600.000
G1 X31.972 Y-5.326
G1 X30.528 Y-6.770
G1 X30.528 Y-7.035
G1 X31.972 Y-5.594
G1 X31.972 Y-5.851
G1 X30.528 Y-7.295
G1 X30.528 Y-7.560
G1 X31.972 Y-6.118
G1 X31.972 Y-6.376
G1 X30.528 Y-7.820
G1 X30.585 Y-8.028 F7800.000
G1 X29.139 Y-9.472 F3600.000
G1 X28.876 Y-9.472
G1 X30.320 Y-8.028
G1 X30.059 Y-8.028
G1 X28.613 Y-9.472
G1 X28.351 Y-9.472
G1 X29.795 Y-8.028
G1 X29.534 Y-8.028
G1 X28.088 Y-9.472
G1 X27.826 Y-9.472
G1 X29.270 Y-8.028
G1 X29.008 Y-8.028
G1 X27.562 Y-9.472
G1 X27.301 Y-9.472
G1 X28.745 Y-8.028
G1 X28.483 Y-8.028
G1 X27.037 Y-9.472
G1 X26.776 Y-9.472
G1 X28.220 Y-8.028
G1 X27.957 Y-8.028
G1 X26.511 Y-9.472
G1 X26.251 Y-9.472
G1 X27.695 Y-8.028
G1 X27.432 Y-8.028
G1 X25.985 Y-9.472
G1 X25.726 Y-9.472
G1 X27.170 Y-8.028
G1 X26.906 Y-8.028
G1 X25.460 Y-9.472
G1 X25.201 Y-9.472
G1 X26.644 Y-8.028
G1 X26.381 Y-8.028
G1 X24.934 Y-9.472
G1 X24.676 Y-9.472
G1 X26.119 Y-8.028
G1 X25.855 Y-8.028
G1 X24.409 Y-9.472
G1 X24.151 Y-9.472
G1 X25.594 Y-8.028
G1 X25.330 Y-8.028
G1 X23.883 Y-9.472
G1 X23.625 Y-9.472
G1 X25.069 Y-8.028
G1 X24.804 Y-8.028
G1 X23.358 Y-9.472
G1 X23.100 Y-9.472
G1 X24.544 Y-8.028
G1 X24.279 Y-8.028
G1 X22.832 Y-9.472
G1 X22.575 Y-9.472
G1 X24.019 Y-8.028
G1 X23.753 Y-8.028
G1 X22.307 Y-9.472
G1 X22.050 Y-9.472
G1 X23.494 Y-8.028
G1 X23.227 Y-8.028
G1 X21.781 Y-9.472
G1 X21.525 Y-9.472
G1 X22.969 Y-8.028
G1 X22.702 Y-8.028
G1 X21.256 Y-9.472
G1 X21.000 Y-9.472
G1 X22.444 Y-8.028
G1 X22.176 Y-8.028
G1 X20.730 Y-9.472
G1 X20.475 Y-9.472
G1 X21.919 Y-8.028
G1 X21.651 Y-8.028
G1 X20.205 Y-9.472
G1 X19.950 Y-9.472
G1 X21.394 Y-8.028
G1 X21.125 Y-8.028
G1 X19.679 Y-9.472
G1 X19.425 Y-9.472
G1 X20.869 Y-8.028
G1 X20.600 Y-8.028
G1 X19.154 Y-9.472
G1 X18.900 Y-9.472
G1 X20.344 Y-8.028
G1 X20.074 Y-8.028
G1 X18.628 Y-9.472
G1 X18.375 Y-9.472
G1 X19.818 Y-8.028
G1 X19.549 Y-8.028
G1 X18.103 Y-9.472
G1 X17.850 Y-9.472
G1 X19.293 Y-8.028
G1 X19.023 Y-8.028
G1 X17.577 Y-9.472
G1 X17.324 Y-9.472
G1 X18.768 Y-8.028
G1 X18.498 Y-8.028
G1 X17.052 Y-9.472
G1 X16.799 Y-9.472
G1 X18.243 Y-8.028
G1 X17.972 Y-8.028
G1 X16.526 Y-9.472
G1 X16.274 Y-9.472
G1 X17.718 Y-8.028
G1 X17.447 Y-8.028
G1 X16.001 Y-9.472
G1 X15.749 Y-9.472
G1 X17.193 Y-8.028
G1 X16.921 Y-8.028
G1 X15.475 Y-9.472
G1 X15.224 Y-9.472
G1 X16.668 Y-8.028
G1 X16.396 Y-8.028
G1 X14.950 Y-9.472
G1 X14.699 Y-9.472
G1 X16.143 Y-8.028
G1 X15.870 Y-8.028
G1 X14.424 Y-9.472
G1 X14.174 Y-9.472
G1 X15.618 Y-8.028
G1 X15.345 Y-8.028
G1 X13.899 Y-9.472
G1 X13.649 Y-9.472
G1 X15.093 Y-8.028
G1 X14.819 Y-8.028
G1 X13.373 Y-9.472
G1 X13.124 Y-9.472
G1 X14.568 Y-8.028
G1 X14.294 Y-8.028
G1 X12.848 Y-9.472
G1 X12.599 Y-9.472
G1 X14.043 Y-8.028
G1 X13.768 Y-8.028
G1 X12.322 Y-9.472
G1 X12.074 Y-9.472
G1 X13.517 Y-8.028
G1 X13.243 Y-8.028
G1 X11.797 Y-9.472
G1 X11.549 Y-9.472
G1 X12.992 Y-8.028
G1 X12.717 Y-8.028
G1 X11.271 Y-9.472
G1 X11.023 Y-9.472
G1 X12.467 Y-8.028
G1 X12.192 Y-8.028
G1 X10.746 Y-9.472
G1 X10.498 Y-9.472
G1 X11.942 Y-8.028
G1 X11.666 Y-8.028
G1 X10.220 Y-9.472
G1 X9.973 Y-9.472
G1 X11.417 Y-8.028
G1 X11.141 Y-8.028
G1 X9.695 Y-9.472
G1 X9.448 Y-9.472
G1 X10.892 Y-8.028
G1 X10.615 Y-8.028
G1 X9.169 Y-9.472
G1 X8.923 Y-9.472
G1 X10.367 Y-8.028
G1 X10.090 Y-8.028
G1 X8.644 Y-9.472
G1 X8.398 Y-9.472
G1 X9.842 Y-8.028
G1 X9.564 Y-8.028
G1 X8.118 Y-9.472
G1 X7.873 Y-9.472
G1 X9.317 Y-8.028
G1 X9.039 Y-8.028
G1 X7.593 Y-9.472
G1 X7.348 Y-9.472
G1 X8.792 Y-8.028
G1 X8.513 Y-8.028
G1 X7.067 Y-9.472
G1 X6.823 Y-9.472
G1 X8.267 Y-8.028
G1 X7.988 Y-8.028
G1 X6.542 Y-9.472
G1 X6.298 Y-9.472
G1 X7.742 Y-8.028
G1 X7.462 Y-8.028
G1 X6.016 Y-9.472
G1 X5.773 Y-9.472
G1 X7.217 Y-8.028
G1 X6.937 Y-8.028
G1 X5.491 Y-9.472
G1 X5.248 Y-9.472
G1 X6.691 Y-8.028
G1 X6.472 Y-7.968 F7800.000
G1 X5.028 Y-9.409 F3600.000
G1 X5.028 Y-9.166
G1 X6.472 Y-7.723
G1 X6.472 Y-7.443
G1 X5.028 Y-8.884
G1 X5.028 Y-8.641
G1 X6.472 Y-7.197
G1 X6.472 Y-6.918
G1 X5.028 Y-8.360
G1 X5.028 Y-8.116
G1 X6.472 Y-6.672
G1 X6.472 Y-6.394
G1 X5.028 Y-7.835
G1 X5.028 Y-7.591
G1 X6.472 Y-6.147
G1 X6.472 Y-5.869
G1 X5.028 Y-7.311
G1 X5.028 Y-7.066
G1 X6.472 Y-5.622
G1 X6.472 Y-5.344
G1 X5.028 Y-6.786
G1 X5.028 Y-6.541
G1 X6.472 Y-5.097
G1 X6.472 Y-4.820
G1 X5.028 Y-6.261
G1 X5.028 Y-6.016
G1 X6.472 Y-4.572
G1 X6.472 Y-4.295
G1 X5.028 Y-5.737
G1 X5.028 Y-5.491
G1 X6.472 Y-4.047
G1 X6.472 Y-3.770
G1 X5.028 Y-5.212
G1 X5.028 Y-4.966
G1 X6.472 Y-3.522
G1 X6.472 Y-3.246
G1 X5.028 Y-4.687
G1 X5.028 Y-4.441
G1 X6.472 Y-2.997
G1 X6.472 Y-2.721
G1 X5.028 Y-4.163
G1 X5.028 Y-3.916
G1 X6.472 Y-2.472
G1 X6.472 Y-2.196
G1 X5.028 Y-3.638
G1 X5.028 Y-3.390
G1 X6.472 Y-1.947
G1 X6.472 Y-1.672
G1 X5.028 Y-3.113
G1 X5.028 Y-2.865
G1 X6.472 Y-1.422
G1 X6.472 Y-1.147
G1 X5.028 Y-2.589
G1 X5.028 Y-2.340
G1 X6.472 Y-0.896
G1 X6.472 Y-0.622
G1 X5.028 Y-2.064
G1 X5.028 Y-1.815
G1 X6.472 Y-0.371
G1 X6.472 Y-0.098
G1 X5.028 Y-1.539
G1 X5.028 Y-1.290
G1 X6.472 Y0.154
G1 X6.472 Y0.427
G1 X5.028 Y-1.015
G1 X5.028 Y-0.765
G1 X6.472 Y0.679
G1 X6.472 Y0.952
G1 X5.028 Y-0.490
G1 X5.028 Y-0.240
G1 X6.472 Y1.204
G1 X6.472 Y1.476
G1 X5.028 Y0.035
G1 X5.028 Y0.285
G1 X6.472 Y1.729
G1 X6.472 Y2.001
G1 X5.028 Y0.559
G1 X5.028 Y0.810
G1 X6.472 Y2.254
G1 X6.472 Y2.526
G1 X5.028 Y1.084
G1 X5.028 Y1.335
G1 X6.472 Y2.779
G1 X6.472 Y3.050
G1 X5.028 Y1.609
G1 X5.028 Y1.860
G1 X6.472 Y3.304
G1 X6.472 Y3.575
G1 X5.028 Y2.133
G1 X5.028 Y2.385
G1 X6.472 Y3.829
G1 X6.472 Y4.100
G1 X5.028 Y2.658
G1 X5.028 Y2.911
G1 X6.472 Y4.354
G1 X6.472 Y4.624
G1 X5.028 Y3.183
G1 X5.028 Y3.436
G1 X6.472 Y4.879
G1 X6.472 Y5.149
G1 X5.028 Y3.707
G1 X5.028 Y3.961
G1 X6.472 Y5.404
G1 X6.472 Y5.673
G1 X5.028 Y4.232
G1 X5.028 Y4.486
G1 X6.472 Y5.930
G1 X6.472 Y6.198
G1 X5.028 Y4.757
G1 X5.028 Y5.011
G1 X6.472 Y6.455
G1 X6.472 Y6.723
G1 X5.028 Y5.281
G1 X5.028 Y5.536
G1 X6.472 Y6.980
G1 X6.472 Y7.247
G1 X5.028 Y5.806
G1 X5.028 Y6.061
G1 X6.472 Y7.505
G1 X6.472 Y7.772
G1 X5.028 Y6.331
G1 X5.028 Y6.586
G1 X6.472 Y8.030
G1 X6.472 Y8.297
G1 X5.028 Y6.855
G1 X5.028 Y7.111
G1 X6.472 Y8.555
G1 X6.472 Y8.821
G1 X5.028 Y7.380
G1 X5.028 Y7.636
G1 X6.472 Y9.080
G1 X6.472 Y9.346
G1 X5.028 Y7.904
G1 X5.028 Y8.161
G1 X6.472 Y9.605
G1 X6.472 Y9.871
G1 X5.028 Y8.429
G1 X5.028 Y8.686
G1 X6.472 Y10.130
G1 X6.472 Y10.395
G1 X5.028 Y8.954
G1 X5.028 Y9.211
G1 X6.472 Y10.655
G1 X6.472 Y10.920
G1 X5.028 Y9.478
G1 X5.028 Y9.737
G1 X6.472 Y11.180
G1 X6.472 Y11.445
G1 X5.028 Y10.003
G1 X5.028 Y10.262
G1 X6.472 Y11.705
G1 X6.472 Y11.969
G1 X5.028 Y10.528
G1 X5.028 Y10.787
G1 X6.472 Y12.231
G1 X6.472 Y12.494
G1 X5.028 Y11.052
G1 X5.028 Y11.312
G1 X6.472 Y12.756
G1 X6.472 Y13.019
G1 X5.028 Y11.577
G1 X5.028 Y11.837
G1 X6.472 Y13.281
G1 X6.472 Y13.543
G1 X5.028 Y12.102
G1 X5.028 Y12.362
G1 X6.472 Y13.806
G1 X6.472 Y14.068
G1 X5.028 Y12.626
G1 X5.028 Y12.887
G1 X6.472 Y14.331
G1 X6.472 Y14.593
G1 X5.028 Y13.151
G1 X5.028 Y13.412
G1 X6.472 Y14.856
G1 X6.472 Y15.117
G1 X5.028 Y13.676
G1 X5.028 Y13.937
G1 X6.472 Y15.381
G1 X6.472 Y15.642
G1 X5.028 Y14.200
