; generated by Slic3r 1.2.9 on 2018-02-20 at 14:16:20

; external perimeters extrusion width = 0.20mm
; perimeters extrusion width = 0.21mm
; infill extrusion width = 0.21mm
; solid infill extrusion width = 0.21mm
; top infill extrusion width = 0.21mm

M107
M104 S200 ; set temperature

M109 S200 ; wait for temperature to be reached
G21 ; set units to millimeters
G90 ; use absolute coordinates
G1 Z0.200
G1 X9.291 Y14.528 F7800.000
G1 X12.240 Y17.472 F3600.000
G1 X12.497 Y17.472
G1 X9.554 Y14.528
G1 X9.817 Y14.528
G1 X12.765 Y17.472
G1 X13.022 Y17.472
G1 X10.079 Y14.528
G1 X10.342 Y14.528
G1 X13.291 Y17.472
G1 X13.548 Y17.472
G1 X10.604 Y14.528
G1 X10.868 Y14.528
G1 X13.816 Y17.472
G1 X14.073 Y17.472
G1 X11.129 Y14.528
G1 X11.393 Y14.528
G1 X14.342 Y17.472
G1 X14.598 Y17.472
G1 X11.654 Y14.528
G1 X11.919 Y14.528
G1 X14.868 Y17.472
G1 X15.123 Y17.472
G1 X12.179 Y14.528
G1 X12.444 Y14.528
G1 X15.393 Y17.472
G1 X15.648 Y17.472
G1 X12.704 Y14.528
G1 X12.970 Y14.528
G1 X15.919 Y17.472
G1 X16.173 Y17.472
G1 X13.229 Y14.528
G1 X13.495 Y14.528
G1 X16.444 Y17.472
G1 X16.698 Y17.472
G1 X13.754 Y14.528
G1 X14.021 Y14.528
G1 X16.970 Y17.472
G1 X17.223 Y17.472
G1 X14.279 Y14.528
G1 X14.546 Y14.528
G1 X17.495 Y17.472
G1 X17.748 Y17.472
G1 X14.804 Y14.528
G1 X15.072 Y14.528
G1 X18.021 Y17.472
G1 X18.273 Y17.472
G1 X15.329 Y14.528
G1 X15.597 Y14.528
G1 X18.546 Y17.472
G1 X18.798 Y17.472
G1 X15.855 Y14.528
G1 X16.123 Y14.528
G1 X19.072 Y17.472
G1 X19.323 Y17.472
G1 X16.380 Y14.528
G1 X16.649 Y14.528
G1 X19.597 Y17.472
G1 X19.849 Y17.472
G1 X16.905 Y14.528
G1 X17.174 Y14.528
G1 X20.123 Y17.472
G1 X20.374 Y17.472
G1 X17.430 Y14.528
G1 X17.700 Y14.528
G1 X20.649 Y17.472
G1 X20.899 Y17.472
G1 X17.955 Y14.528
G1 X18.225 Y14.528
G1 X21.174 Y17.472
G1 X21.424 Y17.472
G1 X18.480 Y14.528
G1 X18.751 Y14.528
G1 X21.700 Y17.472
G1 X21.949 Y17.472
G1 X19.005 Y14.528
G1 X19.276 Y14.528
G1 X22.225 Y17.472
G1 X22.474 Y17.472
G1 X19.530 Y14.528
G1 X19.802 Y14.528
G1 X22.751 Y17.472
G1 X22.999 Y17.472
G1 X20.055 Y14.528
G1 X20.327 Y14.528
G1 X23.276 Y17.472
G1 X23.524 Y17.472
G1 X20.580 Y14.528
G1 X20.853 Y14.528
G1 X23.802 Y17.472
G1 X24.049 Y17.472
G1 X21.105 Y14.528
G1 X21.378 Y14.528
G1 X24.327 Y17.472
G1 X24.574 Y17.472
G1 X21.630 Y14.528
G1 X21.904 Y14.528
G1 X24.853 Y17.472
G1 X25.099 Y17.472
G1 X22.155 Y14.528
G1 X22.430 Y14.528
G1 X25.378 Y17.472
G1 X25.624 Y17.472
G1 X22.681 Y14.528
G1 X22.955 Y14.528
G1 X25.904 Y17.472
G1 X26.149 Y17.472
G1 X23.206 Y14.528
G1 X23.481 Y14.528
G1 X26.429 Y17.472
G1 X26.675 Y17.472
G1 X23.731 Y14.528
G1 X24.006 Y14.528
G1 X26.955 Y17.472
G1 X27.200 Y17.472
G1 X24.256 Y14.528
G1 X24.532 Y14.528
G1 X27.481 Y17.472
G1 X27.725 Y17.472
G1 X24.781 Y14.528
G1 X25.057 Y14.528
G1 X28.006 Y17.472
G1 X28.250 Y17.472
G1 X25.306 Y14.528
G1 X25.583 Y14.528
G1 X28.532 Y17.472
G1 X28.775 Y17.472
G1 X25.831 Y14.528
G1 X26.108 Y14.528
G1 X29.057 Y17.472
G1 X29.300 Y17.472
G1 X26.356 Y14.528
G1 X26.634 Y14.528
G1 X29.583 Y17.472
G1 X29.825 Y17.472
G1 X26.881 Y14.528
G1 X27.159 Y14.528
G1 X30.108 Y17.472
G1 X30.350 Y17.472
G1 X27.406 Y14.528
G1 X27.685 Y14.528
G1 X30.634 Y17.472
G1 X30.875 Y17.472
G1 X27.931 Y14.528
G1 X28.210 Y14.528
G1 X31.159 Y17.472
G1 X31.400 Y17.472
G1 X28.456 Y14.528
G1 X28.736 Y14.528
G1 X31.685 Y17.472
G1 X31.925 Y17.472
G1 X28.982 Y14.528
G1 X29.262 Y14.528
G1 X32.210 Y17.472
G1 X32.450 Y17.472
G1 X29.507 Y14.528
G1 X29.787 Y14.528
G1 X32.736 Y17.472
G1 X32.976 Y17.472
G1 X30.032 Y14.528
G1 X30.313 Y14.528
G1 X33.262 Y17.472
G1 X33.501 Y17.472
G1 X30.557 Y14.528
G1 X30.838 Y14.528
G1 X33.787 Y17.472
G1 X34.026 Y17.472
G1 X31.082 Y14.528
G1 X31.364 Y14.528
G1 X34.313 Y17.472
G1 X34.551 Y17.472
G1 X31.607 Y14.528
G1 X31.889 Y14.528
G1 X34.838 Y17.472
G1 X35.076 Y17.472
G1 X32.132 Y14.528
G1 X32.415 Y14.528
G1 X35.364 Y17.472
G1 X35.601 Y17.472
G1 X32.657 Y14.528
G1 X32.940 Y14.528
G1 X35.889 Y17.472
G1 X36.126 Y17.472
G1 X33.182 Y14.528
G1 X33.413 Y14.475 F7800.000
G1 X36.357 Y17.414 F3600.000
G1 X36.357 Y17.177
G1 X33.413 Y14.234
G1 X33.413 Y13.950
G1 X36.357 Y16.889
G1 X36.357 Y16.652
G1 X33.413 Y13.708
G1 X33.413 Y13.426
G1 X36.357 Y16.365
G1 X36.357 Y16.127
G1 X33.413 Y13.183
G1 X33.413 Y12.901
G1 X36.357 Y15.840
G1 X36.357 Y15.602
G1 X33.413 Y12.658
G1 X33.413 Y12.376
G1 X36.357 Y15.315
G1 X36.357 Y15.077
G1 X33.413 Y12.133
G1 X33.413 Y11.852
G1 X36.357 Y14.791
G1 X36.357 Y14.552
G1 X33.413 Y11.608
G1 X33.413 Y11.327
G1 X36.357 Y14.266
G1 X36.357 Y14.027
G1 X33.413 Y11.083
G1 X33.413 Y10.803
G1 X36.357 Y13.741
G1 X36.357 Y13.502
G1 X33.413 Y10.558
G1 X33.413 Y10.278
G1 X36.357 Y13.217
G1 X36.357 Y12.977
G1 X33.413 Y10.033
G1 X33.413 Y9.753
G1 X36.357 Y12.692
G1 X36.357 Y12.452
G1 X33.413 Y9.508
G1 X33.413 Y9.229
G1 X36.357 Y12.168
G1 X36.357 Y11.927
G1 X33.413 Y8.983
G1 X33.413 Y8.704
G1 X36.357 Y11.643
G1 X36.357 Y11.401
G1 X33.413 Y8.458
G1 X33.413 Y8.180
G1 X36.357 Y11.118
G1 X36.357 Y10.876
G1 X33.413 Y7.933
G1 X33.413 Y7.655
G1 X36.357 Y10.594
G1 X36.357 Y10.351
G1 X33.413 Y7.407
G1 X33.413 Y7.130
G1 X36.357 Y10.069
G1 X36.357 Y9.826
G1 X33.413 Y6.882
G1 X33.413 Y6.606
G1 X36.357 Y9.544
G1 X36.357 Y9.301
G1 X33.413 Y6.357
G1 X33.413 Y6.081
G1 X36.357 Y9.020
G1 X36.357 Y8.776
G1 X33.413 Y5.832
G1 X33.413 Y5.556
G1 X36.357 Y8.495
G1 X36.357 Y8.251
G1 X33.413 Y5.307
G1 X33.413 Y5.032
G1 X36.357 Y7.971
G1 X36.357 Y7.726
G1 X33.413 Y4.782
G1 X33.413 Y4.507
G1 X36.357 Y7.446
G1 X36.357 Y7.201
G1 X33.413 Y4.257
G1 X33.413 Y3.983
G1 X36.357 Y6.921
G1 X36.357 Y6.676
G1 X33.413 Y3.732
G1 X33.413 Y3.458
G1 X36.357 Y6.397
G1 X36.357 Y6.151
G1 X33.413 Y3.207
G1 X33.413 Y2.933
G1 X36.357 Y5.872
G1 X36.357 Y5.626
G1 X33.413 Y2.682
G1 X33.413 Y2.409
G1 X36.357 Y5.347
G1 X36.357 Y5.101
G1 X33.413 Y2.157
G1 X33.413 Y1.884
G1 X36.357 Y4.823
G1 X36.357 Y4.575
G1 X33.413 Y1.632
G1 X33.413 Y1.359
G1 X36.357 Y4.298
G1 X36.357 Y4.050
G1 X33.413 Y1.107
G1 X33.413 Y0.835
G1 X36.357 Y3.774
G1 X36.357 Y3.525
G1 X33.413 Y0.581
G1 X33.413 Y0.310
G1 X36.357 Y3.249
G1 X36.357 Y3.000
G1 X33.413 Y0.056
G1 X33.413 Y-0.214
G1 X36.357 Y2.724
G1 X36.357 Y2.475
G1 X33.413 Y-0.469
G1 X33.413 Y-0.739
G1 X36.357 Y2.200
G1 X36.357 Y1.950
G1 X33.413 Y-0.994
G1 X33.413 Y-1.264
G1 X36.357 Y1.675
G1 X36.357 Y1.425
G1 X33.413 Y-1.519
G1 X33.413 Y-1.788
G1 X36.357 Y1.151
G1 X36.357 Y0.900
G1 X33.413 Y-2.044
G1 X33.413 Y-2.313
G1 X36.357 Y0.626
G1 X36.357 Y0.375
G1 X33.413 Y-2.569
G1 X33.413 Y-2.837
G1 X36.357 Y0.101
G1 X36.357 Y-0.150
G1 X33.413 Y-3.094
G1 X33.413 Y-3.362
G1 X36.357 Y-0.423
G1 X36.357 Y-0.675
G1 X33.413 Y-3.619
G1 X33.413 Y-3.887
G1 X36.357 Y-0.948
G1 X36.357 Y-1.200
G1 X33.413 Y-4.144
G1 X33.413 Y-4.411
G1 X36.357 Y-1.473
G1 X36.357 Y-1.726
G1 X33.413 Y-4.669
G1 X33.413 Y-4.936
G1 X36.357 Y-1.997
G1 X36.357 Y-2.251
G1 X33.413 Y-5.194
G1 X33.413 Y-5.461
G1 X36.357 Y-2.522
G1 X36.357 Y-2.776
G1 X33.413 Y-5.720
G1 X33.413 Y-5.985
G1 X36.357 Y-3.046
G1 X36.357 Y-3.301
G1 X33.413 Y-6.245
G1 X33.413 Y-6.510
G1 X36.357 Y-3.571
G1 X36.357 Y-3.826
G1 X33.413 Y-6.770
G1 X33.413 Y-7.034
G1 X36.357 Y-4.096
G1 X36.357 Y-4.351
G1 X33.413 Y-7.295
G1 X33.413 Y-7.559
G1 X36.357 Y-4.620
G1 X36.357 Y-4.876
G1 X33.413 Y-7.820
G1 X33.413 Y-8.084
G1 X36.357 Y-5.145
G1 X36.357 Y-5.401
G1 X33.413 Y-8.345
G1 X33.413 Y-8.608
G1 X36.357 Y-5.670
G1 X36.357 Y-5.926
G1 X33.413 Y-8.870
G1 X33.413 Y-9.133
G1 X36.357 Y-6.194
G1 X33.413 Y-9.395 F7800.000
G1 X36.357 Y-6.451 F3600.000
G1 X36.357 Y-6.719
G1 X30.593 Y-12.472
G1 X30.861 Y-12.472
G1 X36.357 Y-6.976
G1 X36.357 Y-7.243
G1 X31.119 Y-12.472
G1 X31.386 Y-12.472
G1 X36.357 Y-7.501
G1 X36.357 Y-7.768
G1 X31.644 Y-12.472
G1 X31.911 Y-12.472
G1 X36.357 Y-8.027
G1 X36.357 Y-8.293
G1 X32.170 Y-12.472
G1 X32.436 Y-12.472
G1 X36.357 Y-8.552
G1 X36.357 Y-8.817
G1 X32.696 Y-12.472
G1 X32.961 Y-12.472
G1 X36.357 Y-9.077
G1 X36.357 Y-9.342
G1 X33.221 Y-12.472
G1 X33.486 Y-12.472
G1 X36.357 Y-9.602
G1 X36.357 Y-9.866
G1 X33.747 Y-12.472
G1 X34.011 Y-12.472
G1 X36.357 Y-10.127
G1 X36.357 Y-10.391
G1 X34.272 Y-12.472
G1 X34.537 Y-12.472
G1 X36.357 Y-10.652
G1 X36.357 Y-10.916
G1 X34.798 Y-12.472
G1 X35.062 Y-12.472
G1 X36.357 Y-11.177
G1 X36.357 Y-11.440
G1 X35.323 Y-12.472
G1 X35.587 Y-12.472
G1 X36.357 Y-11.702
G1 X36.357 Y-11.965
G1 X35.849 Y-12.472
G1 X36.112 Y-12.472
G1 X36.357 Y-12.227
G1 X33.280 Y-9.528 F7800.000
G1 X30.336 Y-12.472 F3600.000
G1 X30.068 Y-12.472
G1 X33.017 Y-9.528
G1 X32.755 Y-9.528
G1 X29.811 Y-12.472
G1 X29.542 Y-12.472
G1 X32.491 Y-9.528
G1 X32.230 Y-9.528
G1 X29.286 Y-12.472
G1 X29.017 Y-12.472
G1 X31.966 Y-9.528
G1 X31.704 Y-9.528
G1 X28.761 Y-12.472
G1 X28.491 Y-12.472
G1 X31.440 Y-9.528
G1 X31.179 Y-9.528
G1 X28.236 Y-12.472
G1 X27.966 Y-12.472
G1 X30.915 Y-9.528
G1 X30.654 Y-9.528
G1 X27.710 Y-12.472
G1 X27.440 Y-12.472
G1 X30.389 Y-9.528
G1 X30.129 Y-9.528
G1 X27.185 Y-12.472
G1 X26.915 Y-12.472
G1 X29.863 Y-9.528
G1 X29.604 Y-9.528
G1 X26.660 Y-12.472
G1 X26.389 Y-12.472
G1 X29.338 Y-9.528
G1 X29.079 Y-9.528
G1 X26.135 Y-12.472
G1 X25.864 Y-12.472
G1 X28.812 Y-9.528
G1 X28.554 Y-9.528
G1 X25.610 Y-12.472
G1 X25.338 Y-12.472
G1 X28.287 Y-9.528
G1 X28.029 Y-9.528
G1 X25.085 Y-12.472
G1 X24.812 Y-12.472
G1 X27.761 Y-9.528
G1 X27.504 Y-9.528
G1 X24.560 Y-12.472
G1 X24.287 Y-12.472
G1 X27.236 Y-9.528
G1 X26.979 Y-9.528
G1 X24.035 Y-12.472
G1 X23.761 Y-12.472
G1 X26.710 Y-9.528
G1 X26.454 Y-9.528
G1 X23.510 Y-12.472
G1 X23.236 Y-12.472
G1 X26.185 Y-9.528
G1 X25.929 Y-9.528
G1 X22.985 Y-12.472
G1 X22.857 Y-12.600 F7800.000
G1 X19.913 Y-15.544 F3600.000
G1 X19.913 Y-15.789
G1 X22.857 Y-12.850
G1 X22.857 Y-13.125
G1 X19.913 Y-16.069
G1 X19.913 Y-16.314
G1 X22.857 Y-13.375
G1 X22.857 Y-13.650
G1 X19.913 Y-16.594
G1 X19.913 Y-16.838
G1 X22.857 Y-13.900
G1 X22.857 Y-14.175
G1 X19.913 Y-17.119
G1 X19.913 Y-17.363
G1 X22.857 Y-14.424
G1 X22.857 Y-14.700
G1 X20.085 Y-17.472
G1 X20.329 Y-17.472
G1 X22.857 Y-14.949
G1 X22.857 Y-15.226
G1 X20.610 Y-17.472
G1 X20.855 Y-17.472
G1 X22.857 Y-15.473
G1 X22.857 Y-15.751
G1 X21.135 Y-17.472
G1 X21.380 Y-17.472
G1 X22.857 Y-15.998
G1 X22.857 Y-16.276
G1 X21.660 Y-17.472
G1 X21.906 Y-17.472
G1 X22.857 Y-16.523
G1 X22.857 Y-16.801
G1 X22.185 Y-17.472
G1 X22.431 Y-17.472
G1 X22.857 Y-17.047
G1 X22.857 Y-17.326
G1 X22.710 Y-17.472
G1 X19.913 Y-15.265 F7800.000
G1 X25.659 Y-9.528 F3600.000
G1 X25.404 Y-9.528
G1 X19.913 Y-15.019
G1 X19.913 Y-14.740
G1 X25.134 Y-9.528
G1 X24.878 Y-9.528
G1 X19.913 Y-14.494
G1 X19.913 Y-14.215
G1 X24.608 Y-9.528
G1 X24.353 Y-9.528
G1 X19.913 Y-13.969
G1 X19.913 Y-13.691
G1 X24.082 Y-9.528
G1 X23.828 Y-9.528
G1 X19.913 Y-13.444
G1 X19.913 Y-13.166
G1 X23.557 Y-9.528
G1 X23.303 Y-9.528
G1 X19.913 Y-12.919
G1 X19.913 Y-12.641
G1 X23.031 Y-9.528
G1 X22.778 Y-9.528
G1 X19.834 Y-12.472
G1 X19.557 Y-12.472
G1 X22.506 Y-9.528
G1 X22.253 Y-9.528
G1 X19.309 Y-12.472
G1 X19.031 Y-12.472
G1 X21.980 Y-9.528
G1 X21.728 Y-9.528
G1 X18.784 Y-12.472
G1 X18.506 Y-12.472
G1 X21.455 Y-9.528
G1 X21.203 Y-9.528
G1 X18.259 Y-12.472
G1 X17.980 Y-12.472
G1 X20.929 Y-9.528
G1 X20.678 Y-9.528
G1 X17.734 Y-12.472
G1 X17.455 Y-12.472
G1 X20.404 Y-9.528
G1 X20.153 Y-9.528
G1 X17.209 Y-12.472
G1 X16.929 Y-12.472
G1 X19.878 Y-9.528
G1 X19.628 Y-9.528
G1 X16.684 Y-12.472
G1 X16.404 Y-12.472
G1 X19.353 Y-9.528
G1 X19.103 Y-9.528
G1 X16.159 Y-12.472
G1 X15.878 Y-12.472
G1 X18.827 Y-9.528
G1 X18.577 Y-9.528
G1 X15.634 Y-12.472
G1 X15.353 Y-12.472
G1 X18.302 Y-9.528
G1 X18.052 Y-9.528
G1 X15.109 Y-12.472
G1 X14.827 Y-12.472
G1 X17.776 Y-9.528
G1 X17.527 Y-9.528
G1 X14.583 Y-12.472
G1 X14.302 Y-12.472
G1 X17.250 Y-9.528
G1 X17.002 Y-9.528
G1 X14.058 Y-12.472
G1 X13.776 Y-12.472
G1 X16.725 Y-9.528
G1 X16.477 Y-9.528
G1 X13.533 Y-12.472
G1 X13.250 Y-12.472
G1 X16.199 Y-9.528
G1 X15.952 Y-9.528
G1 X13.008 Y-12.472
G1 X12.725 Y-12.472
G1 X15.674 Y-9.528
G1 X15.427 Y-9.528
G1 X12.483 Y-12.472
G1 X12.199 Y-12.472
G1 X15.148 Y-9.528
G1 X14.902 Y-9.528
G1 X11.958 Y-12.472
G1 X11.674 Y-12.472
G1 X14.623 Y-9.528
G1 X14.377 Y-9.528
G1 X11.433 Y-12.472
G1 X11.148 Y-12.472
G1 X14.097 Y-9.528
G1 X13.852 Y-9.528
G1 X10.908 Y-12.472
G1 X10.623 Y-12.472
G1 X13.572 Y-9.528
G1 X13.327 Y-9.528
G1 X10.383 Y-12.472
G1 X10.097 Y-12.472
G1 X13.046 Y-9.528
G1 X12.802 Y-9.528
G1 X9.858 Y-12.472
G1 X9.572 Y-12.472
G1 X12.521 Y-9.528
G1 X12.276 Y-9.528
G1 X9.333 Y-12.472
G1 X9.046 Y-12.472
G1 X11.995 Y-9.528
G1 X11.751 Y-9.528
G1 X8.808 Y-12.472
G1 X8.521 Y-12.472
G1 X11.469 Y-9.528
G1 X11.226 Y-9.528
G1 X8.282 Y-12.472
G1 X7.995 Y-12.472
G1 X10.944 Y-9.528
G1 X10.701 Y-9.528
G1 X7.757 Y-12.472
G1 X7.470 Y-12.472
G1 X10.418 Y-9.528
G1 X10.176 Y-9.528
G1 X7.232 Y-12.472
G1 X6.944 Y-12.472
G1 X9.893 Y-9.528
G1 X9.651 Y-9.528
G1 X6.707 Y-12.472
G1 X6.436 Y-12.455
G1 X9.367 Y-9.528
G1 X9.357 Y-9.298
G1 X6.413 Y-12.241
G1 X6.413 Y-11.953
G1 X9.357 Y-9.014
G1 X9.357 Y-8.772
G1 X6.413 Y-11.716
G1 X6.413 Y-11.428
G1 X9.357 Y-8.490
G1 X9.357 Y-8.247
G1 X6.413 Y-11.191
G1 X6.413 Y-10.904
G1 X9.357 Y-7.965
G1 X9.357 Y-7.722
G1 X6.413 Y-10.666
G1 X6.413 Y-10.379
G1 X9.357 Y-7.440
G1 X9.357 Y-7.197
G1 X6.413 Y-10.141
G1 X6.413 Y-9.855
G1 X9.357 Y-6.916
G1 X9.357 Y-6.672
G1 X6.413 Y-9.616
G1 X6.413 Y-9.330
G1 X9.357 Y-6.391
G1 X9.357 Y-6.147
G1 X6.413 Y-9.091
G1 X6.413 Y-8.805
G1 X9.357 Y-5.867
G1 X9.357 Y-5.622
G1 X6.413 Y-8.566
G1 X6.413 Y-8.281
G1 X9.357 Y-5.342
G1 X9.357 Y-5.097
G1 X6.413 Y-8.041
G1 X6.413 Y-7.756
G1 X9.357 Y-4.817
G1 X9.357 Y-4.572
G1 X6.413 Y-7.516
G1 X6.413 Y-7.231
G1 X9.357 Y-4.293
G1 X9.357 Y-4.047
G1 X6.413 Y-6.991
G1 X6.413 Y-6.707
G1 X9.357 Y-3.768
G1 X9.357 Y-3.522
G1 X6.413 Y-6.466
G1 X6.413 Y-6.182
G1 X9.357 Y-3.243
G1 X9.357 Y-2.997
G1 X6.413 Y-5.940
G1 X6.413 Y-5.658
G1 X9.357 Y-2.719
G1 X9.357 Y-2.472
G1 X6.413 Y-5.415
G1 X6.413 Y-5.133
G1 X9.357 Y-2.194
G1 X9.357 Y-1.946
G1 X6.413 Y-4.890
G1 X6.413 Y-4.608
G1 X9.357 Y-1.670
G1 X9.357 Y-1.421
G1 X6.413 Y-4.365
G1 X6.413 Y-4.084
G1 X9.357 Y-1.145
G1 X9.357 Y-0.896
G1 X6.413 Y-3.840
G1 X6.413 Y-3.559
G1 X9.357 Y-0.620
G1 X9.357 Y-0.371
G1 X6.413 Y-3.315
G1 X6.413 Y-3.034
G1 X9.357 Y-0.096
G1 X9.357 Y0.154
G1 X6.413 Y-2.790
G1 X6.413 Y-2.510
G1 X9.357 Y0.429
G1 X9.357 Y0.679
G1 X6.413 Y-2.265
G1 X6.413 Y-1.985
G1 X9.357 Y0.954
G1 X9.357 Y1.204
G1 X6.413 Y-1.740
G1 X6.413 Y-1.461
G1 X9.357 Y1.478
G1 X9.357 Y1.729
G1 X6.413 Y-1.215
G1 X6.413 Y-0.936
G1 X9.357 Y2.003
G1 X9.357 Y2.254
G1 X6.413 Y-0.690
G1 X6.413 Y-0.411
G1 X9.357 Y2.527
G1 X9.357 Y2.779
G1 X6.413 Y-0.165
G1 X6.413 Y0.113
G1 X9.357 Y3.052
G1 X9.357 Y3.304
G1 X6.413 Y0.361
G1 X6.413 Y0.638
G1 X9.357 Y3.577
G1 X9.357 Y3.829
G1 X6.413 Y0.886
G1 X6.413 Y1.162
G1 X9.357 Y4.101
G1 X9.357 Y4.355
G1 X6.413 Y1.411
G1 X6.413 Y1.687
G1 X9.357 Y4.626
G1 X9.357 Y4.880
G1 X6.413 Y1.936
G1 X6.413 Y2.212
G1 X9.357 Y5.151
G1 X9.357 Y5.405
G1 X6.413 Y2.461
G1 X6.413 Y2.736
G1 X9.357 Y5.675
G1 X9.357 Y5.930
G1 X6.413 Y2.986
G1 X6.413 Y3.261
G1 X9.357 Y6.200
G1 X9.357 Y6.455
G1 X6.413 Y3.511
G1 X6.413 Y3.786
G1 X9.357 Y6.724
G1 X9.357 Y6.980
G1 X6.413 Y4.036
G1 X6.413 Y4.310
G1 X9.357 Y7.249
G1 X9.357 Y7.505
G1 X6.413 Y4.561
G1 X6.413 Y4.835
G1 X9.357 Y7.774
G1 X9.357 Y8.030
G1 X6.413 Y5.086
G1 X6.413 Y5.359
G1 X9.357 Y8.298
G1 X9.357 Y8.555
G1 X6.413 Y5.611
G1 X6.413 Y5.884
G1 X9.357 Y8.823
G1 X9.357 Y9.080
G1 X6.413 Y6.136
G1 X6.413 Y6.409
G1 X9.357 Y9.347
G1 X9.357 Y9.605
G1 X6.413 Y6.662
G1 X6.413 Y6.933
G1 X9.357 Y9.872
G1 X9.357 Y10.130
G1 X6.413 Y7.187
G1 X6.413 Y7.458
G1 X9.357 Y10.397
G1 X9.357 Y10.656
G1 X6.413 Y7.712
G1 X6.413 Y7.983
G1 X9.357 Y10.921
G1 X9.357 Y11.181
G1 X6.413 Y8.237
G1 X6.413 Y8.507
G1 X9.357 Y11.446
G1 X9.357 Y11.706
G1 X6.413 Y8.762
G1 X6.413 Y9.032
G1 X9.357 Y11.971
G1 X9.357 Y12.231
G1 X6.413 Y9.287
G1 X6.413 Y9.556
G1 X9.357 Y12.495
G1 X9.357 Y12.756
G1 X6.413 Y9.812
G1 X6.413 Y10.081
G1 X9.357 Y13.020
G1 X9.357 Y13.281
G1 X6.413 Y10.337
G1 X6.413 Y10.606
G1 X9.357 Y13.544
G1 X9.357 Y13.806
G1 X6.413 Y10.862
G1 X6.413 Y11.130
G1 X9.357 Y14.069
G1 X9.357 Y14.331
G1 X6.413 Y11.387
G1 X6.413 Y11.655
G1 X9.357 Y14.594
G1 X11.972 Y17.472 F7800.000
G1 X6.413 Y11.912 F3600.000
G1 X6.413 Y12.179
G1 X11.714 Y17.472
G1 X11.447 Y17.472
G1 X6.413 Y12.437
G1 X6.413 Y12.704
G1 X11.189 Y17.472
G1 X10.922 Y17.472
G1 X6.413 Y12.962
G1 X6.413 Y13.229
G1 X10.663 Y17.472
G1 X10.397 Y17.472
G1 X6.413 Y13.488
G1 X6.413 Y13.753
G1 X10.138 Y17.472
G1 X9.872 Y17.472
G1 X6.413 Y14.013
G1 X6.413 Y14.278
G1 X9.612 Y17.472
G1 X9.347 Y17.472
G1 X6.413 Y14.538
G1 X6.413 Y14.803
G1 X9.087 Y17.472
G1 X8.822 Y17.472
G1 X6.413 Y15.063
G1 X6.413 Y15.327
G1 X8.561 Y17.472
G1 X8.297 Y17.472
G1 X6.413 Y15.588
G1 X6.413 Y15.852
G1 X8.036 Y17.472
G1 X7.772 Y17.472
G1 X6.413 Y16.113
G1 X6.413 Y16.376
G1 X7.510 Y17.472
G1 X7.247 Y17.472
G1 X6.413 Y16.638
G1 X6.413 Y16.901
G1 X6.984 Y17.472
G1 X6.721 Y17.472
G1 X6.413 Y17.163
G1 Z0.200 
G1 X-9.357 Y14.475 F7800.000
G1 X-6.413 Y17.414 F3600.000
G1 X-6.413 Y17.177
G1 X-9.357 Y14.234
G1 X-9.357 Y13.950
G1 X-6.413 Y16.889
G1 X-6.413 Y16.652
G1 X-9.357 Y13.708
G1 X-9.357 Y13.426
G1 X-6.413 Y16.365
G1 X-6.413 Y16.127
G1 X-9.357 Y13.183
G1 X-9.357 Y12.901
G1 X-6.413 Y15.840
G1 X-6.413 Y15.602
G1 X-9.357 Y12.658
G1 X-9.357 Y12.376
G1 X-6.413 Y15.315
G1 X-6.413 Y15.077
G1 X-9.357 Y12.133
G1 X-9.357 Y11.852
G1 X-6.413 Y14.791
G1 X-6.413 Y14.552
G1 X-9.357 Y11.608
G1 X-9.357 Y11.327
G1 X-6.413 Y14.266
G1 X-6.413 Y14.027
G1 X-9.357 Y11.083
G1 X-9.357 Y10.803
G1 X-6.413 Y13.741
G1 X-6.413 Y13.502
G1 X-9.357 Y10.558
G1 X-9.357 Y10.278
G1 X-6.413 Y13.217
G1 X-6.413 Y12.977
G1 X-9.357 Y10.033
G1 X-9.357 Y9.753
G1 X-6.413 Y12.692
G1 X-6.413 Y12.452
G1 X-9.357 Y9.508
G1 X-9.357 Y9.229
G1 X-6.413 Y12.168
G1 X-6.413 Y11.927
G1 X-9.357 Y8.983
G1 X-9.357 Y8.704
G1 X-6.413 Y11.643
G1 X-6.413 Y11.401
G1 X-9.357 Y8.458
G1 X-9.357 Y8.180
G1 X-6.413 Y11.118
G1 X-6.413 Y10.876
G1 X-9.357 Y7.933
G1 X-9.357 Y7.655
G1 X-6.413 Y10.594
G1 X-6.413 Y10.351
G1 X-9.357 Y7.407
G1 X-9.357 Y7.130
G1 X-6.413 Y10.069
G1 X-6.413 Y9.826
G1 X-9.357 Y6.882
G1 X-9.357 Y6.606
G1 X-6.413 Y9.544
G1 X-6.413 Y9.301
G1 X-9.357 Y6.357
G1 X-9.357 Y6.081
G1 X-6.413 Y9.020
G1 X-6.413 Y8.776
G1 X-9.357 Y5.832
G1 X-9.357 Y5.556
G1 X-6.413 Y8.495
G1 X-6.413 Y8.251
G1 X-9.357 Y5.307
G1 X-9.357 Y5.032
G1 X-6.413 Y7.971
G1 X-6.413 Y7.726
G1 X-9.357 Y4.782
G1 X-9.357 Y4.507
G1 X-6.413 Y7.446
G1 X-6.413 Y7.201
G1 X-9.357 Y4.257
G1 X-9.357 Y3.983
G1 X-6.413 Y6.921
G1 X-6.413 Y6.676
G1 X-9.357 Y3.732
G1 X-9.357 Y3.458
G1 X-6.413 Y6.397
G1 X-6.413 Y6.151
G1 X-9.357 Y3.207
G1 X-9.357 Y2.933
G1 X-6.413 Y5.872
G1 X-6.413 Y5.626
G1 X-9.357 Y2.682
G1 X-9.357 Y2.409
G1 X-6.413 Y5.347
G1 X-6.413 Y5.101
G1 X-9.357 Y2.157
G1 X-9.357 Y1.884
G1 X-6.413 Y4.823
G1 X-6.413 Y4.575
G1 X-9.357 Y1.632
G1 X-9.357 Y1.359
G1 X-6.413 Y4.298
G1 X-6.413 Y4.050
G1 X-9.357 Y1.107
G1 X-9.357 Y0.835
G1 X-6.413 Y3.774
G1 X-6.413 Y3.525
G1 X-9.357 Y0.581
G1 X-9.357 Y0.310
G1 X-6.413 Y3.249
G1 X-6.413 Y3.000
G1 X-9.357 Y0.056
G1 X-9.357 Y-0.214
G1 X-6.413 Y2.724
G1 X-6.413 Y2.475
G1 X-9.357 Y-0.469
G1 X-9.357 Y-0.739
G1 X-6.413 Y2.200
G1 X-6.413 Y1.950
G1 X-9.357 Y-0.994
G1 X-9.357 Y-1.264
G1 X-6.413 Y1.675
G1 X-6.413 Y1.425
G1 X-9.357 Y-1.519
G1 X-9.357 Y-1.788
G1 X-6.413 Y1.151
G1 X-6.413 Y0.900
G1 X-9.357 Y-2.044
G1 X-9.357 Y-2.313
G1 X-6.413 Y0.626
G1 X-6.413 Y0.375
G1 X-9.357 Y-2.569
G1 X-9.357 Y-2.837
G1 X-6.413 Y0.101
G1 X-6.413 Y-0.150
G1 X-9.357 Y-3.094
G1 X-9.357 Y-3.362
G1 X-6.413 Y-0.423
G1 X-6.413 Y-0.675
G1 X-9.357 Y-3.619
G1 X-9.357 Y-3.887
G1 X-6.413 Y-0.948
G1 X-6.413 Y-1.200
G1 X-9.357 Y-4.144
G1 X-9.357 Y-4.411
G1 X-6.413 Y-1.473
G1 X-6.413 Y-1.726
G1 X-9.357 Y-4.669
G1 X-9.357 Y-4.936
G1 X-6.413 Y-1.997
G1 X-6.413 Y-2.251
G1 X-9.357 Y-5.194
G1 X-9.357 Y-5.461
G1 X-6.413 Y-2.522
G1 X-6.413 Y-2.776
G1 X-9.357 Y-5.720
G1 X-9.357 Y-5.985
G1 X-6.413 Y-3.046
G1 X-6.413 Y-3.301
G1 X-9.357 Y-6.245
G1 X-9.357 Y-6.510
G1 X-6.413 Y-3.571
G1 X-6.413 Y-3.826
G1 X-9.357 Y-6.770
G1 X-9.357 Y-7.034
G1 X-6.413 Y-4.096
G1 X-6.413 Y-4.351
G1 X-9.357 Y-7.295
G1 X-9.357 Y-7.559
G1 X-6.413 Y-4.620
G1 X-6.413 Y-4.876
G1 X-9.357 Y-7.820
G1 X-9.357 Y-8.084
G1 X-6.413 Y-5.145
G1 X-6.413 Y-5.401
G1 X-9.357 Y-8.345
G1 X-9.357 Y-8.608
G1 X-6.413 Y-5.670
G1 X-6.413 Y-5.926
G1 X-9.357 Y-8.870
G1 X-9.357 Y-9.133
G1 X-6.413 Y-6.194
G1 X-9.357 Y-9.395 F7800.000
G1 X-6.413 Y-6.451 F3600.000
G1 X-6.413 Y-6.719
G1 X-12.176 Y-12.472
G1 X-11.908 Y-12.472
G1 X-6.413 Y-6.976
G1 X-6.413 Y-7.243
G1 X-11.650 Y-12.472
G1 X-11.383 Y-12.472
G1 X-6.413 Y-7.501
G1 X-6.413 Y-7.768
G1 X-11.125 Y-12.472
G1 X-10.858 Y-12.472
G1 X-6.413 Y-8.027
G1 X-6.413 Y-8.293
G1 X-10.599 Y-12.472
G1 X-10.333 Y-12.472
G1 X-6.413 Y-8.552
G1 X-6.413 Y-8.817
G1 X-10.074 Y-12.472
G1 X-9.808 Y-12.472
G1 X-6.413 Y-9.077
G1 X-6.413 Y-9.342
G1 X-9.548 Y-12.472
G1 X-9.283 Y-12.472
G1 X-6.413 Y-9.602
G1 X-6.413 Y-9.866
G1 X-9.023 Y-12.472
G1 X-8.758 Y-12.472
G1 X-6.413 Y-10.127
G1 X-6.413 Y-10.391
G1 X-8.497 Y-12.472
G1 X-8.233 Y-12.472
G1 X-6.413 Y-10.652
G1 X-6.413 Y-10.916
G1 X-7.972 Y-12.472
G1 X-7.708 Y-12.472
G1 X-6.413 Y-11.177
G1 X-6.413 Y-11.440
G1 X-7.446 Y-12.472
G1 X-7.183 Y-12.472
G1 X-6.413 Y-11.702
G1 X-6.413 Y-11.965
G1 X-6.920 Y-12.472
G1 X-6.657 Y-12.472
G1 X-6.413 Y-12.227
G1 X-9.490 Y-9.528 F7800.000
G1 X-12.433 Y-12.472 F3600.000
G1 X-12.701 Y-12.472
G1 X-9.753 Y-9.528
G1 X-10.015 Y-9.528
G1 X-12.958 Y-12.472
G1 X-13.227 Y-12.472
G1 X-10.278 Y-9.528
G1 X-10.540 Y-9.528
G1 X-13.484 Y-12.472
G1 X-13.752 Y-12.472
G1 X-10.804 Y-9.528
G1 X-11.065 Y-9.528
G1 X-14.009 Y-12.472
G1 X-14.278 Y-12.472
G1 X-11.329 Y-9.528
G1 X-11.590 Y-9.528
G1 X-14.534 Y-12.472
G1 X-14.804 Y-12.472
G1 X-11.855 Y-9.528
G1 X-12.115 Y-9.528
G1 X-15.059 Y-12.472
G1 X-15.329 Y-12.472
G1 X-12.380 Y-9.528
G1 X-12.640 Y-9.528
G1 X-15.584 Y-12.472
G1 X-15.855 Y-12.472
G1 X-12.906 Y-9.528
G1 X-13.165 Y-9.528
G1 X-16.109 Y-12.472
G1 X-16.380 Y-12.472
G1 X-13.431 Y-9.528
G1 X-13.690 Y-9.528
G1 X-16.634 Y-12.472
G1 X-16.906 Y-12.472
G1 X-13.957 Y-9.528
G1 X-14.215 Y-9.528
G1 X-17.159 Y-12.472
G1 X-17.431 Y-12.472
G1 X-14.482 Y-9.528
G1 X-14.740 Y-9.528
G1 X-17.684 Y-12.472
G1 X-17.957 Y-12.472
G1 X-15.008 Y-9.528
G1 X-15.265 Y-9.528
G1 X-18.209 Y-12.472
G1 X-18.482 Y-12.472
G1 X-15.533 Y-9.528
G1 X-15.790 Y-9.528
G1 X-18.734 Y-12.472
G1 X-19.008 Y-12.472
G1 X-16.059 Y-9.528
G1 X-16.316 Y-9.528
G1 X-19.259 Y-12.472
G1 X-19.533 Y-12.472
G1 X-16.585 Y-9.528
G1 X-16.841 Y-9.528
G1 X-19.784 Y-12.472
G1 X-19.913 Y-12.600 F7800.000
G1 X-22.857 Y-15.544 F3600.000
G1 X-22.857 Y-15.789
G1 X-19.913 Y-12.850
G1 X-19.913 Y-13.125
G1 X-22.857 Y-16.069
G1 X-22.857 Y-16.314
G1 X-19.913 Y-13.375
G1 X-19.913 Y-13.650
G1 X-22.857 Y-16.594
G1 X-22.857 Y-16.838
G1 X-19.913 Y-13.900
G1 X-19.913 Y-14.175
G1 X-22.857 Y-17.119
G1 X-22.857 Y-17.363
G1 X-19.913 Y-14.424
G1 X-19.913 Y-14.700
G1 X-22.684 Y-17.472
G1 X-22.440 Y-17.472
G1 X-19.913 Y-14.949
G1 X-19.913 Y-15.226
G1 X-22.159 Y-17.472
G1 X-21.915 Y-17.472
G1 X-19.913 Y-15.473
G1 X-19.913 Y-15.751
G1 X-21.634 Y-17.472
G1 X-21.389 Y-17.472
G1 X-19.913 Y-15.998
G1 X-19.913 Y-16.276
G1 X-21.109 Y-17.472
G1 X-20.863 Y-17.472
G1 X-19.913 Y-16.523
G1 X-19.913 Y-16.801
G1 X-20.584 Y-17.472
G1 X-20.338 Y-17.472
G1 X-19.913 Y-17.047
G1 X-19.913 Y-17.326
G1 X-20.059 Y-17.472
G1 X-22.857 Y-15.265 F7800.000
G1 X-17.110 Y-9.528 F3600.000
G1 X-17.366 Y-9.528
G1 X-22.857 Y-15.019
G1 X-22.857 Y-14.740
G1 X-17.636 Y-9.528
G1 X-17.891 Y-9.528
G1 X-22.857 Y-14.494
G1 X-22.857 Y-14.215
G1 X-18.161 Y-9.528
G1 X-18.416 Y-9.528
G1 X-22.857 Y-13.969
G1 X-22.857 Y-13.691
G1 X-18.687 Y-9.528
G1 X-18.941 Y-9.528
G1 X-22.857 Y-13.444
G1 X-22.857 Y-13.166
G1 X-19.212 Y-9.528
G1 X-19.466 Y-9.528
G1 X-22.857 Y-12.919
G1 X-22.857 Y-12.641
G1 X-19.738 Y-9.528
G1 X-19.991 Y-9.528
G1 X-22.935 Y-12.472
G1 X-23.212 Y-12.472
G1 X-20.263 Y-9.528
G1 X-20.516 Y-9.528
G1 X-23.460 Y-12.472
G1 X-23.738 Y-12.472
G1 X-20.789 Y-9.528
G1 X-21.041 Y-9.528
G1 X-23.985 Y-12.472
G1 X-24.263 Y-12.472
G1 X-21.314 Y-9.528
G1 X-21.566 Y-9.528
G1 X-24.510 Y-12.472
G1 X-24.789 Y-12.472
G1 X-21.840 Y-9.528
G1 X-22.091 Y-9.528
G1 X-25.035 Y-12.472
G1 X-25.314 Y-12.472
G1 X-22.366 Y-9.528
G1 X-22.617 Y-9.528
G1 X-25.560 Y-12.472
G1 X-25.840 Y-12.472
G1 X-22.891 Y-9.528
G1 X-23.142 Y-9.528
G1 X-26.085 Y-12.472
G1 X-26.365 Y-12.472
G1 X-23.417 Y-9.528
G1 X-23.667 Y-9.528
G1 X-26.611 Y-12.472
G1 X-26.891 Y-12.472
G1 X-23.942 Y-9.528
G1 X-24.192 Y-9.528
G1 X-27.136 Y-12.472
G1 X-27.417 Y-12.472
G1 X-24.468 Y-9.528
G1 X-24.717 Y-9.528
G1 X-27.661 Y-12.472
G1 X-27.942 Y-12.472
G1 X-24.993 Y-9.528
G1 X-25.242 Y-9.528
G1 X-28.186 Y-12.472
G1 X-28.468 Y-12.472
G1 X-25.519 Y-9.528
G1 X-25.767 Y-9.528
G1 X-28.711 Y-12.472
G1 X-28.993 Y-12.472
G1 X-26.044 Y-9.528
G1 X-26.292 Y-9.528
G1 X-29.236 Y-12.472
G1 X-29.519 Y-12.472
G1 X-26.570 Y-9.528
G1 X-26.817 Y-9.528
G1 X-29.761 Y-12.472
G1 X-30.044 Y-12.472
G1 X-27.095 Y-9.528
G1 X-27.342 Y-9.528
G1 X-30.286 Y-12.472
G1 X-30.570 Y-12.472
G1 X-27.621 Y-9.528
G1 X-27.867 Y-9.528
G1 X-30.811 Y-12.472
G1 X-31.095 Y-12.472
G1 X-28.146 Y-9.528
G1 X-28.392 Y-9.528
G1 X-31.336 Y-12.472
G1 X-31.621 Y-12.472
G1 X-28.672 Y-9.528
G1 X-28.918 Y-9.528
G1 X-31.861 Y-12.472
G1 X-32.146 Y-12.472
G1 X-29.198 Y-9.528
G1 X-29.443 Y-9.528
G1 X-32.386 Y-12.472
G1 X-32.672 Y-12.472
G1 X-29.723 Y-9.528
G1 X-29.968 Y-9.528
G1 X-32.911 Y-12.472
G1 X-33.198 Y-12.472
G1 X-30.249 Y-9.528
G1 X-30.493 Y-9.528
G1 X-33.437 Y-12.472
G1 X-33.723 Y-12.472
G1 X-30.774 Y-9.528
G1 X-31.018 Y-9.528
G1 X-33.962 Y-12.472
G1 X-34.249 Y-12.472
G1 X-31.300 Y-9.528
G1 X-31.543 Y-9.528
G1 X-34.487 Y-12.472
G1 X-34.774 Y-12.472
G1 X-31.825 Y-9.528
G1 X-32.068 Y-9.528
G1 X-35.012 Y-12.472
G1 X-35.300 Y-12.472
G1 X-32.351 Y-9.528
G1 X-32.593 Y-9.528
G1 X-35.537 Y-12.472
G1 X-35.825 Y-12.472
G1 X-32.876 Y-9.528
G1 X-33.118 Y-9.528
G1 X-36.062 Y-12.472
G1 X-36.334 Y-12.455
G1 X-33.402 Y-9.528
G1 X-33.413 Y-9.298
G1 X-36.357 Y-12.241
G1 X-36.357 Y-11.953
G1 X-33.413 Y-9.014
G1 X-33.413 Y-8.772
G1 X-36.357 Y-11.716
G1 X-36.357 Y-11.428
G1 X-33.413 Y-8.490
G1 X-33.413 Y-8.247
G1 X-36.357 Y-11.191
G1 X-36.357 Y-10.904
G1 X-33.413 Y-7.965
G1 X-33.413 Y-7.722
G1 X-36.357 Y-10.666
G1 X-36.357 Y-10.379
G1 X-33.413 Y-7.440
G1 X-33.413 Y-7.197
G1 X-36.357 Y-10.141
G1 X-36.357 Y-9.855
G1 X-33.413 Y-6.916
G1 X-33.413 Y-6.672
G1 X-36.357 Y-9.616
G1 X-36.357 Y-9.330
G1 X-33.413 Y-6.391
G1 X-33.413 Y-6.147
G1 X-36.357 Y-9.091
G1 X-36.357 Y-8.805
G1 X-33.413 Y-5.867
G1 X-33.413 Y-5.622
G1 X-36.357 Y-8.566
G1 X-36.357 Y-8.281
G1 X-33.413 Y-5.342
G1 X-33.413 Y-5.097
G1 X-36.357 Y-8.041
G1 X-36.357 Y-7.756
G1 X-33.413 Y-4.817
G1 X-33.413 Y-4.572
G1 X-36.357 Y-7.516
G1 X-36.357 Y-7.231
G1 X-33.413 Y-4.293
G1 X-33.413 Y-4.047
G1 X-36.357 Y-6.991
G1 X-36.357 Y-6.707
G1 X-33.413 Y-3.768
G1 X-33.413 Y-3.522
G1 X-36.357 Y-6.466
G1 X-36.357 Y-6.182
G1 X-33.413 Y-3.243
G1 X-33.413 Y-2.997
G1 X-36.357 Y-5.940
G1 X-36.357 Y-5.658
G1 X-33.413 Y-2.719
G1 X-33.413 Y-2.472
G1 X-36.357 Y-5.415
G1 X-36.357 Y-5.133
G1 X-33.413 Y-2.194
G1 X-33.413 Y-1.946
G1 X-36.357 Y-4.890
G1 X-36.357 Y-4.608
G1 X-33.413 Y-1.670
G1 X-33.413 Y-1.421
G1 X-36.357 Y-4.365
G1 X-36.357 Y-4.084
G1 X-33.413 Y-1.145
G1 X-33.413 Y-0.896
G1 X-36.357 Y-3.840
G1 X-36.357 Y-3.559
G1 X-33.413 Y-0.620
G1 X-33.413 Y-0.371
G1 X-36.357 Y-3.315
G1 X-36.357 Y-3.034
G1 X-33.413 Y-0.096
G1 X-33.413 Y0.154
G1 X-36.357 Y-2.790
G1 X-36.357 Y-2.510
G1 X-33.413 Y0.429
G1 X-33.413 Y0.679
G1 X-36.357 Y-2.265
G1 X-36.357 Y-1.985
G1 X-33.413 Y0.954
G1 X-33.413 Y1.204
G1 X-36.357 Y-1.740
G1 X-36.357 Y-1.461
G1 X-33.413 Y1.478
G1 X-33.413 Y1.729
G1 X-36.357 Y-1.215
G1 X-36.357 Y-0.936
G1 X-33.413 Y2.003
G1 X-33.413 Y2.254
G1 X-36.357 Y-0.690
G1 X-36.357 Y-0.411
G1 X-33.413 Y2.527
G1 X-33.413 Y2.779
G1 X-36.357 Y-0.165
G1 X-36.357 Y0.113
G1 X-33.413 Y3.052
G1 X-33.413 Y3.304
G1 X-36.357 Y0.361
G1 X-36.357 Y0.638
G1 X-33.413 Y3.577
G1 X-33.413 Y3.829
G1 X-36.357 Y0.886
G1 X-36.357 Y1.162
G1 X-33.413 Y4.101
G1 X-33.413 Y4.355
G1 X-36.357 Y1.411
G1 X-36.357 Y1.687
G1 X-33.413 Y4.626
G1 X-33.413 Y4.880
G1 X-36.357 Y1.936
G1 X-36.357 Y2.212
G1 X-33.413 Y5.151
G1 X-33.413 Y5.405
G1 X-36.357 Y2.461
G1 X-36.357 Y2.736
G1 X-33.413 Y5.675
G1 X-33.413 Y5.930
G1 X-36.357 Y2.986
G1 X-36.357 Y3.261
G1 X-33.413 Y6.200
G1 X-33.413 Y6.455
G1 X-36.357 Y3.511
G1 X-36.357 Y3.786
G1 X-33.413 Y6.724
G1 X-33.413 Y6.980
G1 X-36.357 Y4.036
G1 X-36.357 Y4.310
G1 X-33.413 Y7.249
G1 X-33.413 Y7.505
G1 X-36.357 Y4.561
G1 X-36.357 Y4.835
G1 X-33.413 Y7.774
G1 X-33.413 Y8.030
G1 X-36.357 Y5.086
G1 X-36.357 Y5.359
G1 X-33.413 Y8.298
G1 X-33.413 Y8.555
G1 X-36.357 Y5.611
G1 X-36.357 Y5.884
G1 X-33.413 Y8.823
G1 X-33.413 Y9.080
G1 X-36.357 Y6.136
G1 X-36.357 Y6.409
G1 X-33.413 Y9.347
G1 X-33.413 Y9.605
G1 X-36.357 Y6.662
G1 X-36.357 Y6.933
G1 X-33.413 Y9.872
G1 X-33.413 Y10.130
G1 X-36.357 Y7.187
G1 X-36.357 Y7.458
G1 X-33.413 Y10.397
G1 X-33.413 Y10.656
G1 X-36.357 Y7.712
G1 X-36.357 Y7.983
G1 X-33.413 Y10.921
G1 X-33.413 Y11.181
G1 X-36.357 Y8.237
G1 X-36.357 Y8.507
G1 X-33.413 Y11.446
G1 X-33.413 Y11.706
G1 X-36.357 Y8.762
G1 X-36.357 Y9.032
G1 X-33.413 Y11.971
G1 X-33.413 Y12.231
G1 X-36.357 Y9.287
G1 X-36.357 Y9.556
G1 X-33.413 Y12.495
G1 X-33.413 Y12.756
G1 X-36.357 Y9.812
G1 X-36.357 Y10.081
G1 X-33.413 Y13.020
G1 X-33.413 Y13.281
G1 X-36.357 Y10.337
G1 X-36.357 Y10.606
G1 X-33.413 Y13.544
G1 X-33.413 Y13.806
G1 X-36.357 Y10.862
G1 X-36.357 Y11.130
G1 X-33.413 Y14.069
G1 X-33.413 Y14.331
G1 X-36.357 Y11.387
G1 X-36.357 Y11.655
G1 X-33.413 Y14.594
G1 X-33.478 Y14.528 F7800.000
G1 X-30.529 Y17.472 F3600.000
G1 X-30.272 Y17.472
G1 X-33.216 Y14.528
G1 X-32.953 Y14.528
G1 X-30.004 Y17.472
G1 X-29.747 Y17.472
G1 X-32.691 Y14.528
G1 X-32.427 Y14.528
G1 X-29.478 Y17.472
G1 X-29.222 Y17.472
G1 X-32.166 Y14.528
G1 X-31.902 Y14.528
G1 X-28.953 Y17.472
G1 X-28.697 Y17.472
G1 X-31.640 Y14.528
G1 X-31.376 Y14.528
G1 X-28.427 Y17.472
G1 X-28.172 Y17.472
G1 X-31.115 Y14.528
G1 X-30.851 Y14.528
G1 X-27.902 Y17.472
G1 X-27.646 Y17.472
G1 X-30.590 Y14.528
G1 X-30.325 Y14.528
G1 X-27.376 Y17.472
G1 X-27.121 Y17.472
G1 X-30.065 Y14.528
G1 X-29.799 Y14.528
G1 X-26.851 Y17.472
G1 X-26.596 Y17.472
G1 X-29.540 Y14.528
G1 X-29.274 Y14.528
G1 X-26.325 Y17.472
G1 X-26.071 Y17.472
G1 X-29.015 Y14.528
G1 X-28.748 Y14.528
G1 X-25.800 Y17.472
G1 X-25.546 Y17.472
G1 X-28.490 Y14.528
G1 X-28.223 Y14.528
G1 X-25.274 Y17.472
G1 X-25.021 Y17.472
G1 X-27.965 Y14.528
G1 X-27.697 Y14.528
G1 X-24.748 Y17.472
G1 X-24.496 Y17.472
G1 X-27.440 Y14.528
G1 X-27.172 Y14.528
G1 X-24.223 Y17.472
G1 X-23.971 Y17.472
G1 X-26.915 Y14.528
G1 X-26.646 Y14.528
G1 X-23.697 Y17.472
G1 X-23.446 Y17.472
G1 X-26.390 Y14.528
G1 X-26.121 Y14.528
G1 X-23.172 Y17.472
G1 X-22.921 Y17.472
G1 X-25.865 Y14.528
G1 X-25.595 Y14.528
G1 X-22.646 Y17.472
G1 X-22.396 Y17.472
G1 X-25.339 Y14.528
G1 X-25.070 Y14.528
G1 X-22.121 Y17.472
G1 X-21.871 Y17.472
G1 X-24.814 Y14.528
G1 X-24.544 Y14.528
G1 X-21.595 Y17.472
G1 X-21.345 Y17.472
G1 X-24.289 Y14.528
G1 X-24.018 Y14.528
G1 X-21.070 Y17.472
G1 X-20.820 Y17.472
G1 X-23.764 Y14.528
G1 X-23.493 Y14.528
G1 X-20.544 Y17.472
G1 X-20.295 Y17.472
G1 X-23.239 Y14.528
G1 X-22.967 Y14.528
G1 X-20.019 Y17.472
G1 X-19.770 Y17.472
G1 X-22.714 Y14.528
G1 X-22.442 Y14.528
G1 X-19.493 Y17.472
G1 X-19.245 Y17.472
G1 X-22.189 Y14.528
G1 X-21.916 Y14.528
G1 X-18.967 Y17.472
G1 X-18.720 Y17.472
G1 X-21.664 Y14.528
G1 X-21.391 Y14.528
G1 X-18.442 Y17.472
G1 X-18.195 Y17.472
G1 X-21.139 Y14.528
G1 X-20.865 Y14.528
G1 X-17.916 Y17.472
G1 X-17.670 Y17.472
G1 X-20.614 Y14.528
G1 X-20.340 Y14.528
G1 X-17.391 Y17.472
G1 X-17.145 Y17.472
G1 X-20.089 Y14.528
G1 X-19.814 Y14.528
G1 X-16.865 Y17.472
G1 X-16.620 Y17.472
G1 X-19.564 Y14.528
G1 X-19.289 Y14.528
G1 X-16.340 Y17.472
G1 X-16.095 Y17.472
G1 X-19.039 Y14.528
G1 X-18.763 Y14.528
G1 X-15.814 Y17.472
G1 X-15.570 Y17.472
G1 X-18.513 Y14.528
G1 X-18.238 Y14.528
G1 X-15.289 Y17.472
G1 X-15.045 Y17.472
G1 X-17.988 Y14.528
G1 X-17.712 Y14.528
G1 X-14.763 Y17.472
G1 X-14.519 Y17.472
G1 X-17.463 Y14.528
G1 X-17.186 Y14.528
G1 X-14.238 Y17.472
G1 X-13.994 Y17.472
G1 X-16.938 Y14.528
G1 X-16.661 Y14.528
G1 X-13.712 Y17.472
G1 X-13.469 Y17.472
G1 X-16.413 Y14.528
G1 X-16.135 Y14.528
G1 X-13.186 Y17.472
G1 X-12.944 Y17.472
G1 X-15.888 Y14.528
G1 X-15.610 Y14.528
G1 X-12.661 Y17.472
G1 X-12.419 Y17.472
G1 X-15.363 Y14.528
G1 X-15.084 Y14.528
G1 X-12.135 Y17.472
G1 X-11.894 Y17.472
G1 X-14.838 Y14.528
G1 X-14.559 Y14.528
G1 X-11.610 Y17.472
G1 X-11.369 Y17.472
G1 X-14.313 Y14.528
G1 X-14.033 Y14.528
G1 X-11.084 Y17.472
G1 X-10.844 Y17.472
G1 X-13.788 Y14.528
G1 X-13.508 Y14.528
G1 X-10.559 Y17.472
G1 X-10.319 Y17.472
G1 X-13.263 Y14.528
G1 X-12.982 Y14.528
G1 X-10.033 Y17.472
G1 X-9.794 Y17.472
G1 X-12.738 Y14.528
G1 X-12.457 Y14.528
G1 X-9.508 Y17.472
G1 X-9.269 Y17.472
G1 X-12.212 Y14.528
G1 X-11.931 Y14.528
G1 X-8.982 Y17.472
G1 X-8.744 Y17.472
G1 X-11.687 Y14.528
G1 X-11.405 Y14.528
G1 X-8.457 Y17.472
G1 X-8.218 Y17.472
G1 X-11.162 Y14.528
G1 X-10.880 Y14.528
G1 X-7.931 Y17.472
G1 X-7.693 Y17.472
G1 X-10.637 Y14.528
G1 X-10.354 Y14.528
G1 X-7.406 Y17.472
G1 X-7.168 Y17.472
G1 X-10.112 Y14.528
G1 X-9.829 Y14.528
G1 X-6.880 Y17.472
G1 X-6.643 Y17.472
G1 X-9.587 Y14.528
G1 X-30.797 Y17.472 F7800.000
G1 X-36.357 Y11.912 F3600.000
G1 X-36.357 Y12.179
G1 X-31.055 Y17.472
G1 X-31.322 Y17.472
G1 X-36.357 Y12.437
G1 X-36.357 Y12.704
G1 X-31.580 Y17.472
G1 X-31.847 Y17.472
G1 X-36.357 Y12.962
G1 X-36.357 Y13.229
G1 X-32.106 Y17.472
G1 X-32.372 Y17.472
G1 X-36.357 Y13.488
G1 X-36.357 Y13.753
G1 X-32.632 Y17.472
G1 X-32.897 Y17.472
G1 X-36.357 Y14.013
G1 X-36.357 Y14.278
G1 X-33.157 Y17.472
G1 X-33.422 Y17.472
G1 X-36.357 Y14.538
G1 X-36.357 Y14.803
G1 X-33.683 Y17.472
G1 X-33.947 Y17.472
G1 X-36.357 Y15.063
G1 X-36.357 Y15.327
G1 X-34.208 Y17.472
G1 X-34.473 Y17.472
G1 X-36.357 Y15.588
G1 X-36.357 Y15.852
G1 X-34.734 Y17.472
G1 X-34.998 Y17.472
G1 X-36.357 Y16.113
G1 X-36.357 Y16.376
G1 X-35.259 Y17.472
G1 X-35.523 Y17.472
G1 X-36.357 Y16.638
G1 X-36.357 Y16.901
G1 X-35.785 Y17.472
G1 X-36.048 Y17.472
G1 X-36.357 Y17.163

; filament used = 0.0mm (0.0cm3)

; avoid_crossing_perimeters = 0
; bed_shape = -100x-100,100x-100,100x100,-100x100
; bed_temperature = 0
; before_layer_gcode = 
; bridge_acceleration = 0
; bridge_fan_speed = 100
; brim_width = 0
; complete_objects = 0
; cooling = 1
; default_acceleration = 0
; disable_fan_first_layers = 3
; duplicate_distance = 6
; end_gcode = 
; extruder_clearance_height = 20
; extruder_clearance_radius = 20
; extruder_offset = 0x0
; extrusion_axis = E
; extrusion_multiplier = 1
; fan_always_on = 0
; fan_below_layer_time = 60
; filament_colour = #FFFFFF
; filament_diameter = 3
; first_layer_acceleration = 0
; first_layer_bed_temperature = 0
; first_layer_extrusion_width = 200%
; first_layer_speed = 60
; first_layer_temperature = 200
; gcode_arcs = 0
; gcode_comments = 0
; gcode_flavor = no-extrusion
; infill_acceleration = 0
; infill_first = 0
; layer_gcode = 
; max_fan_speed = 100
; max_print_speed = 60
; max_volumetric_speed = 0
; min_fan_speed = 35
; min_print_speed = 10
; min_skirt_length = 0
; notes = 
; nozzle_diameter = 0.2
; only_retract_when_crossing_perimeters = 1
; ooze_prevention = 0
; output_filename_format = [input_filename_base].gcode
; perimeter_acceleration = 0
; post_process = 
; pressure_advance = 0
; resolution = 0
; retract_before_travel = 2
; retract_layer_change = 1
; retract_length = 0
; retract_length_toolchange = 10
; retract_lift = 0
; retract_restart_extra = 0
; retract_restart_extra_toolchange = 0
; retract_speed = 30
; skirt_distance = 0
; skirt_height = 0
; skirts = 0
; slowdown_below_layer_time = 5
; spiral_vase = 0
; standby_temperature_delta = -5
; start_gcode = 
; temperature = 200
; threads = 2
; toolchange_gcode = 
; travel_speed = 130
; use_firmware_retraction = 0
; use_relative_e_distances = 0
; use_volumetric_e = 0
; vibration_limit = 0
; wipe = 0
; z_offset = 0
; dont_support_bridges = 1
; extrusion_width = 0
; first_layer_height = 0.2
; infill_only_where_needed = 0
; interface_shells = 0
; layer_height = 0.2
; raft_layers = 0
; seam_position = aligned
; support_material = 0
; support_material_angle = 0
; support_material_contact_distance = 0.2
; support_material_enforce_layers = 0
; support_material_extruder = 1
; support_material_extrusion_width = 0
; support_material_interface_extruder = 1
; support_material_interface_layers = 3
; support_material_interface_spacing = 0
; support_material_interface_speed = 100%
; support_material_pattern = pillars
; support_material_spacing = 2.5
; support_material_speed = 60
; support_material_threshold = 0
; xy_size_compensation = 0
; bottom_solid_layers = 0
; bridge_flow_ratio = 1
; bridge_speed = 60
; external_fill_pattern = rectilinear
; external_perimeter_extrusion_width = 0
; external_perimeter_speed = 100%
; external_perimeters_first = 0
; extra_perimeters = 0
; fill_angle = 45
; fill_density = 90%
; fill_pattern = line
; gap_fill_speed = 60
; infill_every_layers = 1
; infill_extruder = 1
; infill_extrusion_width = 0
; infill_overlap = 15%
; infill_speed = 60
; overhangs = 1
; perimeter_extruder = 1
; perimeter_extrusion_width = 0
; perimeter_speed = 60
; perimeters = 0
; small_perimeter_speed = 60
; solid_infill_below_area = 70
; solid_infill_every_layers = 0
; solid_infill_extruder = 1
; solid_infill_extrusion_width = 0
; solid_infill_speed = 60
; thin_walls = 1
; top_infill_extrusion_width = 0
; top_solid_infill_speed = 60
; top_solid_layers = 1
