; generated by Slic3r 1.2.9 on 2018-02-11 at 16:54:09

; external perimeters extrusion width = 0.20mm
; perimeters extrusion width = 0.21mm
; infill extrusion width = 0.21mm
; solid infill extrusion width = 0.21mm
; top infill extrusion width = 0.21mm

M107
M104 S200 ; set temperature

M109 S200 ; wait for temperature to be reached
G21 ; set units to millimeters
G90 ; use absolute coordinates
G1 Z0.200 F7800.000
G1 X13.252 Y14.957 F7800.000
G1 X16.201 Y17.900 F3600.000
G1 X16.459 Y17.900
G1 X13.515 Y14.957
G1 X13.778 Y14.957
G1 X16.727 Y17.900
G1 X16.984 Y17.900
G1 X14.040 Y14.957
G1 X14.303 Y14.957
G1 X17.252 Y17.900
G1 X17.509 Y17.900
G1 X14.565 Y14.957
G1 X14.829 Y14.957
G1 X17.778 Y17.900
G1 X18.034 Y17.900
G1 X15.090 Y14.957
G1 X15.354 Y14.957
G1 X18.303 Y17.900
G1 X18.559 Y17.900
G1 X15.615 Y14.957
G1 X15.880 Y14.957
G1 X18.829 Y17.900
G1 X19.084 Y17.900
G1 X16.140 Y14.957
G1 X16.405 Y14.957
G1 X19.354 Y17.900
G1 X19.609 Y17.900
G1 X16.665 Y14.957
G1 X16.931 Y14.957
G1 X19.880 Y17.900
G1 X20.134 Y17.900
G1 X17.190 Y14.957
G1 X17.456 Y14.957
G1 X20.405 Y17.900
G1 X20.659 Y17.900
G1 X17.715 Y14.957
G1 X17.982 Y14.957
G1 X20.931 Y17.900
G1 X21.184 Y17.900
G1 X18.240 Y14.957
G1 X18.508 Y14.957
G1 X21.456 Y17.900
G1 X21.709 Y17.900
G1 X18.766 Y14.957
G1 X19.033 Y14.957
G1 X21.982 Y17.900
G1 X22.234 Y17.900
G1 X19.291 Y14.957
G1 X19.559 Y14.957
G1 X22.508 Y17.900
G1 X22.760 Y17.900
G1 X19.816 Y14.957
G1 X20.084 Y14.957
G1 X23.033 Y17.900
G1 X23.285 Y17.900
G1 X20.341 Y14.957
G1 X20.610 Y14.957
G1 X23.559 Y17.900
G1 X23.810 Y17.900
G1 X20.866 Y14.957
G1 X21.135 Y14.957
G1 X24.084 Y17.900
G1 X24.335 Y17.900
G1 X21.391 Y14.957
G1 X21.661 Y14.957
G1 X24.610 Y17.900
G1 X24.860 Y17.900
G1 X21.916 Y14.957
G1 X22.186 Y14.957
G1 X25.135 Y17.900
G1 X25.385 Y17.900
G1 X22.441 Y14.957
G1 X22.712 Y14.957
G1 X25.661 Y17.900
G1 X25.910 Y17.900
G1 X22.966 Y14.957
G1 X23.237 Y14.957
G1 X26.186 Y17.900
G1 X26.435 Y17.900
G1 X23.491 Y14.957
G1 X23.763 Y14.957
G1 X26.712 Y17.900
G1 X26.960 Y17.900
G1 X24.016 Y14.957
G1 X24.289 Y14.957
G1 X27.237 Y17.900
G1 X27.485 Y17.900
G1 X24.541 Y14.957
G1 X24.814 Y14.957
G1 X27.763 Y17.900
G1 X28.010 Y17.900
G1 X25.066 Y14.957
G1 X25.340 Y14.957
G1 X28.288 Y17.900
G1 X28.535 Y17.900
G1 X25.592 Y14.957
G1 X25.865 Y14.957
G1 X28.814 Y17.900
G1 X29.060 Y17.900
G1 X26.117 Y14.957
G1 X26.391 Y14.957
G1 X29.340 Y17.900
G1 X29.586 Y17.900
G1 X26.642 Y14.957
G1 X26.916 Y14.957
G1 X29.865 Y17.900
G1 X30.111 Y17.900
G1 X27.167 Y14.957
G1 X27.442 Y14.957
G1 X30.391 Y17.900
G1 X30.636 Y17.900
G1 X27.692 Y14.957
G1 X27.967 Y14.957
G1 X30.916 Y17.900
G1 X31.161 Y17.900
G1 X28.217 Y14.957
G1 X28.493 Y14.957
G1 X31.442 Y17.900
G1 X31.686 Y17.900
G1 X28.742 Y14.957
G1 X29.018 Y14.957
G1 X31.967 Y17.900
G1 X32.211 Y17.900
G1 X29.267 Y14.957
G1 X29.544 Y14.957
G1 X32.493 Y17.900
G1 X32.736 Y17.900
G1 X29.792 Y14.957
G1 X30.069 Y14.957
G1 X33.018 Y17.900
G1 X33.261 Y17.900
G1 X30.317 Y14.957
G1 X30.595 Y14.957
G1 X33.544 Y17.900
G1 X33.786 Y17.900
G1 X30.842 Y14.957
G1 X31.121 Y14.957
G1 X34.069 Y17.900
G1 X34.311 Y17.900
G1 X31.367 Y14.957
G1 X31.646 Y14.957
G1 X34.595 Y17.900
G1 X34.836 Y17.900
G1 X31.893 Y14.957
G1 X32.172 Y14.957
G1 X35.121 Y17.900
G1 X35.361 Y17.900
G1 X32.418 Y14.957
G1 X32.697 Y14.957
G1 X35.646 Y17.900
G1 X35.887 Y17.900
G1 X32.943 Y14.957
G1 X33.223 Y14.957
G1 X36.172 Y17.900
G1 X36.412 Y17.900
G1 X33.468 Y14.957
G1 X33.748 Y14.957
G1 X36.697 Y17.900
G1 X36.937 Y17.900
G1 X33.993 Y14.957
G1 X34.274 Y14.957
G1 X37.223 Y17.900
G1 X37.462 Y17.900
G1 X34.518 Y14.957
G1 X34.799 Y14.957
G1 X37.748 Y17.900
G1 X37.987 Y17.900
G1 X35.043 Y14.957
G1 X35.325 Y14.957
G1 X38.274 Y17.900
G1 X38.512 Y17.900
G1 X35.568 Y14.957
G1 X35.850 Y14.957
G1 X38.799 Y17.900
G1 X39.037 Y17.900
G1 X36.093 Y14.957
G1 X36.376 Y14.957
G1 X39.325 Y17.900
G1 X39.562 Y17.900
G1 X36.618 Y14.957
G1 X36.902 Y14.957
G1 X39.850 Y17.900
G1 X40.087 Y17.900
G1 X37.143 Y14.957
G1 X37.374 Y14.904 F7800.000
G1 X40.318 Y17.842 F3600.000
G1 X40.318 Y17.606
G1 X37.374 Y14.662
G1 X37.374 Y14.379
G1 X40.318 Y17.318
G1 X40.318 Y17.081
G1 X37.374 Y14.137
G1 X37.374 Y13.854
G1 X40.318 Y16.793
G1 X40.318 Y16.556
G1 X37.374 Y13.612
G1 X37.374 Y13.330
G1 X40.318 Y16.268
G1 X40.318 Y16.031
G1 X37.374 Y13.087
G1 X37.374 Y12.805
G1 X40.318 Y15.744
G1 X40.318 Y15.506
G1 X37.374 Y12.562
G1 X37.374 Y12.280
G1 X40.318 Y15.219
G1 X40.318 Y14.981
G1 X37.374 Y12.037
G1 X37.374 Y11.756
G1 X40.318 Y14.695
G1 X40.318 Y14.455
G1 X37.374 Y11.512
G1 X37.374 Y11.231
G1 X40.318 Y14.170
G1 X40.318 Y13.930
G1 X37.374 Y10.987
G1 X37.374 Y10.707
G1 X40.318 Y13.645
G1 X40.318 Y13.405
G1 X37.374 Y10.461
G1 X37.374 Y10.182
G1 X40.318 Y13.121
G1 X40.318 Y12.880
G1 X37.374 Y9.936
G1 X37.374 Y9.657
G1 X40.318 Y12.596
G1 X40.318 Y12.355
G1 X37.374 Y9.411
G1 X37.374 Y9.133
G1 X40.318 Y12.071
G1 X40.318 Y11.830
G1 X37.374 Y8.886
G1 X37.374 Y8.608
G1 X40.318 Y11.547
G1 X40.318 Y11.305
G1 X37.374 Y8.361
G1 X37.374 Y8.083
G1 X40.318 Y11.022
G1 X40.318 Y10.780
G1 X37.374 Y7.836
G1 X37.374 Y7.559
G1 X40.318 Y10.498
G1 X40.318 Y10.255
G1 X37.374 Y7.311
G1 X37.374 Y7.034
G1 X40.318 Y9.973
G1 X40.318 Y9.730
G1 X37.374 Y6.786
G1 X37.374 Y6.510
G1 X40.318 Y9.448
G1 X40.318 Y9.205
G1 X37.374 Y6.261
G1 X37.374 Y5.985
G1 X40.318 Y8.924
G1 X40.318 Y8.680
G1 X37.374 Y5.736
G1 X37.374 Y5.460
G1 X40.318 Y8.399
G1 X40.318 Y8.154
G1 X37.374 Y5.211
G1 X37.374 Y4.936
G1 X40.318 Y7.875
G1 X40.318 Y7.629
G1 X37.374 Y4.686
G1 X37.374 Y4.411
G1 X40.318 Y7.350
G1 X40.318 Y7.104
G1 X37.374 Y4.160
G1 X37.374 Y3.887
G1 X40.318 Y6.825
G1 X40.318 Y6.579
G1 X37.374 Y3.635
G1 X37.374 Y3.362
G1 X40.318 Y6.301
G1 X40.318 Y6.054
G1 X37.374 Y3.110
G1 X37.374 Y2.837
G1 X40.318 Y5.776
G1 X40.318 Y5.529
G1 X37.374 Y2.585
G1 X37.374 Y2.313
G1 X40.318 Y5.251
G1 X40.318 Y5.004
G1 X37.374 Y2.060
G1 X37.374 Y1.788
G1 X40.318 Y4.727
G1 X40.318 Y4.479
G1 X37.374 Y1.535
G1 X37.374 Y1.263
G1 X40.318 Y4.202
G1 X40.318 Y3.954
G1 X37.374 Y1.010
G1 X37.374 Y0.739
G1 X40.318 Y3.678
G1 X40.318 Y3.429
G1 X37.374 Y0.485
G1 X37.374 Y0.214
G1 X40.318 Y3.153
G1 X40.318 Y2.904
G1 X37.374 Y-0.040
G1 X37.374 Y-0.310
G1 X40.318 Y2.628
G1 X40.318 Y2.379
G1 X37.374 Y-0.565
G1 X37.374 Y-0.835
G1 X40.318 Y2.104
G1 X40.318 Y1.853
G1 X37.374 Y-1.090
G1 X37.374 Y-1.360
G1 X40.318 Y1.579
G1 X40.318 Y1.328
G1 X37.374 Y-1.615
G1 X37.374 Y-1.884
G1 X40.318 Y1.054
G1 X40.318 Y0.803
G1 X37.374 Y-2.140
G1 X37.374 Y-2.409
G1 X40.318 Y0.530
G1 X40.318 Y0.278
G1 X37.374 Y-2.666
G1 X37.374 Y-2.934
G1 X40.318 Y0.005
G1 X40.318 Y-0.247
G1 X37.374 Y-3.191
G1 X37.374 Y-3.458
G1 X40.318 Y-0.519
G1 X40.318 Y-0.772
G1 X37.374 Y-3.716
G1 X37.374 Y-3.983
G1 X40.318 Y-1.044
G1 X40.318 Y-1.297
G1 X37.374 Y-4.241
G1 X37.374 Y-4.507
G1 X40.318 Y-1.569
G1 X40.318 Y-1.822
G1 X37.374 Y-4.766
G1 X37.374 Y-5.032
G1 X40.318 Y-2.093
G1 X40.318 Y-2.347
G1 X37.374 Y-5.291
G1 X37.374 Y-5.557
G1 X40.318 Y-2.618
G1 X40.318 Y-2.872
G1 X37.374 Y-5.816
G1 X37.374 Y-6.081
G1 X40.318 Y-3.142
G1 X40.318 Y-3.397
G1 X37.374 Y-6.341
G1 X37.374 Y-6.606
G1 X40.318 Y-3.667
G1 X40.318 Y-3.922
G1 X37.374 Y-6.866
G1 X37.374 Y-7.131
G1 X40.318 Y-4.192
G1 X40.318 Y-4.447
G1 X37.374 Y-7.391
G1 X37.374 Y-7.655
G1 X40.318 Y-4.716
G1 X40.318 Y-4.973
G1 X37.374 Y-7.916
G1 X37.374 Y-8.180
G1 X40.318 Y-5.241
G1 X40.318 Y-5.498
G1 X37.374 Y-8.441
G1 X37.374 Y-8.704
G1 X40.318 Y-5.766
G1 X37.374 Y-8.967 F7800.000
G1 X40.318 Y-6.023 F3600.000
G1 X40.318 Y-6.290
G1 X34.555 Y-12.043
G1 X34.822 Y-12.043
G1 X40.318 Y-6.548
G1 X40.318 Y-6.815
G1 X35.080 Y-12.043
G1 X35.347 Y-12.043
G1 X40.318 Y-7.073
G1 X40.318 Y-7.339
G1 X35.606 Y-12.043
G1 X35.872 Y-12.043
G1 X40.318 Y-7.598
G1 X40.318 Y-7.864
G1 X36.131 Y-12.043
G1 X36.397 Y-12.043
G1 X40.318 Y-8.123
G1 X40.318 Y-8.389
G1 X36.657 Y-12.043
G1 X36.922 Y-12.043
G1 X40.318 Y-8.648
G1 X40.318 Y-8.913
G1 X37.182 Y-12.043
G1 X37.448 Y-12.043
G1 X40.318 Y-9.173
G1 X40.318 Y-9.438
G1 X37.708 Y-12.043
G1 X37.973 Y-12.043
G1 X40.318 Y-9.698
G1 X40.318 Y-9.963
G1 X38.233 Y-12.043
G1 X38.498 Y-12.043
G1 X40.318 Y-10.223
G1 X40.318 Y-10.487
G1 X38.759 Y-12.043
G1 X39.023 Y-12.043
G1 X40.318 Y-10.748
G1 X40.318 Y-11.012
G1 X39.284 Y-12.043
G1 X39.548 Y-12.043
G1 X40.318 Y-11.274
G1 X40.318 Y-11.536
G1 X39.810 Y-12.043
G1 X40.073 Y-12.043
G1 X40.318 Y-11.799
G1 X37.241 Y-9.100 F7800.000
G1 X34.297 Y-12.043 F3600.000
G1 X34.029 Y-12.043
G1 X36.978 Y-9.100
G1 X36.716 Y-9.100
G1 X33.772 Y-12.043
G1 X33.503 Y-12.043
G1 X36.452 Y-9.100
G1 X36.191 Y-9.100
G1 X33.247 Y-12.043
G1 X32.978 Y-12.043
G1 X35.927 Y-9.100
G1 X35.666 Y-9.100
G1 X32.722 Y-12.043
G1 X32.452 Y-12.043
G1 X35.401 Y-9.100
G1 X35.141 Y-9.100
G1 X32.197 Y-12.043
G1 X31.927 Y-12.043
G1 X34.876 Y-9.100
G1 X34.615 Y-9.100
G1 X31.672 Y-12.043
G1 X31.401 Y-12.043
G1 X34.350 Y-9.100
G1 X34.090 Y-9.100
G1 X31.147 Y-12.043
G1 X30.876 Y-12.043
G1 X33.825 Y-9.100
G1 X33.565 Y-9.100
G1 X30.621 Y-12.043
G1 X30.350 Y-12.043
G1 X33.299 Y-9.100
G1 X33.040 Y-9.100
G1 X30.096 Y-12.043
G1 X29.825 Y-12.043
G1 X32.774 Y-9.100
G1 X32.515 Y-9.100
G1 X29.571 Y-12.043
G1 X29.299 Y-12.043
G1 X32.248 Y-9.100
G1 X31.990 Y-9.100
G1 X29.046 Y-12.043
G1 X28.774 Y-12.043
G1 X31.722 Y-9.100
G1 X31.465 Y-9.100
G1 X28.521 Y-12.043
G1 X28.248 Y-12.043
G1 X31.197 Y-9.100
G1 X30.940 Y-9.100
G1 X27.996 Y-12.043
G1 X27.722 Y-12.043
G1 X30.671 Y-9.100
G1 X30.415 Y-9.100
G1 X27.471 Y-12.043
G1 X27.197 Y-12.043
G1 X30.146 Y-9.100
G1 X29.890 Y-9.100
G1 X26.946 Y-12.043
G1 X26.818 Y-12.172 F7800.000
G1 X23.874 Y-15.115 F3600.000
G1 X23.874 Y-15.361
G1 X26.818 Y-12.422
G1 X26.818 Y-12.697
G1 X23.874 Y-15.640
G1 X23.874 Y-15.885
G1 X26.818 Y-12.946
G1 X26.818 Y-13.222
G1 X23.874 Y-16.166
G1 X23.874 Y-16.410
G1 X26.818 Y-13.471
G1 X26.818 Y-13.747
G1 X23.874 Y-16.691
G1 X23.874 Y-16.934
G1 X26.818 Y-13.996
G1 X26.818 Y-14.272
G1 X24.046 Y-17.043
G1 X24.290 Y-17.043
G1 X26.818 Y-14.520
G1 X26.818 Y-14.797
G1 X24.571 Y-17.043
G1 X24.816 Y-17.043
G1 X26.818 Y-15.045
G1 X26.818 Y-15.322
G1 X25.096 Y-17.043
G1 X25.341 Y-17.043
G1 X26.818 Y-15.570
G1 X26.818 Y-15.847
G1 X25.621 Y-17.043
G1 X25.867 Y-17.043
G1 X26.818 Y-16.094
G1 X26.818 Y-16.372
G1 X26.147 Y-17.043
G1 X26.392 Y-17.043
G1 X26.818 Y-16.619
G1 X26.818 Y-16.897
G1 X26.672 Y-17.043
G1 X23.874 Y-14.836 F7800.000
G1 X29.620 Y-9.100 F3600.000
G1 X29.365 Y-9.100
G1 X23.874 Y-14.590
G1 X23.874 Y-14.311
G1 X29.095 Y-9.100
G1 X28.840 Y-9.100
G1 X23.874 Y-14.065
G1 X23.874 Y-13.787
G1 X28.569 Y-9.100
G1 X28.315 Y-9.100
G1 X23.874 Y-13.540
G1 X23.874 Y-13.262
G1 X28.044 Y-9.100
G1 X27.789 Y-9.100
G1 X23.874 Y-13.015
G1 X23.874 Y-12.738
G1 X27.518 Y-9.100
G1 X27.264 Y-9.100
G1 X23.874 Y-12.490
G1 X23.874 Y-12.213
G1 X26.993 Y-9.100
G1 X26.739 Y-9.100
G1 X23.795 Y-12.043
G1 X23.518 Y-12.043
G1 X26.467 Y-9.100
G1 X26.214 Y-9.100
G1 X23.270 Y-12.043
G1 X22.993 Y-12.043
G1 X25.941 Y-9.100
G1 X25.689 Y-9.100
G1 X22.745 Y-12.043
G1 X22.467 Y-12.043
G1 X25.416 Y-9.100
G1 X25.164 Y-9.100
G1 X22.220 Y-12.043
G1 X21.942 Y-12.043
G1 X24.890 Y-9.100
G1 X24.639 Y-9.100
G1 X21.695 Y-12.043
G1 X21.416 Y-12.043
G1 X24.365 Y-9.100
G1 X24.114 Y-9.100
G1 X21.170 Y-12.043
G1 X20.890 Y-12.043
G1 X23.839 Y-9.100
G1 X23.589 Y-9.100
G1 X20.645 Y-12.043
G1 X20.365 Y-12.043
G1 X23.314 Y-9.100
G1 X23.064 Y-9.100
G1 X20.120 Y-12.043
G1 X19.839 Y-12.043
G1 X22.788 Y-9.100
G1 X22.539 Y-9.100
G1 X19.595 Y-12.043
G1 X19.314 Y-12.043
G1 X22.263 Y-9.100
G1 X22.014 Y-9.100
G1 X19.070 Y-12.043
G1 X18.788 Y-12.043
G1 X21.737 Y-9.100
G1 X21.488 Y-9.100
G1 X18.545 Y-12.043
G1 X18.263 Y-12.043
G1 X21.212 Y-9.100
G1 X20.963 Y-9.100
G1 X18.020 Y-12.043
G1 X17.737 Y-12.043
G1 X20.686 Y-9.100
G1 X20.438 Y-9.100
G1 X17.494 Y-12.043
G1 X17.212 Y-12.043
G1 X20.161 Y-9.100
G1 X19.913 Y-9.100
G1 X16.969 Y-12.043
G1 X16.686 Y-12.043
G1 X19.635 Y-9.100
G1 X19.388 Y-9.100
G1 X16.444 Y-12.043
G1 X16.161 Y-12.043
G1 X19.109 Y-9.100
G1 X18.863 Y-9.100
G1 X15.919 Y-12.043
G1 X15.635 Y-12.043
G1 X18.584 Y-9.100
G1 X18.338 Y-9.100
G1 X15.394 Y-12.043
G1 X15.109 Y-12.043
G1 X18.058 Y-9.100
G1 X17.813 Y-9.100
G1 X14.869 Y-12.043
G1 X14.584 Y-12.043
G1 X17.533 Y-9.100
G1 X17.288 Y-9.100
G1 X14.344 Y-12.043
G1 X14.058 Y-12.043
G1 X17.007 Y-9.100
G1 X16.763 Y-9.100
G1 X13.819 Y-12.043
G1 X13.533 Y-12.043
G1 X16.482 Y-9.100
G1 X16.238 Y-9.100
G1 X13.294 Y-12.043
G1 X13.007 Y-12.043
G1 X15.956 Y-9.100
G1 X15.713 Y-9.100
G1 X12.769 Y-12.043
G1 X12.482 Y-12.043
G1 X15.431 Y-9.100
G1 X15.187 Y-9.100
G1 X12.244 Y-12.043
G1 X11.956 Y-12.043
G1 X14.905 Y-9.100
G1 X14.662 Y-9.100
G1 X11.719 Y-12.043
G1 X11.431 Y-12.043
G1 X14.380 Y-9.100
G1 X14.137 Y-9.100
G1 X11.193 Y-12.043
G1 X10.905 Y-12.043
G1 X13.854 Y-9.100
G1 X13.612 Y-9.100
G1 X10.668 Y-12.043
G1 X10.397 Y-12.026
G1 X13.328 Y-9.100
G1 X13.318 Y-8.869
G1 X10.374 Y-11.813
G1 X10.374 Y-11.524
G1 X13.318 Y-8.586
G1 X13.318 Y-8.344
G1 X10.374 Y-11.288
G1 X10.374 Y-11.000
G1 X13.318 Y-8.061
G1 X13.318 Y-7.819
G1 X10.374 Y-10.763
G1 X10.374 Y-10.475
G1 X13.318 Y-7.536
G1 X13.318 Y-7.294
G1 X10.374 Y-10.238
G1 X10.374 Y-9.951
G1 X13.318 Y-7.012
G1 X13.318 Y-6.769
G1 X10.374 Y-9.713
G1 X10.374 Y-9.426
G1 X13.318 Y-6.487
G1 X13.318 Y-6.244
G1 X10.374 Y-9.187
G1 X10.374 Y-8.901
G1 X13.318 Y-5.963
G1 X13.318 Y-5.719
G1 X10.374 Y-8.662
G1 X10.374 Y-8.377
G1 X13.318 Y-5.438
G1 X13.318 Y-5.193
G1 X10.374 Y-8.137
G1 X10.374 Y-7.852
G1 X13.318 Y-4.913
G1 X13.318 Y-4.668
G1 X10.374 Y-7.612
G1 X10.374 Y-7.328
G1 X13.318 Y-4.389
G1 X13.318 Y-4.143
G1 X10.374 Y-7.087
G1 X10.374 Y-6.803
G1 X13.318 Y-3.864
G1 X13.318 Y-3.618
G1 X10.374 Y-6.562
G1 X10.374 Y-6.278
G1 X13.318 Y-3.339
G1 X13.318 Y-3.093
G1 X10.374 Y-6.037
G1 X10.374 Y-5.754
G1 X13.318 Y-2.815
G1 X13.318 Y-2.568
G1 X10.374 Y-5.512
G1 X10.374 Y-5.229
G1 X13.318 Y-2.290
G1 X13.318 Y-2.043
G1 X10.374 Y-4.987
G1 X10.374 Y-4.704
G1 X13.318 Y-1.766
G1 X13.318 Y-1.518
G1 X10.374 Y-4.462
G1 X10.374 Y-4.180
G1 X13.318 Y-1.241
G1 X13.318 Y-0.993
G1 X10.374 Y-3.937
G1 X10.374 Y-3.655
G1 X13.318 Y-0.716
G1 X13.318 Y-0.468
G1 X10.374 Y-3.412
G1 X10.374 Y-3.131
G1 X13.318 Y-0.192
G1 X13.318 Y0.057
G1 X10.374 Y-2.886
G1 X10.374 Y-2.606
G1 X13.318 Y0.333
G1 X13.318 Y0.582
G1 X10.374 Y-2.361
G1 X10.374 Y-2.081
G1 X13.318 Y0.857
G1 X13.318 Y1.108
G1 X10.374 Y-1.836
G1 X10.374 Y-1.557
G1 X13.318 Y1.382
G1 X13.318 Y1.633
G1 X10.374 Y-1.311
G1 X10.374 Y-1.032
G1 X13.318 Y1.907
G1 X13.318 Y2.158
G1 X10.374 Y-0.786
G1 X10.374 Y-0.507
G1 X13.318 Y2.431
G1 X13.318 Y2.683
G1 X10.374 Y-0.261
G1 X10.374 Y0.017
G1 X13.318 Y2.956
G1 X13.318 Y3.208
G1 X10.374 Y0.264
G1 X10.374 Y0.542
G1 X13.318 Y3.481
G1 X13.318 Y3.733
G1 X10.374 Y0.789
G1 X10.374 Y1.066
G1 X13.318 Y4.005
G1 X13.318 Y4.258
G1 X10.374 Y1.314
G1 X10.374 Y1.591
G1 X13.318 Y4.530
G1 X13.318 Y4.783
G1 X10.374 Y1.839
G1 X10.374 Y2.116
G1 X13.318 Y5.054
G1 X13.318 Y5.308
G1 X10.374 Y2.364
G1 X10.374 Y2.640
G1 X13.318 Y5.579
G1 X13.318 Y5.833
G1 X10.374 Y2.889
G1 X10.374 Y3.165
G1 X13.318 Y6.104
G1 X13.318 Y6.358
G1 X10.374 Y3.415
G1 X10.374 Y3.690
G1 X13.318 Y6.628
G1 X13.318 Y6.883
G1 X10.374 Y3.940
G1 X10.374 Y4.214
G1 X13.318 Y7.153
G1 X13.318 Y7.408
G1 X10.374 Y4.465
G1 X10.374 Y4.739
G1 X13.318 Y7.678
G1 X13.318 Y7.934
G1 X10.374 Y4.990
G1 X10.374 Y5.263
G1 X13.318 Y8.202
G1 X13.318 Y8.459
G1 X10.374 Y5.515
G1 X10.374 Y5.788
G1 X13.318 Y8.727
G1 X13.318 Y8.984
G1 X10.374 Y6.040
G1 X10.374 Y6.313
G1 X13.318 Y9.251
G1 X13.318 Y9.509
G1 X10.374 Y6.565
G1 X10.374 Y6.837
G1 X13.318 Y9.776
G1 X13.318 Y10.034
G1 X10.374 Y7.090
G1 X10.374 Y7.362
G1 X13.318 Y10.301
G1 X13.318 Y10.559
G1 X10.374 Y7.615
G1 X10.374 Y7.886
G1 X13.318 Y10.825
G1 X13.318 Y11.084
G1 X10.374 Y8.140
G1 X10.374 Y8.411
G1 X13.318 Y11.350
G1 X13.318 Y11.609
G1 X10.374 Y8.665
G1 X10.374 Y8.936
G1 X13.318 Y11.874
G1 X13.318 Y12.134
G1 X10.374 Y9.190
G1 X10.374 Y9.460
G1 X13.318 Y12.399
G1 X13.318 Y12.659
G1 X10.374 Y9.715
G1 X10.374 Y9.985
G1 X13.318 Y12.924
G1 X13.318 Y13.184
G1 X10.374 Y10.241
G1 X10.374 Y10.510
G1 X13.318 Y13.448
G1 X13.318 Y13.709
G1 X10.374 Y10.766
G1 X10.374 Y11.034
G1 X13.318 Y13.973
G1 X13.318 Y14.235
G1 X10.374 Y11.291
G1 X10.374 Y11.559
