; generated by Slic3r 1.2.9 on 2018-02-11 at 16:49:56

; external perimeters extrusion width = 0.20mm
; perimeters extrusion width = 0.21mm
; infill extrusion width = 0.21mm
; solid infill extrusion width = 0.21mm
; top infill extrusion width = 0.21mm

M107
M104 S200 ; set temperature

M109 S200 ; wait for temperature to be reached
G21 ; set units to millimeters
G90 ; use absolute coordinates
G1 Z0.200 F7800.000
G1 X1.600 Y-12.472 F7800.000
G1 X4.544 Y-9.528 F3600.000
G1 X4.800 Y-9.528
G1 X1.851 Y-12.472
G1 X2.125 Y-12.472
G1 X5.069 Y-9.528
G1 X5.326 Y-9.528
G1 X2.377 Y-12.472
G1 X2.650 Y-12.472
G1 X5.594 Y-9.528
G1 X5.851 Y-9.528
G1 X2.902 Y-12.472
G1 X3.175 Y-12.472
G1 X6.119 Y-9.528
G1 X6.377 Y-9.528
G1 X3.428 Y-12.472
G1 X3.700 Y-12.472
G1 X6.644 Y-9.528
G1 X6.902 Y-9.528
G1 X3.953 Y-12.472
G1 X4.226 Y-12.472
G1 X7.169 Y-9.528
G1 X7.428 Y-9.528
G1 X4.479 Y-12.472
G1 X4.751 Y-12.472
G1 X7.694 Y-9.528
G1 X7.953 Y-9.528
G1 X5.004 Y-12.472
G1 X5.276 Y-12.472
G1 X8.220 Y-9.528
G1 X8.479 Y-9.528
G1 X5.530 Y-12.472
G1 X5.801 Y-12.472
G1 X8.745 Y-9.528
G1 X9.004 Y-9.528
G1 X6.056 Y-12.472
G1 X6.326 Y-12.472
G1 X9.270 Y-9.528
G1 X9.530 Y-9.528
G1 X6.581 Y-12.472
G1 X6.851 Y-12.472
G1 X9.795 Y-9.528
G1 X10.055 Y-9.528
G1 X7.107 Y-12.472
G1 X7.376 Y-12.472
G1 X10.320 Y-9.528
G1 X10.581 Y-9.528
G1 X7.632 Y-12.472
G1 X7.901 Y-12.472
G1 X10.845 Y-9.528
G1 X11.107 Y-9.528
G1 X8.158 Y-12.472
G1 X8.426 Y-12.472
G1 X11.370 Y-9.528
G1 X11.632 Y-9.528
G1 X8.683 Y-12.472
G1 X8.951 Y-12.472
G1 X11.895 Y-9.528
G1 X12.028 Y-9.395 F7800.000
G1 X14.972 Y-6.451 F3600.000
G1 X14.972 Y-6.719
G1 X9.209 Y-12.472
G1 X9.476 Y-12.472
G1 X14.972 Y-6.976
G1 X14.972 Y-7.243
G1 X9.734 Y-12.472
G1 X10.001 Y-12.472
G1 X14.972 Y-7.501
G1 X14.972 Y-7.768
G1 X10.260 Y-12.472
G1 X10.527 Y-12.472
G1 X14.972 Y-8.027
G1 X14.972 Y-8.293
G1 X10.785 Y-12.472
G1 X11.052 Y-12.472
G1 X14.972 Y-8.552
G1 X14.972 Y-8.817
G1 X11.311 Y-12.472
G1 X11.577 Y-12.472
G1 X14.972 Y-9.077
G1 X14.972 Y-9.342
G1 X11.836 Y-12.472
G1 X12.102 Y-12.472
G1 X14.972 Y-9.602
G1 X14.972 Y-9.866
G1 X12.362 Y-12.472
G1 X12.627 Y-12.472
G1 X14.972 Y-10.127
G1 X14.972 Y-10.391
G1 X12.888 Y-12.472
G1 X13.152 Y-12.472
G1 X14.972 Y-10.652
G1 X14.972 Y-10.916
G1 X13.413 Y-12.472
G1 X13.677 Y-12.472
G1 X14.972 Y-11.177
G1 X14.972 Y-11.440
G1 X13.939 Y-12.472
G1 X14.202 Y-12.472
G1 X14.972 Y-11.702
G1 X14.972 Y-11.965
G1 X14.464 Y-12.472
G1 X14.727 Y-12.472
G1 X14.972 Y-12.227
G1 X14.972 Y-6.194 F7800.000
G1 X12.028 Y-9.133 F3600.000
G1 X12.028 Y-8.870
G1 X14.972 Y-5.926
G1 X14.972 Y-5.670
G1 X12.028 Y-8.608
G1 X12.028 Y-8.345
G1 X14.972 Y-5.401
G1 X14.972 Y-5.145
G1 X12.028 Y-8.084
G1 X12.028 Y-7.820
G1 X14.972 Y-4.876
G1 X14.972 Y-4.620
G1 X12.028 Y-7.559
G1 X12.028 Y-7.295
G1 X14.972 Y-4.351
G1 X14.972 Y-4.096
G1 X12.028 Y-7.034
G1 X12.028 Y-6.770
G1 X14.972 Y-3.826
G1 X14.972 Y-3.571
G1 X12.028 Y-6.510
G1 X12.028 Y-6.245
G1 X14.972 Y-3.301
G1 X14.972 Y-3.046
G1 X12.028 Y-5.985
G1 X12.028 Y-5.720
G1 X14.972 Y-2.776
G1 X14.972 Y-2.522
G1 X12.028 Y-5.461
G1 X12.028 Y-5.194
G1 X14.972 Y-2.251
G1 X14.972 Y-1.997
G1 X12.028 Y-4.936
G1 X12.028 Y-4.669
G1 X14.972 Y-1.726
G1 X14.972 Y-1.473
G1 X12.028 Y-4.411
G1 X12.028 Y-4.144
G1 X14.972 Y-1.200
G1 X14.972 Y-0.948
G1 X12.028 Y-3.887
G1 X12.028 Y-3.619
G1 X14.972 Y-0.675
G1 X14.972 Y-0.423
G1 X12.028 Y-3.362
G1 X12.028 Y-3.094
G1 X14.972 Y-0.150
G1 X14.972 Y0.101
G1 X12.028 Y-2.837
G1 X12.028 Y-2.569
G1 X14.972 Y0.375
G1 X14.972 Y0.626
G1 X12.028 Y-2.313
G1 X12.028 Y-2.044
G1 X14.972 Y0.900
G1 X14.972 Y1.151
G1 X12.028 Y-1.788
G1 X12.028 Y-1.519
G1 X14.972 Y1.425
G1 X14.972 Y1.675
G1 X12.028 Y-1.264
G1 X12.028 Y-0.994
G1 X14.972 Y1.950
G1 X14.972 Y2.200
G1 X12.028 Y-0.739
G1 X12.028 Y-0.469
G1 X14.972 Y2.475
G1 X14.972 Y2.724
G1 X12.028 Y-0.214
G1 X12.028 Y0.056
G1 X14.972 Y3.000
G1 X14.972 Y3.249
G1 X12.028 Y0.310
G1 X12.028 Y0.581
G1 X14.972 Y3.525
G1 X14.972 Y3.774
G1 X12.028 Y0.835
G1 X12.028 Y1.107
G1 X14.972 Y4.050
G1 X14.972 Y4.298
G1 X12.028 Y1.359
G1 X12.028 Y1.632
G1 X14.972 Y4.575
G1 X14.972 Y4.823
G1 X12.028 Y1.884
G1 X12.028 Y2.157
G1 X14.972 Y5.101
G1 X14.972 Y5.347
G1 X12.028 Y2.409
G1 X12.028 Y2.682
G1 X14.972 Y5.626
G1 X14.972 Y5.872
G1 X12.028 Y2.933
G1 X12.028 Y3.207
G1 X14.972 Y6.151
G1 X14.972 Y6.397
G1 X12.028 Y3.458
G1 X12.028 Y3.732
G1 X14.972 Y6.676
G1 X14.972 Y6.921
G1 X12.028 Y3.983
G1 X12.028 Y4.257
G1 X14.972 Y7.201
G1 X14.972 Y7.446
G1 X12.028 Y4.507
G1 X12.028 Y4.782
G1 X14.972 Y7.726
G1 X14.972 Y7.971
G1 X12.028 Y5.032
G1 X12.028 Y5.307
G1 X14.972 Y8.251
G1 X14.972 Y8.495
G1 X12.028 Y5.556
G1 X12.028 Y5.832
G1 X14.972 Y8.776
G1 X14.972 Y9.020
G1 X12.028 Y6.081
G1 X12.028 Y6.357
G1 X14.972 Y9.301
G1 X14.972 Y9.544
G1 X12.028 Y6.606
G1 X12.028 Y6.882
G1 X14.972 Y9.826
G1 X14.972 Y10.069
G1 X12.028 Y7.130
G1 X12.028 Y7.407
G1 X14.972 Y10.351
G1 X14.972 Y10.594
G1 X12.028 Y7.655
G1 X12.028 Y7.933
G1 X14.972 Y10.876
G1 X14.972 Y11.118
G1 X12.028 Y8.180
G1 X12.028 Y8.458
G1 X14.972 Y11.401
G1 X14.972 Y11.643
G1 X12.028 Y8.704
G1 X12.028 Y8.983
G1 X14.972 Y11.927
G1 X14.972 Y12.168
G1 X12.028 Y9.229
G1 X12.028 Y9.508
G1 X14.972 Y12.452
G1 X14.972 Y12.692
G1 X12.028 Y9.753
G1 X12.028 Y10.033
G1 X14.972 Y12.977
G1 X14.972 Y13.217
G1 X12.028 Y10.278
G1 X12.028 Y10.558
G1 X14.972 Y13.502
G1 X14.972 Y13.741
G1 X12.028 Y10.803
G1 X12.028 Y11.083
G1 X14.972 Y14.027
G1 X14.972 Y14.266
G1 X12.028 Y11.327
G1 X12.028 Y11.608
G1 X14.972 Y14.552
G1 X14.972 Y14.791
G1 X12.028 Y11.852
G1 X12.028 Y12.133
G1 X14.972 Y15.077
G1 X14.972 Y15.315
G1 X12.028 Y12.376
G1 X12.028 Y12.658
G1 X14.972 Y15.602
G1 X14.972 Y15.840
G1 X12.028 Y12.901
G1 X12.028 Y13.183
G1 X14.972 Y16.127
G1 X14.972 Y16.365
G1 X12.028 Y13.426
G1 X12.028 Y13.708
G1 X14.972 Y16.652
G1 X14.972 Y16.889
G1 X12.028 Y13.950
G1 X12.028 Y14.234
G1 X14.972 Y17.177
G1 X14.972 Y17.414
G1 X12.028 Y14.475
G1 X11.798 Y14.528 F7800.000
G1 X14.741 Y17.472 F3600.000
G1 X14.505 Y17.472
G1 X11.556 Y14.528
G1 X11.272 Y14.528
G1 X14.216 Y17.472
G1 X13.979 Y17.472
G1 X11.030 Y14.528
G1 X10.747 Y14.528
G1 X13.691 Y17.472
G1 X13.454 Y17.472
G1 X10.505 Y14.528
G1 X10.222 Y14.528
G1 X13.166 Y17.472
G1 X12.928 Y17.472
G1 X9.979 Y14.528
G1 X9.697 Y14.528
G1 X12.641 Y17.472
G1 X12.402 Y17.472
G1 X9.454 Y14.528
G1 X9.172 Y14.528
G1 X12.116 Y17.472
G1 X11.877 Y17.472
G1 X8.928 Y14.528
G1 X8.647 Y14.528
G1 X11.591 Y17.472
G1 X11.351 Y17.472
G1 X8.403 Y14.528
G1 X8.122 Y14.528
G1 X11.066 Y17.472
G1 X10.826 Y17.472
G1 X7.877 Y14.528
G1 X7.597 Y14.528
G1 X10.541 Y17.472
G1 X10.300 Y17.472
G1 X7.351 Y14.528
G1 X7.072 Y14.528
G1 X10.016 Y17.472
G1 X9.775 Y17.472
G1 X6.826 Y14.528
G1 X6.547 Y14.528
G1 X9.491 Y17.472
G1 X9.249 Y17.472
G1 X6.300 Y14.528
G1 X6.022 Y14.528
G1 X8.966 Y17.472
G1 X8.724 Y17.472
G1 X5.775 Y14.528
G1 X5.497 Y14.528
G1 X8.440 Y17.472
G1 X8.198 Y17.472
G1 X5.249 Y14.528
G1 X4.972 Y14.528
G1 X7.915 Y17.472
G1 X7.673 Y17.472
G1 X4.724 Y14.528
G1 X4.446 Y14.528
G1 X7.390 Y17.472
G1 X7.147 Y17.472
G1 X4.198 Y14.528
G1 X3.921 Y14.528
G1 X6.865 Y17.472
G1 X6.622 Y17.472
G1 X3.673 Y14.528
G1 X3.396 Y14.528
G1 X6.340 Y17.472
G1 X6.096 Y17.472
G1 X3.147 Y14.528
G1 X2.871 Y14.528
G1 X5.815 Y17.472
G1 X5.570 Y17.472
G1 X2.622 Y14.528
G1 X2.346 Y14.528
G1 X5.290 Y17.472
G1 X5.045 Y17.472
G1 X2.096 Y14.528
G1 X1.821 Y14.528
G1 X4.765 Y17.472
G1 X4.519 Y17.472
G1 X1.570 Y14.528
G1 X1.296 Y14.528
G1 X4.240 Y17.472
G1 X3.994 Y17.472
G1 X1.045 Y14.528
G1 X0.771 Y14.528
G1 X3.715 Y17.472
G1 X3.468 Y17.472
G1 X0.519 Y14.528
G1 X0.246 Y14.528
G1 X3.190 Y17.472
G1 X2.943 Y17.472
G1 X-0.006 Y14.528
G1 X-0.279 Y14.528
G1 X2.665 Y17.472
G1 X2.417 Y17.472
G1 X-0.532 Y14.528
G1 X-0.804 Y14.528
G1 X2.139 Y17.472
G1 X1.892 Y17.472
G1 X-1.057 Y14.528
G1 X-1.329 Y14.528
G1 X1.614 Y17.472
G1 X1.366 Y17.472
G1 X-1.583 Y14.528
G1 X-1.855 Y14.528
G1 X1.089 Y17.472
G1 X0.841 Y17.472
G1 X-2.108 Y14.528
G1 X-2.380 Y14.528
G1 X0.564 Y17.472
G1 X0.315 Y17.472
G1 X-2.634 Y14.528
G1 X-2.905 Y14.528
G1 X0.039 Y17.472
G1 X-0.211 Y17.472
G1 X-3.159 Y14.528
G1 X-3.430 Y14.528
G1 X-0.486 Y17.472
G1 X-0.736 Y17.472
G1 X-3.685 Y14.528
G1 X-3.955 Y14.528
G1 X-1.011 Y17.472
G1 X-1.262 Y17.472
G1 X-4.211 Y14.528
G1 X-4.480 Y14.528
G1 X-1.536 Y17.472
G1 X-1.787 Y17.472
G1 X-4.736 Y14.528
G1 X-5.005 Y14.528
G1 X-2.061 Y17.472
G1 X-2.313 Y17.472
G1 X-5.262 Y14.528
G1 X-5.530 Y14.528
G1 X-2.586 Y17.472
G1 X-2.838 Y17.472
G1 X-5.787 Y14.528
G1 X-6.055 Y14.528
G1 X-3.111 Y17.472
G1 X-3.364 Y17.472
G1 X-6.313 Y14.528
G1 X-6.580 Y14.528
G1 X-3.636 Y17.472
G1 X-3.889 Y17.472
G1 X-6.838 Y14.528
G1 X-7.105 Y14.528
G1 X-4.162 Y17.472
G1 X-4.415 Y17.472
G1 X-7.364 Y14.528
G1 X-7.630 Y14.528
G1 X-4.687 Y17.472
G1 X-4.940 Y17.472
G1 X-7.889 Y14.528
G1 X-8.156 Y14.528
G1 X-5.212 Y17.472
G1 X-5.466 Y17.472
G1 X-8.415 Y14.528
G1 X-8.681 Y14.528
G1 X-5.737 Y17.472
G1 X-5.992 Y17.472
G1 X-8.940 Y14.528
G1 X-9.206 Y14.528
G1 X-6.262 Y17.472
G1 X-6.517 Y17.472
G1 X-9.466 Y14.528
G1 X-9.731 Y14.528
G1 X-6.787 Y17.472
G1 X-7.043 Y17.472
G1 X-9.991 Y14.528
G1 X-10.256 Y14.528
G1 X-7.312 Y17.472
G1 X-7.568 Y17.472
G1 X-10.517 Y14.528
G1 X-10.781 Y14.528
G1 X-7.837 Y17.472
G1 X-8.094 Y17.472
G1 X-11.043 Y14.528
G1 X-11.306 Y14.528
G1 X-8.362 Y17.472
G1 X-8.619 Y17.472
G1 X-11.568 Y14.528
G1 X-11.831 Y14.528
G1 X-8.887 Y17.472
G1 X-9.145 Y17.472
G1 X-12.094 Y14.528
G1 X-12.028 Y14.594 F7800.000
G1 X-14.972 Y11.655 F3600.000
G1 X-14.972 Y11.387
G1 X-12.028 Y14.331
G1 X-12.028 Y14.069
G1 X-14.972 Y11.130
G1 X-14.972 Y10.862
G1 X-12.028 Y13.806
G1 X-12.028 Y13.544
G1 X-14.972 Y10.606
G1 X-14.972 Y10.337
G1 X-12.028 Y13.281
G1 X-12.028 Y13.020
G1 X-14.972 Y10.081
G1 X-14.972 Y9.812
G1 X-12.028 Y12.756
G1 X-12.028 Y12.495
G1 X-14.972 Y9.556
G1 X-14.972 Y9.287
G1 X-12.028 Y12.231
G1 X-12.028 Y11.971
G1 X-14.972 Y9.032
G1 X-14.972 Y8.762
G1 X-12.028 Y11.706
G1 X-12.028 Y11.446
G1 X-14.972 Y8.507
G1 X-14.972 Y8.237
G1 X-12.028 Y11.181
G1 X-12.028 Y10.921
G1 X-14.972 Y7.983
G1 X-14.972 Y7.712
G1 X-12.028 Y10.656
G1 X-12.028 Y10.397
G1 X-14.972 Y7.458
G1 X-14.972 Y7.187
G1 X-12.028 Y10.130
G1 X-12.028 Y9.872
G1 X-14.972 Y6.933
G1 X-14.972 Y6.662
G1 X-12.028 Y9.605
G1 X-12.028 Y9.347
G1 X-14.972 Y6.409
G1 X-14.972 Y6.136
G1 X-12.028 Y9.080
G1 X-12.028 Y8.823
G1 X-14.972 Y5.884
G1 X-14.972 Y5.611
G1 X-12.028 Y8.555
G1 X-12.028 Y8.298
G1 X-14.972 Y5.359
G1 X-14.972 Y5.086
G1 X-12.028 Y8.030
G1 X-12.028 Y7.774
G1 X-14.972 Y4.835
G1 X-14.972 Y4.561
G1 X-12.028 Y7.505
G1 X-12.028 Y7.249
G1 X-14.972 Y4.310
G1 X-14.972 Y4.036
G1 X-12.028 Y6.980
G1 X-12.028 Y6.724
G1 X-14.972 Y3.786
G1 X-14.972 Y3.511
G1 X-12.028 Y6.455
G1 X-12.028 Y6.200
G1 X-14.972 Y3.261
G1 X-14.972 Y2.986
G1 X-12.028 Y5.930
G1 X-12.028 Y5.675
G1 X-14.972 Y2.736
G1 X-14.972 Y2.461
G1 X-12.028 Y5.405
G1 X-12.028 Y5.151
G1 X-14.972 Y2.212
G1 X-14.972 Y1.936
G1 X-12.028 Y4.880
G1 X-12.028 Y4.626
G1 X-14.972 Y1.687
G1 X-14.972 Y1.411
G1 X-12.028 Y4.355
G1 X-12.028 Y4.101
G1 X-14.972 Y1.162
G1 X-14.972 Y0.886
G1 X-12.028 Y3.829
G1 X-12.028 Y3.577
G1 X-14.972 Y0.638
G1 X-14.972 Y0.361
G1 X-12.028 Y3.304
G1 X-12.028 Y3.052
G1 X-14.972 Y0.113
G1 X-14.972 Y-0.165
G1 X-12.028 Y2.779
G1 X-12.028 Y2.527
G1 X-14.972 Y-0.411
G1 X-14.972 Y-0.690
G1 X-12.028 Y2.254
G1 X-12.028 Y2.003
G1 X-14.972 Y-0.936
G1 X-14.972 Y-1.215
G1 X-12.028 Y1.729
G1 X-12.028 Y1.478
G1 X-14.972 Y-1.461
G1 X-14.972 Y-1.740
G1 X-12.028 Y1.204
G1 X-12.028 Y0.954
G1 X-14.972 Y-1.985
G1 X-14.972 Y-2.265
G1 X-12.028 Y0.679
G1 X-12.028 Y0.429
G1 X-14.972 Y-2.510
G1 X-14.972 Y-2.790
G1 X-12.028 Y0.154
G1 X-12.028 Y-0.096
G1 X-14.972 Y-3.034
G1 X-14.972 Y-3.315
G1 X-12.028 Y-0.371
G1 X-12.028 Y-0.620
G1 X-14.972 Y-3.559
G1 X-14.972 Y-3.840
G1 X-12.028 Y-0.896
G1 X-12.028 Y-1.145
G1 X-14.972 Y-4.084
G1 X-14.972 Y-4.365
G1 X-12.028 Y-1.421
G1 X-12.028 Y-1.670
G1 X-14.972 Y-4.608
G1 X-14.972 Y-4.890
G1 X-12.028 Y-1.946
G1 X-12.028 Y-2.194
G1 X-14.972 Y-5.133
G1 X-14.972 Y-5.415
G1 X-12.028 Y-2.472
G1 X-12.028 Y-2.719
G1 X-14.972 Y-5.658
G1 X-14.972 Y-5.940
G1 X-12.028 Y-2.997
G1 X-12.028 Y-3.243
G1 X-14.972 Y-6.182
G1 X-14.972 Y-6.466
G1 X-12.028 Y-3.522
G1 X-12.028 Y-3.768
G1 X-14.972 Y-6.707
G1 X-14.972 Y-6.991
G1 X-12.028 Y-4.047
G1 X-12.028 Y-4.293
G1 X-14.972 Y-7.231
G1 X-14.972 Y-7.516
G1 X-12.028 Y-4.572
G1 X-12.028 Y-4.817
G1 X-14.972 Y-7.756
G1 X-14.972 Y-8.041
G1 X-12.028 Y-5.097
G1 X-12.028 Y-5.342
G1 X-14.972 Y-8.281
G1 X-14.972 Y-8.566
G1 X-12.028 Y-5.622
G1 X-12.028 Y-5.867
G1 X-14.972 Y-8.805
G1 X-14.972 Y-9.091
G1 X-12.028 Y-6.147
G1 X-12.028 Y-6.391
G1 X-14.972 Y-9.330
G1 X-14.972 Y-9.616
G1 X-12.028 Y-6.672
G1 X-12.028 Y-6.916
G1 X-14.972 Y-9.855
G1 X-14.972 Y-10.141
G1 X-12.028 Y-7.197
G1 X-12.028 Y-7.440
G1 X-14.972 Y-10.379
G1 X-14.972 Y-10.666
G1 X-12.028 Y-7.722
G1 X-12.028 Y-7.965
G1 X-14.972 Y-10.904
G1 X-14.972 Y-11.191
G1 X-12.028 Y-8.247
G1 X-12.028 Y-8.490
G1 X-14.972 Y-11.428
G1 X-14.972 Y-11.716
G1 X-12.028 Y-8.772
G1 X-12.028 Y-9.014
G1 X-14.972 Y-11.953
G1 X-14.972 Y-12.241
G1 X-12.028 Y-9.298
G1 X-12.017 Y-9.528
G1 X-14.949 Y-12.455
G1 X-14.677 Y-12.472
G1 X-11.734 Y-9.528
G1 X-11.492 Y-9.528
G1 X-14.441 Y-12.472
G1 X-14.152 Y-12.472
G1 X-11.208 Y-9.528
G1 X-10.966 Y-9.528
G1 X-13.915 Y-12.472
G1 X-13.627 Y-12.472
G1 X-10.683 Y-9.528
G1 X-10.441 Y-9.528
G1 X-13.390 Y-12.472
G1 X-13.102 Y-12.472
G1 X-10.158 Y-9.528
G1 X-9.915 Y-9.528
G1 X-12.864 Y-12.472
G1 X-12.577 Y-12.472
G1 X-9.633 Y-9.528
G1 X-9.390 Y-9.528
G1 X-12.338 Y-12.472
G1 X-12.052 Y-12.472
G1 X-9.108 Y-9.528
G1 X-8.864 Y-9.528
G1 X-11.813 Y-12.472
G1 X-11.527 Y-12.472
G1 X-8.583 Y-9.528
G1 X-8.339 Y-9.528
G1 X-11.287 Y-12.472
G1 X-11.002 Y-12.472
G1 X-8.058 Y-9.528
G1 X-7.813 Y-9.528
G1 X-10.762 Y-12.472
G1 X-10.477 Y-12.472
G1 X-7.533 Y-9.528
G1 X-7.287 Y-9.528
G1 X-10.236 Y-12.472
G1 X-9.952 Y-12.472
G1 X-7.008 Y-9.528
G1 X-6.762 Y-9.528
G1 X-9.711 Y-12.472
G1 X-9.427 Y-12.472
G1 X-6.483 Y-9.528
G1 X-6.236 Y-9.528
G1 X-9.185 Y-12.472
G1 X-8.901 Y-12.472
G1 X-5.958 Y-9.528
G1 X-5.711 Y-9.528
G1 X-8.660 Y-12.472
G1 X-8.376 Y-12.472
G1 X-5.433 Y-9.528
G1 X-5.185 Y-9.528
G1 X-8.134 Y-12.472
G1 X-7.851 Y-12.472
G1 X-4.907 Y-9.528
G1 X-4.660 Y-9.528
G1 X-7.609 Y-12.472
G1 X-7.326 Y-12.472
G1 X-4.382 Y-9.528
G1 X-4.134 Y-9.528
G1 X-7.083 Y-12.472
G1 X-6.801 Y-12.472
G1 X-3.857 Y-9.528
G1 X-3.609 Y-9.528
G1 X-6.558 Y-12.472
G1 X-6.276 Y-12.472
G1 X-3.332 Y-9.528
G1 X-3.083 Y-9.528
G1 X-6.032 Y-12.472
G1 X-5.751 Y-12.472
G1 X-2.807 Y-9.528
G1 X-2.558 Y-9.528
G1 X-5.506 Y-12.472
G1 X-5.226 Y-12.472
G1 X-2.282 Y-9.528
G1 X-2.032 Y-9.528
G1 X-4.981 Y-12.472
G1 X-4.701 Y-12.472
G1 X-1.757 Y-9.528
G1 X-1.506 Y-9.528
G1 X-4.455 Y-12.472
G1 X-4.176 Y-12.472
G1 X-1.232 Y-9.528
G1 X-0.981 Y-9.528
G1 X-3.930 Y-12.472
G1 X-3.651 Y-12.472
G1 X-0.707 Y-9.528
G1 X-0.455 Y-9.528
G1 X-3.404 Y-12.472
G1 X-3.126 Y-12.472
G1 X-0.182 Y-9.528
G1 X0.070 Y-9.528
G1 X-2.879 Y-12.472
G1 X-2.601 Y-12.472
G1 X0.343 Y-9.528
G1 X0.596 Y-9.528
G1 X-2.353 Y-12.472
G1 X-2.075 Y-12.472
G1 X0.868 Y-9.528
G1 X1.121 Y-9.528
G1 X-1.828 Y-12.472
G1 X-1.550 Y-12.472
G1 X1.393 Y-9.528
G1 X1.647 Y-9.528
G1 X-1.472 Y-12.641
G1 X-1.472 Y-12.919
G1 X1.919 Y-9.528
G1 X2.172 Y-9.528
G1 X-1.472 Y-13.166
G1 X-1.472 Y-13.444
G1 X2.444 Y-9.528
G1 X2.698 Y-9.528
G1 X-1.472 Y-13.691
G1 X-1.472 Y-13.969
G1 X2.969 Y-9.528
