; generated by Slic3r 1.2.9 on 2018-02-04 at 18:05:50

; external perimeters extrusion width = 0.20mm
; perimeters extrusion width = 0.21mm
; infill extrusion width = 0.21mm
; solid infill extrusion width = 0.21mm
; top infill extrusion width = 0.21mm

M107
M104 S200 ; set temperature

M109 S200 ; wait for temperature to be reached
G21 ; set units to millimeters
G90 ; use absolute coordinates
G1 Z0.200 F7800.000
G1 X-2.610 Y-13.472 F7800.000
G1 X2.334 Y-8.528 F3600.000
G1 X2.064 Y-8.528
G1 X-2.888 Y-13.472
G1 X-3.135 Y-13.472
G1 X1.809 Y-8.528
G1 X1.538 Y-8.528
G1 X-3.413 Y-13.472
G1 X-3.660 Y-13.472
G1 X1.284 Y-8.528
G1 X1.013 Y-8.528
G1 X-3.939 Y-13.472
G1 X-4.185 Y-13.472
G1 X0.759 Y-8.528
G1 X0.487 Y-8.528
G1 X-4.464 Y-13.472
G1 X-4.710 Y-13.472
G1 X0.234 Y-8.528
G1 X-0.038 Y-8.528
G1 X-4.990 Y-13.472
G1 X-5.235 Y-13.472
G1 X-0.291 Y-8.528
G1 X-0.564 Y-8.528
G1 X-5.515 Y-13.472
G1 X-5.760 Y-13.472
G1 X-0.817 Y-8.528
G1 X-1.089 Y-8.528
G1 X-6.041 Y-13.472
G1 X-6.285 Y-13.472
G1 X-1.342 Y-8.528
G1 X-1.615 Y-8.528
G1 X-6.567 Y-13.472
G1 X-6.811 Y-13.472
G1 X-1.867 Y-8.528
G1 X-2.140 Y-8.528
G1 X-7.092 Y-13.472
G1 X-7.336 Y-13.472
G1 X-2.392 Y-8.528
G1 X-2.666 Y-8.528
G1 X-7.618 Y-13.472
G1 X-7.861 Y-13.472
G1 X-2.917 Y-8.528
G1 X-3.191 Y-8.528
G1 X-8.143 Y-13.472
G1 X-8.386 Y-13.472
G1 X-3.442 Y-8.528
G1 X-3.717 Y-8.528
G1 X-8.669 Y-13.472
G1 X-8.911 Y-13.472
G1 X-3.967 Y-8.528
G1 X-4.242 Y-8.528
G1 X-9.194 Y-13.472
G1 X-9.436 Y-13.472
G1 X-4.492 Y-8.528
G1 X-4.768 Y-8.528
G1 X-9.720 Y-13.472
G1 X-9.961 Y-13.472
G1 X-5.017 Y-8.528
G1 X-5.293 Y-8.528
G1 X-10.245 Y-13.472
G1 X-10.486 Y-13.472
G1 X-5.542 Y-8.528
G1 X-5.819 Y-8.528
G1 X-10.771 Y-13.472
G1 X-11.011 Y-13.472
G1 X-6.067 Y-8.528
G1 X-6.344 Y-8.528
G1 X-11.296 Y-13.472
G1 X-11.536 Y-13.472
G1 X-6.592 Y-8.528
G1 X-6.870 Y-8.528
G1 X-11.822 Y-13.472
G1 X-12.061 Y-13.472
G1 X-7.117 Y-8.528
G1 X-7.395 Y-8.528
G1 X-12.347 Y-13.472
G1 X-12.586 Y-13.472
G1 X-7.643 Y-8.528
G1 X-7.921 Y-8.528
G1 X-12.873 Y-13.472
G1 X-13.111 Y-13.472
G1 X-8.168 Y-8.528
G1 X-8.446 Y-8.528
G1 X-13.398 Y-13.472
G1 X-13.637 Y-13.472
G1 X-8.693 Y-8.528
G1 X-8.972 Y-8.528
G1 X-13.924 Y-13.472
G1 X-14.162 Y-13.472
G1 X-9.218 Y-8.528
G1 X-9.497 Y-8.528
G1 X-14.449 Y-13.472
G1 X-14.687 Y-13.472
G1 X-9.743 Y-8.528
G1 X-10.023 Y-8.528
G1 X-14.975 Y-13.472
G1 X-15.212 Y-13.472
G1 X-10.268 Y-8.528
G1 X-10.548 Y-8.528
G1 X-15.500 Y-13.472
G1 X-15.737 Y-13.472
G1 X-10.793 Y-8.528
G1 X-11.028 Y-8.482 F7800.000
G1 X-15.972 Y-13.418 F3600.000
G1 X-15.972 Y-13.182
G1 X-11.028 Y-8.238
G1 X-11.028 Y-7.958
G1 X-15.972 Y-12.894
G1 X-15.972 Y-12.657
G1 X-11.028 Y-7.713
G1 X-11.028 Y-7.433
G1 X-15.972 Y-12.369
G1 X-15.972 Y-12.132
G1 X-11.028 Y-7.188
G1 X-11.028 Y-6.908
G1 X-15.972 Y-11.844
G1 X-15.972 Y-11.607
G1 X-11.028 Y-6.663
G1 X-11.028 Y-6.384
G1 X-15.972 Y-11.320
G1 X-15.972 Y-11.082
G1 X-11.028 Y-6.138
G1 X-11.028 Y-5.859
G1 X-15.972 Y-10.795
G1 X-15.972 Y-10.556
G1 X-11.028 Y-5.613
G1 X-11.028 Y-5.334
G1 X-15.972 Y-10.270
G1 X-15.972 Y-10.031
G1 X-11.028 Y-5.088
G1 X-11.028 Y-4.810
G1 X-15.972 Y-9.746
G1 X-15.972 Y-9.506
G1 X-11.028 Y-4.562
G1 X-11.028 Y-4.285
G1 X-15.972 Y-9.221
G1 X-15.972 Y-8.981
G1 X-11.028 Y-4.037
G1 X-11.028 Y-3.761
G1 X-15.972 Y-8.696
G1 X-15.972 Y-8.456
G1 X-11.028 Y-3.512
G1 X-11.028 Y-3.236
G1 X-15.972 Y-8.172
G1 X-15.972 Y-7.931
G1 X-11.028 Y-2.987
G1 X-11.028 Y-2.711
G1 X-15.972 Y-7.647
G1 X-15.972 Y-7.406
G1 X-11.028 Y-2.462
G1 X-11.028 Y-2.187
G1 X-15.972 Y-7.122
G1 X-15.972 Y-6.881
G1 X-11.028 Y-1.937
G1 X-11.028 Y-1.662
G1 X-15.972 Y-6.598
G1 X-15.972 Y-6.356
G1 X-11.028 Y-1.412
G1 X-11.028 Y-1.137
G1 X-15.972 Y-6.073
G1 X-15.972 Y-5.831
G1 X-11.028 Y-0.887
G1 X-11.028 Y-0.613
G1 X-15.972 Y-5.548
G1 X-15.972 Y-5.306
G1 X-11.028 Y-0.362
G1 X-11.028 Y-0.088
G1 X-15.972 Y-5.024
G1 X-15.972 Y-4.781
G1 X-11.028 Y0.163
G1 X-11.028 Y0.437
G1 X-15.972 Y-4.499
G1 X-15.972 Y-4.256
G1 X-11.028 Y0.688
G1 X-11.028 Y0.961
G1 X-15.972 Y-3.974
G1 X-15.972 Y-3.730
G1 X-11.028 Y1.213
G1 X-11.028 Y1.486
G1 X-15.972 Y-3.450
G1 X-15.972 Y-3.205
G1 X-11.028 Y1.738
G1 X-11.028 Y2.011
G1 X-15.972 Y-2.925
G1 X-15.972 Y-2.680
G1 X-11.028 Y2.264
G1 X-11.028 Y2.535
G1 X-15.972 Y-2.401
G1 X-15.972 Y-2.155
G1 X-11.028 Y2.789
G1 X-11.028 Y3.060
G1 X-15.972 Y-1.876
G1 X-15.972 Y-1.630
G1 X-11.028 Y3.314
G1 X-11.028 Y3.585
G1 X-15.972 Y-1.351
G1 X-15.972 Y-1.105
G1 X-11.028 Y3.839
G1 X-11.028 Y4.109
G1 X-15.972 Y-0.827
G1 X-15.972 Y-0.580
G1 X-11.028 Y4.364
G1 X-11.028 Y4.634
G1 X-15.972 Y-0.302
G1 X-15.972 Y-0.055
G1 X-11.028 Y4.889
G1 X-11.028 Y5.159
G1 X-15.972 Y0.223
G1 X-15.972 Y0.470
G1 X-11.028 Y5.414
G1 X-11.028 Y5.683
G1 X-15.972 Y0.747
G1 X-15.972 Y0.995
G1 X-11.028 Y5.939
G1 X-11.028 Y6.208
G1 X-15.972 Y1.272
G1 X-15.972 Y1.520
G1 X-11.028 Y6.464
G1 X-11.028 Y6.732
G1 X-15.972 Y1.797
G1 X-15.972 Y2.045
G1 X-11.028 Y6.989
G1 X-11.028 Y7.257
G1 X-15.972 Y2.321
G1 X-15.972 Y2.571
G1 X-11.028 Y7.514
G1 X-11.028 Y7.782
G1 X-15.972 Y2.846
G1 X-15.972 Y3.096
G1 X-11.028 Y8.039
G1 X-11.028 Y8.306
G1 X-15.972 Y3.371
G1 X-15.972 Y3.621
G1 X-11.028 Y8.565
G1 X-11.028 Y8.831
G1 X-15.972 Y3.895
G1 X-15.972 Y4.146
G1 X-11.028 Y9.090
G1 X-11.028 Y9.356
G1 X-15.972 Y4.420
G1 X-15.972 Y4.671
G1 X-11.028 Y9.615
G1 X-11.028 Y9.880
G1 X-15.972 Y4.945
G1 X-15.972 Y5.196
G1 X-11.028 Y10.140
G1 X-11.028 Y10.405
G1 X-15.972 Y5.469
G1 X-15.972 Y5.721
G1 X-11.028 Y10.665
G1 X-11.028 Y10.930
G1 X-15.972 Y5.994
G1 X-15.972 Y6.246
G1 X-11.028 Y11.190
G1 X-11.028 Y11.454
G1 X-15.972 Y6.518
G1 X-15.972 Y6.771
G1 X-11.028 Y11.715
G1 X-11.028 Y11.979
G1 X-15.972 Y7.043
G1 X-15.972 Y7.296
G1 X-11.028 Y12.240
G1 X-11.028 Y12.504
G1 X-15.972 Y7.568
G1 X-15.972 Y7.821
G1 X-11.028 Y12.765
G1 X-11.028 Y13.028
G1 X-15.972 Y8.092
G1 X-15.972 Y8.346
G1 X-11.028 Y13.290
G1 X-11.053 Y13.528 F7800.000
G1 X-6.101 Y18.472 F3600.000
G1 X-15.823 Y18.472 F7800.000
G1 X-15.972 Y18.323 F3600.000
G1 X-15.972 Y18.061
G1 X-15.560 Y18.472
G1 X-15.298 Y18.472
G1 X-15.972 Y17.798
G1 X-15.972 Y17.536
G1 X-15.035 Y18.472
G1 X-14.773 Y18.472
G1 X-15.972 Y17.273
G1 X-15.972 Y17.011
G1 X-14.509 Y18.472
G1 X-14.248 Y18.472
G1 X-15.972 Y16.748
G1 X-15.972 Y16.487
G1 X-13.984 Y18.472
G1 X-13.723 Y18.472
G1 X-15.972 Y16.223
G1 X-15.972 Y15.962
G1 X-13.458 Y18.472
G1 X-13.198 Y18.472
G1 X-15.972 Y15.698
G1 X-15.972 Y15.438
G1 X-12.933 Y18.472
G1 X-12.672 Y18.472
G1 X-15.972 Y15.172
G1 X-15.972 Y14.913
G1 X-12.407 Y18.472
G1 X-12.147 Y18.472
G1 X-15.972 Y14.647
G1 X-15.972 Y14.388
G1 X-11.882 Y18.472
G1 X-11.622 Y18.472
G1 X-15.972 Y14.122
G1 X-15.972 Y13.864
G1 X-11.356 Y18.472
G1 X-11.097 Y18.472
G1 X-15.972 Y13.597
G1 X-15.972 Y13.339
G1 X-10.831 Y18.472
G1 X-10.572 Y18.472
G1 X-15.972 Y13.072
G1 X-15.972 Y12.814
G1 X-10.305 Y18.472
G1 X-10.047 Y18.472
G1 X-15.972 Y12.547
G1 X-15.972 Y12.290
G1 X-9.780 Y18.472
G1 X-9.522 Y18.472
G1 X-15.972 Y12.022
G1 X-15.972 Y11.765
G1 X-9.254 Y18.472
G1 X-8.997 Y18.472
G1 X-15.972 Y11.497
G1 X-15.972 Y11.240
G1 X-8.729 Y18.472
G1 X-8.472 Y18.472
G1 X-15.972 Y10.972
G1 X-15.972 Y10.716
G1 X-8.203 Y18.472
G1 X-7.947 Y18.472
G1 X-15.972 Y10.447
G1 X-15.972 Y10.191
G1 X-7.678 Y18.472
G1 X-7.422 Y18.472
G1 X-15.972 Y9.922
G1 X-15.972 Y9.666
G1 X-7.152 Y18.472
G1 X-6.897 Y18.472
G1 X-15.972 Y9.397
G1 X-15.972 Y9.142
G1 X-6.626 Y18.472
G1 X-6.372 Y18.472
G1 X-15.972 Y8.872
G1 X-15.972 Y8.617
G1 X-11.028 Y13.553
G1 X-10.790 Y13.528
G1 X-5.846 Y18.472
G1 X-5.575 Y18.472
G1 X-10.527 Y13.528
G1 X-10.265 Y13.528
G1 X-5.321 Y18.472
G1 X-5.050 Y18.472
G1 X-10.002 Y13.528
G1 X-9.740 Y13.528
G1 X-4.796 Y18.472
G1 X-4.524 Y18.472
G1 X-9.476 Y13.528
G1 X-9.215 Y13.528
G1 X-4.271 Y18.472
G1 X-3.999 Y18.472
G1 X-8.951 Y13.528
G1 X-8.690 Y13.528
G1 X-3.746 Y18.472
G1 X-3.473 Y18.472
G1 X-8.425 Y13.528
G1 X-8.165 Y13.528
G1 X-3.221 Y18.472
G1 X-2.948 Y18.472
G1 X-7.900 Y13.528
G1 X-7.640 Y13.528
G1 X-2.696 Y18.472
G1 X-2.422 Y18.472
G1 X-7.374 Y13.528
G1 X-7.115 Y13.528
G1 X-2.171 Y18.472
G1 X-1.897 Y18.472
G1 X-6.849 Y13.528
G1 X-6.590 Y13.528
G1 X-1.646 Y18.472
G1 X-1.371 Y18.472
G1 X-6.323 Y13.528
G1 X-6.065 Y13.528
G1 X-1.121 Y18.472
G1 X-0.846 Y18.472
G1 X-5.798 Y13.528
G1 X-5.539 Y13.528
G1 X-0.596 Y18.472
G1 X-0.320 Y18.472
G1 X-5.272 Y13.528
G1 X-5.014 Y13.528
G1 X-0.071 Y18.472
G1 X0.205 Y18.472
G1 X-4.747 Y13.528
G1 X-4.489 Y13.528
G1 X0.455 Y18.472
G1 X0.731 Y18.472
G1 X-4.221 Y13.528
G1 X-3.964 Y13.528
G1 X0.980 Y18.472
G1 X1.256 Y18.472
G1 X-3.696 Y13.528
G1 X-3.439 Y13.528
G1 X1.505 Y18.472
G1 X1.782 Y18.472
G1 X-3.170 Y13.528
G1 X-2.914 Y13.528
G1 X2.030 Y18.472
G1 X2.307 Y18.472
G1 X-2.645 Y13.528
G1 X-2.389 Y13.528
G1 X2.555 Y18.472
G1 X2.833 Y18.472
G1 X-2.119 Y13.528
G1 X-1.864 Y13.528
G1 X3.080 Y18.472
G1 X3.358 Y18.472
G1 X-1.594 Y13.528
G1 X-1.339 Y13.528
G1 X3.605 Y18.472
G1 X3.884 Y18.472
G1 X-1.068 Y13.528
G1 X-0.814 Y13.528
G1 X4.130 Y18.472
G1 X4.409 Y18.472
G1 X-0.543 Y13.528
G1 X-0.289 Y13.528
G1 X4.655 Y18.472
G1 X4.935 Y18.472
G1 X-0.017 Y13.528
G1 X0.236 Y13.528
G1 X5.180 Y18.472
G1 X5.460 Y18.472
G1 X0.508 Y13.528
G1 X0.762 Y13.528
G1 X5.705 Y18.472
G1 X5.986 Y18.472
G1 X1.034 Y13.528
G1 X1.287 Y13.528
G1 X6.230 Y18.472
G1 X6.511 Y18.472
G1 X1.559 Y13.528
G1 X1.812 Y13.528
G1 X6.755 Y18.472
G1 X7.037 Y18.472
G1 X2.085 Y13.528
G1 X2.337 Y13.528
G1 X7.281 Y18.472
G1 X7.562 Y18.472
G1 X2.611 Y13.528
G1 X2.862 Y13.528
G1 X7.806 Y18.472
G1 X8.088 Y18.472
G1 X3.136 Y13.528
G1 X3.387 Y13.528
G1 X8.331 Y18.472
G1 X8.613 Y18.472
G1 X3.662 Y13.528
G1 X3.912 Y13.528
G1 X8.856 Y18.472
G1 X9.139 Y18.472
G1 X4.187 Y13.528
G1 X4.437 Y13.528
G1 X9.381 Y18.472
G1 X9.664 Y18.472
G1 X4.713 Y13.528
G1 X4.962 Y13.528
G1 X9.906 Y18.472
G1 X10.190 Y18.472
G1 X5.238 Y13.528
G1 X5.487 Y13.528
G1 X10.431 Y18.472
G1 X10.715 Y18.472
G1 X5.764 Y13.528
G1 X6.012 Y13.528
G1 X10.956 Y18.472
G1 X11.241 Y18.472
G1 X6.289 Y13.528
G1 X6.537 Y13.528
G1 X11.481 Y18.472
G1 X11.766 Y18.472
G1 X6.815 Y13.528
G1 X7.062 Y13.528
G1 X12.006 Y18.472
G1 X12.292 Y18.472
G1 X7.340 Y13.528
G1 X7.588 Y13.528
G1 X12.531 Y18.472
G1 X12.818 Y18.472
G1 X7.866 Y13.528
G1 X8.113 Y13.528
G1 X13.056 Y18.472
G1 X13.343 Y18.472
G1 X8.391 Y13.528
G1 X8.638 Y13.528
G1 X13.582 Y18.472
G1 X13.869 Y18.472
G1 X8.917 Y13.528
G1 X9.163 Y13.528
G1 X14.107 Y18.472
G1 X14.394 Y18.472
G1 X9.442 Y13.528
G1 X9.688 Y13.528
G1 X14.632 Y18.472
G1 X14.920 Y18.472
G1 X9.968 Y13.528
G1 X10.213 Y13.528
G1 X15.157 Y18.472
G1 X15.445 Y18.472
G1 X10.493 Y13.528
G1 X10.738 Y13.528
G1 X15.682 Y18.472
G1 X15.971 Y18.472
G1 X11.019 Y13.528
G1 X11.028 Y13.293
G1 X15.972 Y18.237
G1 X15.972 Y17.949
G1 X11.028 Y13.013
G1 X11.028 Y12.768
G1 X15.972 Y17.712
G1 X15.972 Y17.424
G1 X11.028 Y12.488
G1 X11.028 Y12.243
G1 X15.972 Y17.187
G1 X15.972 Y16.899
G1 X11.028 Y11.963
G1 X11.028 Y11.718
G1 X15.972 Y16.662
G1 X15.972 Y16.375
G1 X11.028 Y11.439
G1 X11.028 Y11.193
G1 X15.972 Y16.137
G1 X15.972 Y15.850
G1 X11.028 Y10.914
G1 X11.028 Y10.668
G1 X15.972 Y15.611
G1 X15.972 Y15.325
G1 X11.028 Y10.390
G1 X11.028 Y10.143
G1 X15.972 Y15.086
G1 X15.972 Y14.801
G1 X11.028 Y9.865
G1 X11.028 Y9.617
G1 X15.972 Y14.561
G1 X15.972 Y14.276
G1 X11.028 Y9.340
G1 X11.028 Y9.092
G1 X15.972 Y14.036
G1 X15.972 Y13.751
G1 X11.028 Y8.816
G1 X11.028 Y8.567
G1 X15.972 Y13.511
G1 X15.972 Y13.227
G1 X11.028 Y8.291
G1 X11.028 Y8.042
G1 X15.972 Y12.986
G1 X15.972 Y12.702
G1 X11.028 Y7.766
G1 X11.028 Y7.517
G1 X15.972 Y12.461
G1 X15.972 Y12.177
G1 X11.028 Y7.242
G1 X11.028 Y6.992
G1 X15.972 Y11.936
G1 X15.972 Y11.653
G1 X11.028 Y6.717
G1 X11.028 Y6.467
G1 X15.972 Y11.411
G1 X15.972 Y11.128
G1 X11.028 Y6.192
G1 X11.028 Y5.942
G1 X15.972 Y10.886
G1 X15.972 Y10.604
G1 X11.028 Y5.668
G1 X11.028 Y5.417
G1 X15.972 Y10.361
G1 X15.972 Y10.079
G1 X11.028 Y5.143
G1 X11.028 Y4.892
G1 X15.972 Y9.836
G1 X15.972 Y9.554
G1 X11.028 Y4.618
G1 X11.028 Y4.367
G1 X15.972 Y9.311
G1 X15.972 Y9.030
G1 X11.028 Y4.094
G1 X11.028 Y3.842
G1 X15.972 Y8.785
G1 X15.972 Y8.505
G1 X11.028 Y3.569
G1 X11.028 Y3.317
G1 X15.972 Y8.260
G1 X15.972 Y7.980
G1 X11.028 Y3.044
G1 X11.028 Y2.791
G1 X15.972 Y7.735
G1 X15.972 Y7.456
G1 X11.028 Y2.520
G1 X11.028 Y2.266
G1 X15.972 Y7.210
G1 X15.972 Y6.931
G1 X11.028 Y1.995
G1 X11.028 Y1.741
G1 X15.972 Y6.685
G1 X15.972 Y6.406
G1 X11.028 Y1.471
G1 X11.028 Y1.216
G1 X15.972 Y6.160
G1 X15.972 Y5.882
G1 X11.028 Y0.946
G1 X11.028 Y0.691
G1 X15.972 Y5.635
G1 X15.972 Y5.357
G1 X11.028 Y0.421
G1 X11.028 Y0.166
G1 X15.972 Y5.110
G1 X15.972 Y4.832
G1 X11.028 Y-0.103
G1 X11.028 Y-0.359
G1 X15.972 Y4.585
G1 X15.972 Y4.308
G1 X11.028 Y-0.628
G1 X11.028 Y-0.884
G1 X15.972 Y4.060
G1 X15.972 Y3.783
G1 X11.028 Y-1.153
G1 X11.028 Y-1.409
G1 X15.972 Y3.535
G1 X15.972 Y3.258
G1 X11.028 Y-1.677
G1 X11.028 Y-1.934
G1 X15.972 Y3.010
G1 X15.972 Y2.734
G1 X11.028 Y-2.202
G1 X11.028 Y-2.459
G1 X15.972 Y2.484
G1 X15.972 Y2.209
G1 X11.028 Y-2.727
G1 X11.028 Y-2.984
G1 X15.972 Y1.959
G1 X15.972 Y1.684
G1 X11.028 Y-3.251
G1 X11.028 Y-3.510
G1 X15.972 Y1.434
G1 X15.972 Y1.160
G1 X11.028 Y-3.776
G1 X11.028 Y-4.035
G1 X15.972 Y0.909
G1 X15.972 Y0.635
G1 X11.028 Y-4.301
G1 X11.028 Y-4.560
G1 X15.972 Y0.384
G1 X15.972 Y0.111
G1 X11.028 Y-4.825
G1 X11.028 Y-5.085
G1 X15.972 Y-0.141
G1 X15.972 Y-0.414
G1 X11.028 Y-5.350
G1 X11.028 Y-5.610
G1 X15.972 Y-0.666
G1 X15.972 Y-0.939
G1 X11.028 Y-5.875
G1 X11.028 Y-6.135
G1 X15.972 Y-1.191
G1 X15.972 Y-1.463
G1 X11.028 Y-6.399
G1 X11.028 Y-6.660
G1 X15.972 Y-1.716
G1 X15.972 Y-1.988
G1 X11.028 Y-6.924
G1 X11.028 Y-7.185
G1 X15.972 Y-2.241
G1 X15.972 Y-2.513
G1 X11.028 Y-7.449
G1 X11.028 Y-7.710
G1 X15.972 Y-2.766
G1 X15.972 Y-3.037
G1 X11.028 Y-7.973
G1 X11.028 Y-8.235
G1 X15.972 Y-3.291
G1 X15.972 Y-3.562
G1 X11.028 Y-8.498
G1 X10.998 Y-8.528 F7800.000
G1 X6.046 Y-13.472 F3600.000
G1 X6.317 Y-13.472
G1 X15.972 Y-3.817
G1 X15.972 Y-4.087
G1 X6.571 Y-13.472
G1 X6.842 Y-13.472
G1 X15.972 Y-4.342
G1 X15.972 Y-4.611
G1 X7.097 Y-13.472
G1 X7.367 Y-13.472
G1 X15.972 Y-4.867
G1 X15.972 Y-5.136
G1 X7.622 Y-13.472
G1 X7.892 Y-13.472
G1 X15.972 Y-5.392
G1 X15.972 Y-5.661
G1 X8.148 Y-13.472
G1 X8.417 Y-13.472
G1 X15.972 Y-5.917
G1 X15.972 Y-6.185
G1 X8.673 Y-13.472
G1 X8.942 Y-13.472
G1 X15.972 Y-6.442
G1 X15.972 Y-6.710
G1 X9.199 Y-13.472
G1 X9.467 Y-13.472
G1 X15.972 Y-6.967
G1 X15.972 Y-7.235
G1 X9.724 Y-13.472
G1 X9.992 Y-13.472
G1 X15.972 Y-7.492
G1 X15.972 Y-7.759
G1 X10.250 Y-13.472
G1 X10.517 Y-13.472
G1 X15.972 Y-8.017
G1 X15.972 Y-8.284
G1 X10.775 Y-13.472
G1 X11.042 Y-13.472
G1 X15.972 Y-8.542
G1 X15.972 Y-8.809
G1 X11.301 Y-13.472
G1 X11.567 Y-13.472
G1 X15.972 Y-9.067
G1 X15.972 Y-9.333
G1 X11.826 Y-13.472
G1 X12.092 Y-13.472
G1 X15.972 Y-9.592
G1 X15.972 Y-9.858
G1 X12.352 Y-13.472
G1 X12.617 Y-13.472
G1 X15.972 Y-10.117
G1 X15.972 Y-10.382
G1 X12.877 Y-13.472
G1 X13.143 Y-13.472
G1 X15.972 Y-10.643
G1 X15.972 Y-10.907
G1 X13.403 Y-13.472
G1 X13.668 Y-13.472
G1 X15.972 Y-11.168
G1 X15.972 Y-11.432
G1 X13.929 Y-13.472
G1 X14.193 Y-13.472
G1 X15.972 Y-11.693
G1 X15.972 Y-11.956
G1 X14.454 Y-13.472
G1 X14.718 Y-13.472
G1 X15.972 Y-12.218
G1 X15.972 Y-12.481
G1 X14.980 Y-13.472
G1 X15.243 Y-13.472
G1 X15.972 Y-12.743
G1 X15.972 Y-13.006
G1 X15.505 Y-13.472
G1 X15.768 Y-13.472
G1 X15.972 Y-13.268
G1 X5.791 Y-13.472 F7800.000
G1 X10.735 Y-8.528 F3600.000
G1 X10.472 Y-8.528
G1 X5.520 Y-13.472
G1 X5.266 Y-13.472
G1 X10.210 Y-8.528
G1 X9.947 Y-8.528
G1 X4.995 Y-13.472
G1 X4.741 Y-13.472
G1 X9.685 Y-8.528
G1 X9.421 Y-8.528
G1 X4.469 Y-13.472
G1 X4.216 Y-13.472
G1 X9.160 Y-8.528
G1 X8.896 Y-8.528
G1 X3.944 Y-13.472
G1 X3.691 Y-13.472
G1 X8.635 Y-8.528
G1 X8.370 Y-8.528
G1 X3.418 Y-13.472
G1 X3.166 Y-13.472
G1 X8.110 Y-8.528
G1 X7.845 Y-8.528
G1 X2.893 Y-13.472
G1 X2.641 Y-13.472 F7800.000
G1 X7.585 Y-8.528 F3600.000
G1 X7.319 Y-8.528
G1 X-2.472 Y-18.303
G1 X-2.472 Y-18.060
G1 X7.060 Y-8.528
G1 X6.794 Y-8.528
G1 X-2.472 Y-17.778
G1 X-2.472 Y-17.535
G1 X6.535 Y-8.528
G1 X6.268 Y-8.528
G1 X-2.472 Y-17.254
G1 X-2.472 Y-17.010
G1 X6.010 Y-8.528
G1 X5.743 Y-8.528
G1 X-2.472 Y-16.729
G1 X-2.472 Y-16.484
G1 X5.484 Y-8.528
G1 X5.217 Y-8.528
G1 X-2.472 Y-16.204
G1 X-2.472 Y-15.959
G1 X4.959 Y-8.528
