; generated by Slic3r 1.2.9 on 2018-04-05 at 15:06:09

; external perimeters extrusion width = 0.20mm
; perimeters extrusion width = 0.21mm
; infill extrusion width = 0.21mm
; solid infill extrusion width = 0.21mm
; top infill extrusion width = 0.21mm

M107
M104 S200 ; set temperature

M109 S200 ; wait for temperature to be reached
G21 ; set units to millimeters
G90 ; use absolute coordinates
G1 Z0.200 F7800.000
G1 X42.417 Y51.274 F7800.000
G1 X42.226 Y51.083 F3600.000
G1 X41.710 Y51.083
G1 X42.417 Y51.790
G1 X42.417 Y52.306
G1 X41.194 Y51.083
G1 X40.678 Y51.083
G1 X42.417 Y52.822
G1 X42.417 Y53.338
G1 X40.162 Y51.083
G1 X39.646 Y51.083
G1 X42.417 Y53.854
G1 X42.417 Y54.370
G1 X39.130 Y51.083
G1 X38.615 Y51.083
G1 X42.417 Y54.885
G1 X42.417 Y55.401
G1 X38.099 Y51.083
G1 X37.603 Y51.103
G1 X42.397 Y55.897
G1 X41.901 Y55.917
G1 X37.583 Y51.599
G1 X37.583 Y52.115
G1 X41.385 Y55.917
G1 X40.870 Y55.917
G1 X37.583 Y52.630
G1 X37.583 Y53.146
G1 X40.354 Y55.917
G1 X39.838 Y55.917
G1 X37.583 Y53.662
G1 X37.583 Y54.178
G1 X39.322 Y55.917
G1 X38.806 Y55.917
G1 X37.583 Y54.694
G1 X37.583 Y55.210
G1 X38.290 Y55.917
G1 X37.774 Y55.917
G1 X37.583 Y55.726
G1 X-37.528 Y50.105 F7800.000
G1 X-49.972 Y37.661 F3600.000
G1 X-49.972 Y37.926
G1 X-37.528 Y50.363
G1 X-37.528 Y50.630
G1 X-49.972 Y38.186
G1 X-49.972 Y38.451
G1 X-42.445 Y45.973
G1 X-42.472 Y45.946 F7800.000
G1 X-37.528 Y50.888 F3600.000
G1 X-37.528 Y51.155
G1 X-42.472 Y46.211
G1 X-42.472 Y46.471
G1 X-37.528 Y51.413
G1 X-37.528 Y51.680
G1 X-42.472 Y46.736
G1 X-42.472 Y46.996
G1 X-37.528 Y51.938
G1 X-37.528 Y52.205
G1 X-42.472 Y47.261
G1 X-42.472 Y47.521
G1 X-37.528 Y52.462
G1 X-37.528 Y52.730
G1 X-42.472 Y47.786
G1 X-42.472 Y48.046
G1 X-37.528 Y52.987
G1 X-37.528 Y53.255
G1 X-42.472 Y48.311
G1 X-42.472 Y48.571
G1 X-37.528 Y53.512
G1 X-37.528 Y53.780
G1 X-42.472 Y48.836
G1 X-42.472 Y49.096
G1 X-37.528 Y54.037
G1 X-37.528 Y54.305
G1 X-42.472 Y49.362
G1 X-42.472 Y49.621
G1 X-37.528 Y54.562
G1 X-37.528 Y54.830
G1 X-42.472 Y49.887
G1 X-42.472 Y50.146
G1 X-37.528 Y55.087
G1 X-37.528 Y55.356
G1 X-42.472 Y50.412
G1 X-42.472 Y50.671
G1 X-37.528 Y55.612
G1 X-37.528 Y55.881
G1 X-42.472 Y50.937
G1 X-42.472 Y51.196
G1 X-37.693 Y55.972
G1 X-37.962 Y55.972
G1 X-42.472 Y51.462
G1 X-42.472 Y51.721
G1 X-38.218 Y55.972
G1 X-38.487 Y55.972
G1 X-42.472 Y51.987
G1 X-42.472 Y52.246
G1 X-38.744 Y55.972
G1 X-39.012 Y55.972
G1 X-42.472 Y52.512
G1 X-42.472 Y52.771
G1 X-39.269 Y55.972
G1 X-39.537 Y55.972
G1 X-42.472 Y53.037
G1 X-42.472 Y53.296
G1 X-39.794 Y55.972
G1 X-40.062 Y55.972
G1 X-42.472 Y53.562
G1 X-42.472 Y53.821
G1 X-40.319 Y55.972
G1 X-40.587 Y55.972
G1 X-42.472 Y54.087
G1 X-42.472 Y54.345
G1 X-40.845 Y55.972
G1 X-41.112 Y55.972
G1 X-42.472 Y54.612
G1 X-42.472 Y54.870
G1 X-41.370 Y55.972
G1 X-41.637 Y55.972
G1 X-42.472 Y55.137
G1 X-42.472 Y55.395
G1 X-41.895 Y55.972
G1 X-42.163 Y55.972
G1 X-42.472 Y55.663
G1 X-42.729 Y45.954 F7800.000
G1 X-49.954 Y38.729 F3600.000
G1 X-49.936 Y39.012
G1 X-43.007 Y45.936
G1 X-43.290 Y45.918
G1 X-49.918 Y39.290
G1 X-49.876 Y39.596
G1 X-43.592 Y45.877
G1 X-43.922 Y45.811
G1 X-49.811 Y39.922
G1 X-49.746 Y40.251
G1 X-44.248 Y45.747
G1 X-44.617 Y45.641
G1 X-49.641 Y40.617
G1 X-49.505 Y41.017 F7800.000
G1 X-45.013 Y45.507 F3600.000
G1 X-45.443 Y45.340 F7800.000
G1 X-49.340 Y41.443 F3600.000
G1 X-49.084 Y41.963 F7800.000
G1 X-45.959 Y45.086 F3600.000
G1 X-46.635 Y44.673 F7800.000
G1 X-48.673 Y42.635 F3600.000
G1 X-46.640 Y40.731 F7800.000
G1 X-49.972 Y37.401 F3600.000
G1 X-49.972 Y37.136
G1 X-47.075 Y40.033
G1 X-47.330 Y39.517 F7800.000
G1 X-49.972 Y36.876 F3600.000
G1 X-49.972 Y36.611
G1 X-47.515 Y39.067
G1 X-47.650 Y38.672 F7800.000
G1 X-49.972 Y36.351 F3600.000
G1 X-49.972 Y36.086
G1 X-47.774 Y38.284
G1 X-47.839 Y37.958
G1 X-49.972 Y35.826
G1 X-49.972 Y35.561
G1 X-47.904 Y37.628
G1 X-47.964 Y37.308
G1 X-49.972 Y35.301
G1 X-49.972 Y35.036
G1 X-47.982 Y37.025
G1 X-48.001 Y36.746
G1 X-49.972 Y34.776
G1 X-49.972 Y34.510
G1 X-48.019 Y36.463
G1 X-48.028 Y36.194
G1 X-49.972 Y34.251
G1 X-49.972 Y33.985
G1 X-48.028 Y35.929
G1 X-48.028 Y35.669
G1 X-49.972 Y33.726
G1 X-49.972 Y33.460
G1 X-48.028 Y35.404
G1 X-48.028 Y35.144
G1 X-49.972 Y33.201
G1 X-49.972 Y32.935
G1 X-48.028 Y34.879
G1 X-48.028 Y34.619
G1 X-49.972 Y32.676
G1 X-49.972 Y32.410
G1 X-48.028 Y34.354
G1 X-48.028 Y34.094
G1 X-49.972 Y32.151
G1 X-49.972 Y31.885
G1 X-48.028 Y33.829
G1 X-48.028 Y33.569
G1 X-49.972 Y31.626
G1 X-49.972 Y31.360
G1 X-48.028 Y33.304
G1 X-48.028 Y33.044
G1 X-49.972 Y31.101
G1 X-49.972 Y30.835
G1 X-48.028 Y32.779
G1 X-48.028 Y32.519
G1 X-49.972 Y30.577
G1 X-49.972 Y30.310
G1 X-48.028 Y32.254
G1 X-48.028 Y31.994
G1 X-49.972 Y30.052
G1 X-49.972 Y29.785
G1 X-48.028 Y31.729
G1 X-48.028 Y31.470
G1 X-49.972 Y29.527
G1 X-49.972 Y29.260
G1 X-48.028 Y31.203
G1 X-48.028 Y30.945
G1 X-49.972 Y29.002
G1 X-49.972 Y28.735
G1 X-48.028 Y30.678
G1 X-48.028 Y30.420
G1 X-49.972 Y28.477
G1 X-49.972 Y28.209
G1 X-48.028 Y30.153
G1 X-48.028 Y29.895
G1 X-49.972 Y27.952
G1 X-49.972 Y27.684
G1 X-48.028 Y29.628
G1 X-48.028 Y29.370
G1 X-49.972 Y27.427
G1 X-49.972 Y27.159
G1 X-48.028 Y29.103
G1 X-48.028 Y28.845
G1 X-49.972 Y26.902
G1 X-49.972 Y26.634
G1 X-48.028 Y28.578
G1 X-48.028 Y28.320
G1 X-49.972 Y26.377
G1 X-49.972 Y26.109
G1 X-48.028 Y28.053
G1 X-48.028 Y27.795
G1 X-49.972 Y25.852
G1 X-49.972 Y25.584
G1 X-48.028 Y27.528
G1 X-48.028 Y27.270
G1 X-49.972 Y25.327
G1 X-49.972 Y25.059
G1 X-48.028 Y27.003
G1 X-48.028 Y26.745
G1 X-49.972 Y24.802
G1 X-49.972 Y24.534
G1 X-48.028 Y26.478
G1 X-48.028 Y26.220
G1 X-49.972 Y24.277
G1 X-49.972 Y24.009
G1 X-48.028 Y25.953
G1 X-48.028 Y25.695
G1 X-49.972 Y23.752
G1 X-49.972 Y23.484
G1 X-48.028 Y25.428
G1 X-48.028 Y25.170
G1 X-49.972 Y23.227
G1 X-49.972 Y22.959
G1 X-48.028 Y24.902
G1 X-48.028 Y24.645
G1 X-49.972 Y22.703
G1 X-49.972 Y22.434
G1 X-48.028 Y24.377
G1 X-48.028 Y24.120
G1 X-49.972 Y22.178
G1 X-49.972 Y21.908
G1 X-48.028 Y23.852
G1 X-48.028 Y23.595
G1 X-49.972 Y21.653
G1 X-49.972 Y21.383
G1 X-48.028 Y23.327
G1 X-48.028 Y23.071
G1 X-49.972 Y21.128
G1 X-49.972 Y20.858
G1 X-48.028 Y22.802
G1 X-48.028 Y22.546
G1 X-49.972 Y20.603
G1 X-49.972 Y20.333
G1 X-48.028 Y22.277
G1 X-48.028 Y22.021
G1 X-49.972 Y20.078
G1 X-49.972 Y19.808
G1 X-48.028 Y21.752
G1 X-48.028 Y21.496
G1 X-49.972 Y19.553
G1 X-49.972 Y19.283
G1 X-48.028 Y21.227
G1 X-48.028 Y20.971
G1 X-49.972 Y19.028
G1 X-49.972 Y18.758
G1 X-48.028 Y20.702
G1 X-48.028 Y20.446
G1 X-49.972 Y18.503
G1 X-49.972 Y18.233
G1 X-48.028 Y20.177
G1 X-48.028 Y19.921
G1 X-49.972 Y17.978
G1 X-49.972 Y17.708
G1 X-48.028 Y19.652
G1 X-48.028 Y19.396
G1 X-49.972 Y17.453
G1 X-49.972 Y17.183
G1 X-48.028 Y19.127
G1 X-48.028 Y18.871
G1 X-49.972 Y16.928
G1 X-49.972 Y16.658
G1 X-48.028 Y18.602
G1 X-48.028 Y18.346
G1 X-49.972 Y16.403
G1 X-49.972 Y16.133
G1 X-48.028 Y18.076
G1 X-48.028 Y17.821
G1 X-49.972 Y15.878
G1 X-49.972 Y15.608
G1 X-48.028 Y17.551
G1 X-48.028 Y17.296
G1 X-49.972 Y15.353
G1 X-49.972 Y15.082
G1 X-48.028 Y17.026
G1 X-48.028 Y16.771
G1 X-49.972 Y14.828
G1 X-49.972 Y14.557
G1 X-48.028 Y16.501
G1 X-48.028 Y16.246
G1 X-49.972 Y14.304
G1 X-49.972 Y14.032
G1 X-48.028 Y15.976
G1 X-48.028 Y15.721
G1 X-49.972 Y13.779
G1 X-49.972 Y13.507
G1 X-48.028 Y15.451
G1 X-48.028 Y15.196
G1 X-49.972 Y13.254
G1 X-49.972 Y12.982
G1 X-48.028 Y14.926
G1 X-48.028 Y14.672
G1 X-49.972 Y12.729
G1 X-49.972 Y12.457
G1 X-48.028 Y14.401
G1 X-48.028 Y14.147
G1 X-49.972 Y12.204
G1 X-49.972 Y11.932
G1 X-48.028 Y13.876
G1 X-48.028 Y13.622
G1 X-49.972 Y11.679
G1 X-49.972 Y11.407
G1 X-48.028 Y13.351
G1 X-48.028 Y13.097
G1 X-49.972 Y11.154
G1 X-49.972 Y10.882
G1 X-48.028 Y12.826
G1 X-48.028 Y12.572
G1 X-49.972 Y10.629
G1 X-49.972 Y10.357
G1 X-48.028 Y12.301
G1 X-48.028 Y12.047
G1 X-49.972 Y10.104
G1 X-49.972 Y9.832
G1 X-48.028 Y11.775
G1 X-48.028 Y11.522
G1 X-49.972 Y9.579
G1 X-49.972 Y9.307
G1 X-48.028 Y11.250
G1 X-48.028 Y10.997
G1 X-49.972 Y9.054
G1 X-49.972 Y8.781
G1 X-48.028 Y10.725
G1 X-48.028 Y10.472
G1 X-49.972 Y8.529
G1 X-49.972 Y8.256
G1 X-48.028 Y10.200
G1 X-48.028 Y9.947
G1 X-49.972 Y8.004
G1 X-49.972 Y7.731
G1 X-48.028 Y9.675
G1 X-48.028 Y9.422
G1 X-49.972 Y7.479
G1 X-49.972 Y7.206
G1 X-48.028 Y9.150
G1 X-48.028 Y8.897
G1 X-49.972 Y6.954
G1 X-49.972 Y6.681
G1 X-48.028 Y8.625
G1 X-48.028 Y8.372
G1 X-49.972 Y6.429
G1 X-49.972 Y6.156
G1 X-48.028 Y8.100
G1 X-48.028 Y7.847
G1 X-49.972 Y5.905
G1 X-49.972 Y5.631
G1 X-48.028 Y7.575
G1 X-48.028 Y7.322
G1 X-49.972 Y5.380
G1 X-49.972 Y5.106
G1 X-48.028 Y7.050
G1 X-48.028 Y6.797
G1 X-49.972 Y4.855
G1 X-49.972 Y4.581
G1 X-48.028 Y6.525
G1 X-48.028 Y6.273
G1 X-49.972 Y4.330
G1 X-49.972 Y4.056
G1 X-48.028 Y6.000
G1 X-48.028 Y5.748
G1 X-49.972 Y3.805
G1 X-49.972 Y3.531
G1 X-48.028 Y5.475
G1 X-48.028 Y5.223
G1 X-49.972 Y3.280
G1 X-49.972 Y3.006
G1 X-48.028 Y4.949
G1 X-48.028 Y4.698
G1 X-49.972 Y2.755
G1 X-49.972 Y2.481
G1 X-48.028 Y4.424
G1 X-48.028 Y4.173
G1 X-49.972 Y2.230
G1 X-49.972 Y1.955
G1 X-48.028 Y3.899
G1 X-48.028 Y3.648
G1 X-49.972 Y1.705
G1 X-49.972 Y1.430
G1 X-48.028 Y3.374
G1 X-48.028 Y3.123
G1 X-49.972 Y1.180
G1 X-49.972 Y0.905
G1 X-48.028 Y2.849
G1 X-48.028 Y2.598
G1 X-49.972 Y0.655
G1 X-49.972 Y0.380
G1 X-48.028 Y2.324
G1 X-48.028 Y2.073
G1 X-49.972 Y0.130
G1 X-49.972 Y-0.145
G1 X-48.028 Y1.799
G1 X-48.028 Y1.548
G1 X-49.972 Y-0.395
G1 X-49.972 Y-0.670
G1 X-48.028 Y1.274
G1 X-48.028 Y1.023
G1 X-49.972 Y-0.920
G1 X-49.972 Y-1.195
G1 X-48.028 Y0.749
G1 X-48.028 Y0.498
G1 X-49.972 Y-1.445
G1 X-49.972 Y-1.720
G1 X-48.028 Y0.224
G1 X-48.028 Y-0.027
G1 X-49.972 Y-1.970
G1 X-49.972 Y-2.245
G1 X-48.028 Y-0.301
G1 X-48.028 Y-0.552
G1 X-49.972 Y-2.494
G1 X-49.972 Y-2.770
G1 X-48.028 Y-0.826
G1 X-48.028 Y-1.077
G1 X-49.972 Y-3.019
G1 X-49.972 Y-3.295
G1 X-48.028 Y-1.352
G1 X-48.028 Y-1.601
G1 X-49.972 Y-3.544
G1 X-49.972 Y-3.820
G1 X-48.028 Y-1.877
G1 X-48.028 Y-2.126
G1 X-49.972 Y-4.069
G1 X-49.972 Y-4.346
G1 X-48.028 Y-2.402
G1 X-48.028 Y-2.651
G1 X-49.972 Y-4.594
G1 X-49.972 Y-4.871
G1 X-48.028 Y-2.927
G1 X-48.028 Y-3.176
G1 X-49.972 Y-5.119
G1 X-49.972 Y-5.396
G1 X-48.028 Y-3.452
G1 X-48.028 Y-3.701
G1 X-49.972 Y-5.644
G1 X-49.972 Y-5.921
G1 X-48.028 Y-3.977
G1 X-48.028 Y-4.226
G1 X-49.972 Y-6.169
G1 X-49.972 Y-6.446
G1 X-48.028 Y-4.502
G1 X-48.028 Y-4.751
G1 X-49.972 Y-6.694
G1 X-49.972 Y-6.971
G1 X-48.028 Y-5.027
G1 X-48.028 Y-5.276
G1 X-49.972 Y-7.219
G1 X-49.972 Y-7.496
G1 X-48.028 Y-5.552
G1 X-48.028 Y-5.801
G1 X-49.972 Y-7.744
G1 X-49.972 Y-8.021
G1 X-48.028 Y-6.077
G1 X-48.028 Y-6.326
G1 X-49.972 Y-8.269
G1 X-49.972 Y-8.546
G1 X-48.028 Y-6.602
G1 X-48.028 Y-6.851
G1 X-49.972 Y-8.794
G1 X-49.972 Y-9.071
G1 X-48.028 Y-7.127
G1 X-48.028 Y-7.376
G1 X-49.972 Y-9.319
G1 X-49.972 Y-9.596
G1 X-48.028 Y-7.653
G1 X-48.028 Y-7.901
G1 X-49.972 Y-9.844
G1 X-49.972 Y-10.121
G1 X-48.028 Y-8.178
G1 X-48.028 Y-8.426
G1 X-49.972 Y-10.368
G1 X-49.972 Y-10.647
G1 X-48.028 Y-8.703
G1 X-48.028 Y-8.951
G1 X-49.972 Y-10.893
G1 X-49.972 Y-11.172
G1 X-48.028 Y-9.228
G1 X-48.028 Y-9.476
G1 X-49.972 Y-11.418
G1 X-49.972 Y-11.697
G1 X-48.028 Y-9.753
G1 X-48.028 Y-10.000
G1 X-49.972 Y-11.943
G1 X-49.972 Y-12.222
G1 X-48.028 Y-10.278
G1 X-48.028 Y-10.525
G1 X-49.972 Y-12.468
G1 X-49.972 Y-12.747
G1 X-48.028 Y-10.803
G1 X-48.028 Y-11.050
G1 X-49.972 Y-12.993
G1 X-49.972 Y-13.272
G1 X-48.028 Y-11.328
G1 X-48.028 Y-11.575
G1 X-49.972 Y-13.518
G1 X-49.972 Y-13.797
G1 X-48.028 Y-11.853
G1 X-48.028 Y-12.100
G1 X-49.972 Y-14.043
G1 X-49.972 Y-14.322
G1 X-48.028 Y-12.378
G1 X-48.028 Y-12.625
G1 X-49.972 Y-14.568
G1 X-49.972 Y-14.847
G1 X-48.028 Y-12.903
G1 X-48.028 Y-13.150
G1 X-49.972 Y-15.093
G1 X-49.972 Y-15.372
G1 X-48.028 Y-13.428
G1 X-48.028 Y-13.675
G1 X-49.972 Y-15.618
G1 X-49.972 Y-15.897
G1 X-48.028 Y-13.953
G1 X-48.028 Y-14.200
G1 X-49.972 Y-16.143
G1 X-49.972 Y-16.422
G1 X-48.028 Y-14.479
G1 X-48.028 Y-14.725
G1 X-49.972 Y-16.668
G1 X-49.972 Y-16.947
G1 X-48.028 Y-15.004
G1 X-48.028 Y-15.250
G1 X-49.972 Y-17.193
G1 X-49.972 Y-17.473
G1 X-48.028 Y-15.529
G1 X-48.028 Y-15.775
G1 X-49.972 Y-17.718
G1 X-49.972 Y-17.998
G1 X-48.028 Y-16.054
G1 X-48.028 Y-16.300
G1 X-49.972 Y-18.243
G1 X-49.972 Y-18.523
G1 X-48.028 Y-16.579
G1 X-48.028 Y-16.825
G1 X-49.972 Y-18.767
G1 X-49.972 Y-19.048
G1 X-48.028 Y-17.104
G1 X-48.028 Y-17.350
G1 X-49.972 Y-19.292
G1 X-49.972 Y-19.573
G1 X-48.028 Y-17.629
G1 X-48.028 Y-17.875
G1 X-49.972 Y-19.817
G1 X-49.972 Y-20.098
G1 X-48.028 Y-18.154
G1 X-48.028 Y-18.399
G1 X-49.972 Y-20.342
G1 X-49.972 Y-20.623
G1 X-48.028 Y-18.679
G1 X-48.028 Y-18.924
G1 X-49.972 Y-20.867
G1 X-49.972 Y-21.148
G1 X-48.028 Y-19.204
G1 X-48.028 Y-19.449
G1 X-49.972 Y-21.392
G1 X-49.972 Y-21.673
G1 X-48.028 Y-19.729
G1 X-48.028 Y-19.974
G1 X-49.972 Y-21.917
G1 X-49.972 Y-22.198
G1 X-48.028 Y-20.254
G1 X-48.028 Y-20.499
G1 X-49.972 Y-22.442
G1 X-49.972 Y-22.723
G1 X-48.028 Y-20.780
G1 X-48.028 Y-21.024
G1 X-49.972 Y-22.967
G1 X-49.972 Y-23.248
G1 X-48.028 Y-21.305
G1 X-48.028 Y-21.549
G1 X-49.972 Y-23.492
G1 X-49.972 Y-23.774
G1 X-48.028 Y-21.830
G1 X-48.028 Y-22.074
G1 X-49.972 Y-24.017
G1 X-49.972 Y-24.299
G1 X-48.028 Y-22.355
G1 X-48.028 Y-22.599
G1 X-49.972 Y-24.542
G1 X-49.972 Y-24.824
G1 X-48.028 Y-22.880
G1 X-48.028 Y-23.124
G1 X-49.972 Y-25.067
G1 X-49.972 Y-25.349
G1 X-48.028 Y-23.405
G1 X-48.028 Y-23.649
G1 X-49.972 Y-25.592
G1 X-49.972 Y-25.874
G1 X-48.028 Y-23.930
G1 X-48.028 Y-24.174
G1 X-49.972 Y-26.117
G1 X-49.972 Y-26.399
G1 X-48.028 Y-24.455
G1 X-48.028 Y-24.699
G1 X-49.972 Y-26.642
G1 X-49.972 Y-26.924
G1 X-48.028 Y-24.980
G1 X-48.028 Y-25.224
G1 X-49.972 Y-27.166
G1 X-49.972 Y-27.449
G1 X-48.028 Y-25.505
G1 X-48.028 Y-25.749
G1 X-49.972 Y-27.691
G1 X-49.972 Y-27.974
G1 X-48.028 Y-26.030
G1 X-48.028 Y-26.274
G1 X-49.972 Y-28.216
G1 X-49.972 Y-28.499
G1 X-48.028 Y-26.555
G1 X-48.028 Y-26.798
G1 X-49.972 Y-28.741
G1 X-49.972 Y-29.024
G1 X-48.028 Y-27.080
G1 X-48.028 Y-27.323
G1 X-49.972 Y-29.266
G1 X-49.972 Y-29.549
G1 X-48.028 Y-27.606
G1 X-48.028 Y-27.848
G1 X-49.972 Y-29.791
G1 X-49.972 Y-30.074
G1 X-48.028 Y-28.131
G1 X-48.028 Y-28.373
G1 X-49.972 Y-30.316
G1 X-49.972 Y-30.600
G1 X-48.028 Y-28.656
G1 X-48.028 Y-28.898
G1 X-49.972 Y-30.841
G1 X-49.972 Y-31.125
G1 X-48.028 Y-29.181
G1 X-48.028 Y-29.423
G1 X-49.972 Y-31.366
G1 X-49.972 Y-31.650
G1 X-48.028 Y-29.706
G1 X-48.028 Y-29.948
G1 X-49.972 Y-31.891
G1 X-49.972 Y-32.175
G1 X-48.028 Y-30.231
G1 X-48.028 Y-30.473
G1 X-49.972 Y-32.416
G1 X-49.972 Y-32.700
G1 X-48.028 Y-30.756
G1 X-48.028 Y-30.998
G1 X-49.972 Y-32.941
G1 X-49.972 Y-33.225
G1 X-48.028 Y-31.281
G1 X-48.028 Y-31.523
G1 X-49.972 Y-33.466
G1 X-49.972 Y-33.750
G1 X-48.028 Y-31.806
G1 X-48.028 Y-32.048
G1 X-49.972 Y-33.991
G1 X-49.972 Y-34.275
G1 X-48.028 Y-32.331
G1 X-48.028 Y-32.573
G1 X-49.972 Y-34.516
G1 X-49.972 Y-34.800
G1 X-48.028 Y-32.856
G1 X-48.028 Y-33.098
G1 X-49.972 Y-35.041
G1 X-49.972 Y-35.325
G1 X-48.028 Y-33.381
G1 X-48.028 Y-33.623
G1 X-49.972 Y-35.565
G1 X-49.972 Y-35.850
G1 X-48.028 Y-33.907
G1 X-48.028 Y-34.148
G1 X-49.972 Y-36.090
G1 X-49.972 Y-36.375
G1 X-48.028 Y-34.432
G1 X-48.028 Y-34.672
G1 X-49.972 Y-36.615
G1 X-49.972 Y-36.901
G1 X-48.028 Y-34.957
G1 X-48.028 Y-35.197
G1 X-49.972 Y-37.140
G1 X-49.972 Y-37.426
G1 X-48.028 Y-35.482
G1 X-48.028 Y-35.722
G1 X-49.972 Y-37.665
G1 X-49.972 Y-37.951
G1 X-48.028 Y-36.007
G1 X-48.028 Y-36.247
G1 X-49.972 Y-38.190
G1 X-49.972 Y-38.476
G1 X-48.028 Y-36.532
G1 X-48.028 Y-36.772
G1 X-49.972 Y-38.715
