; generated by Slic3r 1.2.9 on 2018-02-27 at 14:43:07

; external perimeters extrusion width = 0.20mm
; perimeters extrusion width = 0.21mm
; infill extrusion width = 0.21mm
; solid infill extrusion width = 0.21mm
; top infill extrusion width = 0.21mm

M107
M104 S200 ; set temperature

M109 S200 ; wait for temperature to be reached
G21 ; set units to millimeters
G90 ; use absolute coordinates
G1 Z0.200 F7800.000
G1 X-2.028 Y4.364 F7800.000
G1 X-4.972 Y1.428 F3600.000
G1 X-4.972 Y1.161
G1 X-2.028 Y4.105
G1 X-2.028 Y3.839
G1 X-4.972 Y0.903
G1 X-4.972 Y0.636
G1 X-2.028 Y3.580
G1 X-2.028 Y3.315
G1 X-4.972 Y0.379
G1 X-4.972 Y0.111
G1 X-2.028 Y3.055
G1 X-2.028 Y2.791
G1 X-4.972 Y-0.146
G1 X-4.972 Y-0.414
G1 X-2.028 Y2.530
G1 X-2.028 Y2.266
G1 X-4.972 Y-0.670
G1 X-4.972 Y-0.939
G1 X-2.028 Y2.005
G1 X-2.028 Y1.742
G1 X-4.972 Y-1.194
G1 X-4.972 Y-1.464
G1 X-2.028 Y1.479
G1 X-2.028 Y1.218
G1 X-4.972 Y-1.719
G1 X-4.972 Y-1.989
G1 X-2.028 Y0.954
G1 X-2.028 Y0.693
G1 X-4.972 Y-2.243
G1 X-4.972 Y-2.514
G1 X-2.028 Y0.429
G1 X-2.028 Y0.169
G1 X-4.972 Y-2.768
G1 X-4.972 Y-3.040
G1 X-2.028 Y-0.096
G1 X-2.028 Y-0.356
G1 X-4.972 Y-3.292
G1 X-4.972 Y-3.565
G1 X-2.028 Y-0.621
G1 X-2.028 Y-0.880
G1 X-4.972 Y-3.816
G1 X-4.972 Y-4.090
G1 X-2.028 Y-1.146
G1 X-2.028 Y-1.404
G1 X-4.972 Y-4.341
G1 X-4.972 Y-4.615
G1 X-2.028 Y-1.671
G1 X-2.028 Y-1.929
G1 X-4.972 Y-4.865
G1 X-4.972 Y-5.140
G1 X-2.028 Y-2.196
G1 X-2.028 Y-2.453
G1 X-4.972 Y-5.389
G1 X-4.972 Y-5.665
G1 X-2.028 Y-2.721
G1 X-2.028 Y-2.978
G1 X-4.972 Y-5.914
G1 X-4.972 Y-6.190
G1 X-2.028 Y-3.246
G1 X-2.028 Y-3.502
G1 X-4.972 Y-6.438
G1 X-4.972 Y-6.715
G1 X-2.028 Y-3.771
G1 X-2.028 Y-4.026
G1 X-4.972 Y-6.963
G1 X-4.972 Y-7.240
G1 X-2.028 Y-4.296
G1 X-2.028 Y-4.551
G1 X-4.972 Y-7.487
G1 X-4.972 Y-7.765
G1 X-2.028 Y-4.821
G1 X-2.028 Y-5.075
G1 X-4.972 Y-8.011
G1 X-4.972 Y-8.290
G1 X-2.028 Y-5.347
G1 X-2.028 Y-5.600
G1 X-4.972 Y-8.536
G1 X-4.972 Y-8.815
G1 X-2.028 Y-5.872
G1 X-2.028 Y-6.124
G1 X-4.972 Y-9.060
G1 X-4.972 Y-9.341
G1 X-2.028 Y-6.397
G1 X-2.028 Y-6.648
G1 X-4.972 Y-9.585
G1 X-4.972 Y-9.866
G1 X-2.028 Y-6.922
G1 X-2.028 Y-7.173
G1 X-4.972 Y-10.109
G1 X-4.972 Y-10.391
G1 X-2.028 Y-7.447
G1 X-2.028 Y-7.697
G1 X-4.972 Y-10.633
G1 X-4.972 Y-10.916
G1 X-2.028 Y-7.972
G1 X-2.028 Y-8.221
G1 X-4.972 Y-11.158
G1 X-4.972 Y-11.441
G1 X-2.028 Y-8.497
G1 X-2.028 Y-8.746
G1 X-4.972 Y-11.682
G1 X-4.972 Y-11.966
G1 X-2.028 Y-9.022
G1 X-2.028 Y-9.270
G1 X-4.972 Y-12.206
G1 X-4.972 Y-12.491
G1 X-2.028 Y-9.547
G1 X-2.028 Y-9.795
G1 X-4.972 Y-12.731
G1 X-4.972 Y-13.016
G1 X-2.028 Y-10.072
G1 X-2.028 Y-10.319
G1 X-4.972 Y-13.255
G1 X-4.972 Y-13.541
G1 X-2.028 Y-10.597
G1 X-2.028 Y-10.843
G1 X-4.972 Y-13.780
G1 X-4.972 Y-14.066
G1 X-2.028 Y-11.122
G1 X-2.028 Y-11.368
G1 X-4.972 Y-14.304
G1 X-4.972 Y-14.591
G1 X-2.028 Y-11.648
G1 X-2.028 Y-11.892
G1 X-4.972 Y-14.828
G1 X-4.972 Y-15.116
G1 X-2.028 Y-12.173
G1 X-2.028 Y-12.417
G1 X-4.972 Y-15.353
G1 X-4.802 Y-15.472
G1 X-2.028 Y-12.698
G1 X-2.028 Y-12.941
G1 X-4.566 Y-15.472
G1 X-4.277 Y-15.472
G1 X-2.028 Y-13.223
G1 X-2.028 Y-13.465
G1 X-4.040 Y-15.472
G1 X-3.752 Y-15.472
G1 X-2.028 Y-13.748
G1 X-2.028 Y-13.990
G1 X-3.514 Y-15.472
G1 X-3.227 Y-15.472
G1 X-2.028 Y-14.273
G1 X-2.028 Y-14.514
G1 X-2.988 Y-15.472
G1 X-2.702 Y-15.472
G1 X-2.028 Y-14.798
G1 X-2.028 Y-15.039
G1 X-2.462 Y-15.472
G1 X-2.177 Y-15.472
G1 X-2.028 Y-15.323
G1 X-1.863 Y4.528 F7800.000
G1 X4.972 Y11.345 F3600.000
G1 X4.972 Y11.105
G1 X-1.605 Y4.528
G1 X-1.337 Y4.528
G1 X4.972 Y10.821
G1 X4.972 Y10.580
G1 X-1.080 Y4.528
G1 X-0.812 Y4.528
G1 X4.972 Y10.297
G1 X4.972 Y10.055
G1 X-0.555 Y4.528
G1 X-0.286 Y4.528
G1 X4.972 Y9.772
G1 X4.972 Y9.530
G1 X-0.030 Y4.528
G1 X0.240 Y4.528
G1 X4.972 Y9.248
G1 X4.972 Y9.005
G1 X0.495 Y4.528
G1 X0.766 Y4.528
G1 X4.972 Y8.723
G1 X4.972 Y8.479
G1 X1.021 Y4.528
G1 X1.291 Y4.528
G1 X4.972 Y8.199
G1 X4.972 Y7.954
G1 X1.546 Y4.528
G1 X1.817 Y4.528
G1 X4.972 Y7.675
G1 X4.972 Y7.429
G1 X2.071 Y4.528
G1 X2.343 Y4.528
G1 X4.972 Y7.150
G1 X4.972 Y6.904
G1 X2.596 Y4.528
G1 X2.869 Y4.528
G1 X4.972 Y6.626
G1 X4.972 Y6.379
G1 X3.121 Y4.528
G1 X3.395 Y4.528
G1 X4.972 Y6.102
G1 X4.972 Y5.854
G1 X3.646 Y4.528
G1 X3.920 Y4.528
G1 X4.972 Y5.577
G1 X4.972 Y5.329
G1 X4.171 Y4.528
G1 X4.446 Y4.528
G1 X4.972 Y5.053
G1 X4.972 Y4.804
G1 X4.696 Y4.528
G1 X4.972 Y11.630 F7800.000
G1 X-4.972 Y1.686 F3600.000
G1 X-4.972 Y1.952
G1 X4.972 Y11.870
G1 X4.972 Y12.155
G1 X-4.972 Y2.211
G1 X-4.972 Y2.476
G1 X4.972 Y12.394
G1 X4.972 Y12.680
G1 X-4.972 Y2.736
G1 X-4.972 Y3.001
G1 X4.972 Y12.919
G1 X4.972 Y13.205
G1 X-4.972 Y3.261
G1 X-4.972 Y3.525
G1 X4.972 Y13.443
G1 X4.972 Y13.730
G1 X-4.972 Y3.786
G1 X-4.972 Y4.050
G1 X4.972 Y13.967
G1 X4.972 Y14.255
G1 X-4.972 Y4.312
G1 X-4.972 Y4.574
G1 X4.952 Y14.472
G1 X4.663 Y14.472
G1 X-4.972 Y4.837
G1 X-4.972 Y5.098
G1 X4.426 Y14.472
G1 X4.138 Y14.472
G1 X-4.972 Y5.362
G1 X-4.972 Y5.623
G1 X3.901 Y14.472
G1 X3.613 Y14.472
G1 X-4.972 Y5.887
G1 X-4.972 Y6.147
G1 X3.375 Y14.472
G1 X3.088 Y14.472
G1 X-4.972 Y6.412
G1 X-4.972 Y6.671
G1 X2.849 Y14.472
G1 X2.563 Y14.472
G1 X-4.972 Y6.937
G1 X-4.972 Y7.196
G1 X2.323 Y14.472
G1 X2.038 Y14.472
G1 X-4.972 Y7.462
G1 X-4.972 Y7.720
G1 X1.797 Y14.472
G1 X1.513 Y14.472
G1 X-4.972 Y7.987
G1 X-4.972 Y8.245
G1 X1.272 Y14.472
G1 X0.988 Y14.472
G1 X-4.972 Y8.512
G1 X-4.972 Y8.769
G1 X0.746 Y14.472
G1 X0.463 Y14.472
G1 X-4.972 Y9.037
G1 X-4.972 Y9.293
G1 X0.220 Y14.472
G1 X-0.062 Y14.472
G1 X-4.972 Y9.562
G1 X-4.972 Y9.818
G1 X-0.306 Y14.472
G1 X-0.587 Y14.472
G1 X-4.972 Y10.087
G1 X-4.972 Y10.342
G1 X-0.831 Y14.472
G1 X-1.113 Y14.472
G1 X-4.972 Y10.613
G1 X-4.972 Y10.867
G1 X-1.357 Y14.472
G1 X-1.638 Y14.472
G1 X-4.972 Y11.138
G1 X-4.972 Y11.391
G1 X-1.883 Y14.472
G1 X-2.163 Y14.472
G1 X-4.972 Y11.663
G1 X-4.972 Y11.915
G1 X-2.409 Y14.472
G1 X-2.688 Y14.472
G1 X-4.972 Y12.188
G1 X-4.972 Y12.440
G1 X-2.935 Y14.472
G1 X-3.213 Y14.472
G1 X-4.972 Y12.713
G1 X-4.972 Y12.964
G1 X-3.460 Y14.472
G1 X-3.738 Y14.472
G1 X-4.972 Y13.238
G1 X-4.972 Y13.489
G1 X-3.986 Y14.472
G1 X-4.263 Y14.472
G1 X-4.972 Y13.763
G1 X-4.972 Y14.013
G1 X-4.512 Y14.472
G1 X-4.788 Y14.472
G1 X-4.972 Y14.288
G1 Z0.400 F7800.000
G1 X-5.972 Y3.788 F7800.000
G1 X-5.712 Y3.528 F3600.000
G1 X-5.460 Y3.528
G1 X-5.972 Y4.040
G1 X-5.972 Y4.314
G1 X-5.188 Y3.528
G1 X-4.935 Y3.528
G1 X-5.972 Y4.565
G1 X-5.972 Y4.840
G1 X-4.663 Y3.528
G1 X-4.410 Y3.528
G1 X-5.972 Y5.090
G1 X-5.972 Y5.366
G1 X-4.139 Y3.528
G1 X-3.885 Y3.528
G1 X-5.972 Y5.615
G1 X-5.972 Y5.891
G1 X-3.614 Y3.528
G1 X-3.360 Y3.528
G1 X-5.972 Y6.140
G1 X-5.972 Y6.417
G1 X-3.090 Y3.528
G1 X-2.835 Y3.528
G1 X-5.972 Y6.665
G1 X-5.972 Y6.943
G1 X-2.565 Y3.528
G1 X-2.310 Y3.528
G1 X-5.972 Y7.190
G1 X-5.972 Y7.469
G1 X-2.041 Y3.528
G1 X-1.785 Y3.528
G1 X-5.972 Y7.715
G1 X-5.972 Y7.994
G1 X-1.517 Y3.528
G1 X-1.260 Y3.528
G1 X-5.972 Y8.240
G1 X-5.972 Y8.520
G1 X-0.992 Y3.528
G1 X-0.735 Y3.528
G1 X-5.972 Y8.765
G1 X-5.972 Y9.046
G1 X-0.468 Y3.528
G1 X-0.210 Y3.528
G1 X-5.972 Y9.290
G1 X-5.972 Y9.572
G1 X0.057 Y3.528
G1 X0.315 Y3.528
G1 X-5.972 Y9.815
G1 X-5.972 Y10.097
G1 X0.581 Y3.528
G1 X0.841 Y3.528
G1 X-5.972 Y10.341
G1 X-5.972 Y10.623
G1 X1.105 Y3.528
G1 X1.366 Y3.528
G1 X-5.972 Y10.866
G1 X-5.972 Y11.149
G1 X1.630 Y3.528
G1 X1.891 Y3.528 F7800.000
G1 X-5.972 Y11.391 F3600.000
G1 X-5.972 Y11.675
G1 X4.972 Y0.703
G1 X4.972 Y0.972
G1 X-5.972 Y11.916
G1 X-5.972 Y12.200
G1 X4.972 Y1.229
G1 X4.972 Y1.497
G1 X-5.972 Y12.441
G1 X-5.972 Y12.726
G1 X4.972 Y1.755
G1 X4.972 Y2.022
G1 X-5.972 Y12.966
G1 X-5.972 Y13.252
G1 X4.972 Y2.281
G1 X4.972 Y2.547
G1 X-5.972 Y13.491
G1 X-5.972 Y13.778
G1 X4.972 Y2.806
G1 X4.972 Y3.072
G1 X-5.972 Y14.016
G1 X-5.972 Y14.303
G1 X4.972 Y3.332
G1 X5.041 Y3.528 F7800.000
G1 X-5.972 Y14.541 F3600.000
G1 X-5.972 Y14.829
G1 X5.301 Y3.528
G1 X5.566 Y3.528
G1 X-5.972 Y15.066
G1 X-5.972 Y15.355
G1 X5.825 Y3.528
G1 X5.972 Y3.648
G1 X-5.852 Y15.472
G1 X-5.564 Y15.472
G1 X5.972 Y3.907
G1 X5.972 Y4.173
G1 X-5.327 Y15.472
G1 X-5.040 Y15.472
G1 X5.972 Y4.433
G1 X5.972 Y4.698
G1 X-4.802 Y15.472
G1 X-4.516 Y15.472
G1 X5.972 Y4.958
G1 X5.972 Y5.223
G1 X-4.277 Y15.472
G1 X-3.991 Y15.472
G1 X5.972 Y5.484
G1 X5.972 Y5.748
G1 X-3.752 Y15.472
G1 X-3.467 Y15.472
G1 X5.972 Y6.010
G1 X5.972 Y6.273
G1 X-3.227 Y15.472
G1 X-2.942 Y15.472
G1 X5.972 Y6.536
G1 X5.972 Y6.798
G1 X-2.702 Y15.472
G1 X-2.418 Y15.472
G1 X5.972 Y7.061
G1 X5.972 Y7.323
G1 X-2.177 Y15.472
G1 X-1.893 Y15.472
G1 X5.972 Y7.587
G1 X5.972 Y7.848
G1 X-1.652 Y15.472
G1 X-1.369 Y15.472
G1 X5.972 Y8.113
G1 X5.972 Y8.373
G1 X-1.127 Y15.472
G1 X-0.845 Y15.472
G1 X5.972 Y8.638
G1 X5.972 Y8.898
G1 X-0.602 Y15.472
G1 X-0.320 Y15.472
G1 X5.972 Y9.164
G1 X5.972 Y9.423
G1 X-0.077 Y15.472
G1 X0.204 Y15.472
G1 X5.972 Y9.690
G1 X5.972 Y9.948
G1 X0.448 Y15.472
G1 X0.729 Y15.472
G1 X5.972 Y10.216
G1 X5.972 Y10.474
G1 X0.974 Y15.472
G1 X1.253 Y15.472
G1 X5.972 Y10.741
G1 X5.972 Y10.999
G1 X1.499 Y15.472
G1 X1.778 Y15.472
G1 X5.972 Y11.267
G1 X5.972 Y11.524
G1 X2.024 Y15.472
G1 X2.302 Y15.472
G1 X5.972 Y11.793
G1 X5.972 Y12.049
G1 X2.549 Y15.472
G1 X2.826 Y15.472
G1 X5.972 Y12.319
G1 X5.972 Y12.574
G1 X3.074 Y15.472
G1 X3.351 Y15.472
G1 X5.972 Y12.844
G1 X5.972 Y13.099
G1 X3.599 Y15.472
G1 X3.875 Y15.472
G1 X5.972 Y13.370
G1 X5.972 Y13.624
G1 X4.124 Y15.472
G1 X4.400 Y15.472
G1 X5.972 Y13.896
G1 X5.972 Y14.149
G1 X4.649 Y15.472
G1 X4.924 Y15.472
G1 X5.972 Y14.422
G1 X5.972 Y14.674
G1 X5.174 Y15.472
G1 X5.448 Y15.472
G1 X5.972 Y14.947
G1 X5.972 Y15.199
G1 X5.699 Y15.472
G1 X2.028 Y3.391 F7800.000
G1 X4.972 Y0.447 F3600.000
G1 X4.972 Y0.178
G1 X2.028 Y3.129
G1 X2.028 Y2.866
G1 X4.972 Y-0.078
G1 X4.972 Y-0.348
G1 X2.028 Y2.603
G1 X2.028 Y2.341
G1 X4.972 Y-0.603
G1 X4.972 Y-0.874
G1 X2.028 Y2.077
G1 X2.028 Y1.815
G1 X4.972 Y-1.128
G1 X4.972 Y-1.400
G1 X2.028 Y1.551
G1 X2.028 Y1.290
G1 X4.972 Y-1.653
G1 X4.972 Y-1.925
G1 X2.028 Y1.026
G1 X2.028 Y0.765
G1 X4.972 Y-2.179
G1 X4.972 Y-2.451
G1 X2.028 Y0.500
G1 X2.028 Y0.240
G1 X4.972 Y-2.704
G1 X4.972 Y-2.977
G1 X2.028 Y-0.026
G1 X2.028 Y-0.285
G1 X4.972 Y-3.229
G1 X4.972 Y-3.503
G1 X2.028 Y-0.551
G1 X2.028 Y-0.810
G1 X4.972 Y-3.754
G1 X4.972 Y-4.028
G1 X2.028 Y-1.077
G1 X2.028 Y-1.335
G1 X4.972 Y-4.279
G1 X4.972 Y-4.554
G1 X2.028 Y-1.603
G1 X2.028 Y-1.860
G1 X4.972 Y-4.804
G1 X4.972 Y-5.080
G1 X2.028 Y-2.129
G1 X2.028 Y-2.385
G1 X4.972 Y-5.329
G1 X4.972 Y-5.605
G1 X2.028 Y-2.654
G1 X2.028 Y-2.910
G1 X4.972 Y-5.854
G1 X4.972 Y-6.131
G1 X2.028 Y-3.180
G1 X2.028 Y-3.435
G1 X4.972 Y-6.379
G1 X4.972 Y-6.657
G1 X2.028 Y-3.706
G1 X2.028 Y-3.960
G1 X4.972 Y-6.904
G1 X4.972 Y-7.183
G1 X2.028 Y-4.232
G1 X2.028 Y-4.486
G1 X4.972 Y-7.429
G1 X4.972 Y-7.708
G1 X2.028 Y-4.757
G1 X2.028 Y-5.011
G1 X4.972 Y-7.954
G1 X4.972 Y-8.234
G1 X2.028 Y-5.283
G1 X2.028 Y-5.536
G1 X4.972 Y-8.479
G1 X4.972 Y-8.760
G1 X2.028 Y-5.809
G1 X2.028 Y-6.061
G1 X4.972 Y-9.005
G1 X4.972 Y-9.286
G1 X2.028 Y-6.335
G1 X2.028 Y-6.586
G1 X4.972 Y-9.530
G1 X4.972 Y-9.811
G1 X2.028 Y-6.860
G1 X2.028 Y-7.111
G1 X4.972 Y-10.055
G1 X4.972 Y-10.337
G1 X2.028 Y-7.386
G1 X2.028 Y-7.636
G1 X4.972 Y-10.580
G1 X4.972 Y-10.863
G1 X2.028 Y-7.912
G1 X2.028 Y-8.161
G1 X4.972 Y-11.105
G1 X4.972 Y-11.389
G1 X2.028 Y-8.438
G1 X2.028 Y-8.686
G1 X4.972 Y-11.630
G1 X4.972 Y-11.914
G1 X2.028 Y-8.963
G1 X2.028 Y-9.211
G1 X4.972 Y-12.155
G1 X4.972 Y-12.440
G1 X2.028 Y-9.489
G1 X2.028 Y-9.736
G1 X4.972 Y-12.680
G1 X4.972 Y-12.966
G1 X2.028 Y-10.015
G1 X2.028 Y-10.261
G1 X4.972 Y-13.205
G1 X4.972 Y-13.492
G1 X2.028 Y-10.541
G1 X2.028 Y-10.786
G1 X4.972 Y-13.730
G1 X4.972 Y-14.017
G1 X2.028 Y-11.066
G1 X2.028 Y-11.312
G1 X4.972 Y-14.255
G1 X4.972 Y-14.543
G1 X2.028 Y-11.592
G1 X2.028 Y-11.837
G1 X4.972 Y-14.780
G1 X4.972 Y-15.069
G1 X2.028 Y-12.118
G1 X2.028 Y-12.362
G1 X4.972 Y-15.306
G1 X4.850 Y-15.472
G1 X2.028 Y-12.644
G1 X2.028 Y-12.887
G1 X4.613 Y-15.472
G1 X4.325 Y-15.472
G1 X2.028 Y-13.169
G1 X2.028 Y-13.412
G1 X4.088 Y-15.472
G1 X3.801 Y-15.472
G1 X2.028 Y-13.695
G1 X2.028 Y-13.937
G1 X3.563 Y-15.472
G1 X3.276 Y-15.472
G1 X2.028 Y-14.221
G1 X2.028 Y-14.462
G1 X3.038 Y-15.472
G1 X2.752 Y-15.472
G1 X2.028 Y-14.746
G1 X2.028 Y-14.987
G1 X2.513 Y-15.472
G1 X2.227 Y-15.472
G1 X2.028 Y-15.272
G1 Z0.600 F7800.000
G1 X5.972 Y3.704 F7800.000
G1 X5.796 Y3.528 F3600.000
G1 X5.533 Y3.528
G1 X5.972 Y3.966
G1 X5.972 Y4.229
G1 X5.271 Y3.528
G1 X5.007 Y3.528
G1 X5.972 Y4.489
G1 X5.972 Y4.754
G1 X4.746 Y3.528
G1 X4.480 Y3.528
G1 X5.972 Y5.013
G1 X5.972 Y5.279
G1 X4.221 Y3.528
G1 X3.954 Y3.528
G1 X5.972 Y5.537
G1 X5.972 Y5.804
G1 X3.696 Y3.528
G1 X3.428 Y3.528
G1 X5.972 Y6.061
G1 X5.972 Y6.329
G1 X3.171 Y3.528
G1 X2.902 Y3.528
G1 X5.972 Y6.585
G1 X5.972 Y6.854
G1 X2.646 Y3.528
G1 X2.375 Y3.528
G1 X5.972 Y7.109
G1 X5.972 Y7.379
G1 X2.121 Y3.528
G1 X1.849 Y3.528
G1 X5.972 Y7.633
G1 X5.972 Y7.904
G1 X1.596 Y3.528
G1 X1.323 Y3.528
G1 X5.972 Y8.157
G1 X5.972 Y8.429
G1 X1.071 Y3.528
G1 X0.797 Y3.528
G1 X5.972 Y8.681
G1 X5.972 Y8.954
G1 X0.546 Y3.528
G1 X0.270 Y3.528
G1 X5.972 Y9.205
G1 X5.972 Y9.479
G1 X0.021 Y3.528
G1 X-0.256 Y3.528
G1 X5.972 Y9.729
G1 X5.972 Y10.005
G1 X-0.505 Y3.528
G1 X-0.782 Y3.528
G1 X5.972 Y10.253
G1 X5.972 Y10.530
G1 X-1.030 Y3.528
G1 X-1.308 Y3.528
G1 X5.972 Y10.777
G1 X5.972 Y11.055
G1 X-1.555 Y3.528
G1 X-1.835 Y3.528
G1 X5.972 Y11.301
G1 X5.972 Y11.580
G1 X-2.080 Y3.528
G1 X-2.361 Y3.528
G1 X5.972 Y11.824
G1 X5.972 Y12.105
G1 X-2.605 Y3.528
G1 X-2.887 Y3.528
G1 X5.972 Y12.348
G1 X5.972 Y12.630
G1 X-3.130 Y3.528
G1 X-3.413 Y3.528
G1 X5.972 Y12.872
G1 X5.972 Y13.155
G1 X-3.655 Y3.528
G1 X-3.939 Y3.528
G1 X5.972 Y13.396
G1 X5.972 Y13.680
G1 X-4.180 Y3.528
G1 X-4.466 Y3.528
G1 X5.972 Y13.920
G1 X5.972 Y14.205
G1 X-4.705 Y3.528
G1 X-4.992 Y3.528
G1 X5.972 Y14.444
G1 X5.972 Y14.730
G1 X-5.230 Y3.528
G1 X-5.518 Y3.528
G1 X5.972 Y14.968
G1 X5.972 Y15.255
G1 X-5.755 Y3.528
G1 X-5.972 Y3.600
G1 X5.952 Y15.472
G1 X5.663 Y15.472
G1 X-5.972 Y3.837
G1 X-5.972 Y4.124
G1 X5.426 Y15.472
G1 X5.138 Y15.472
G1 X-5.972 Y4.362
G1 X-5.972 Y4.648
G1 X4.899 Y15.472
G1 X4.613 Y15.472
G1 X-5.972 Y4.887
G1 X-5.972 Y5.172
G1 X4.373 Y15.472
G1 X4.088 Y15.472
G1 X-5.972 Y5.412
G1 X-5.972 Y5.696
G1 X3.847 Y15.472
G1 X3.563 Y15.472
G1 X-5.972 Y5.937
G1 X-5.972 Y6.220
G1 X3.321 Y15.472
G1 X3.038 Y15.472
G1 X-5.972 Y6.462
G1 X-5.972 Y6.744
G1 X2.794 Y15.472
G1 X2.513 Y15.472
G1 X-5.972 Y6.987
G1 X-5.972 Y7.268
G1 X2.268 Y15.472
G1 X1.988 Y15.472
G1 X-5.972 Y7.512
G1 X-5.972 Y7.792
G1 X1.742 Y15.472
G1 X1.463 Y15.472
G1 X-5.972 Y8.037
G1 X-5.972 Y8.316
G1 X1.216 Y15.472
G1 X0.938 Y15.472
G1 X-5.972 Y8.562
G1 X-5.972 Y8.840
G1 X0.689 Y15.472
G1 X0.413 Y15.472
G1 X-5.972 Y9.087
G1 X-5.972 Y9.363
G1 X0.163 Y15.472
G1 X-0.113 Y15.472
G1 X-5.972 Y9.613
G1 X-5.972 Y9.887
G1 X-0.363 Y15.472
G1 X-0.638 Y15.472
G1 X-5.972 Y10.138
G1 X-5.972 Y10.411
G1 X-0.889 Y15.472
G1 X-1.163 Y15.472
G1 X-5.972 Y10.663
G1 X-5.972 Y10.935
G1 X-1.416 Y15.472
G1 X-1.688 Y15.472
G1 X-5.972 Y11.188
G1 X-5.972 Y11.459
G1 X-1.942 Y15.472
G1 X-2.213 Y15.472
G1 X-5.972 Y11.713
G1 X-5.972 Y11.983
G1 X-2.468 Y15.472
G1 X-2.738 Y15.472
G1 X-5.972 Y12.238
G1 X-5.972 Y12.507
G1 X-2.994 Y15.472
G1 X-3.263 Y15.472
G1 X-5.972 Y12.763
G1 X-5.972 Y13.031
G1 X-3.521 Y15.472
G1 X-3.788 Y15.472
G1 X-5.972 Y13.288
G1 X-5.972 Y13.555
G1 X-4.047 Y15.472
G1 X-4.313 Y15.472
G1 X-5.972 Y13.813
G1 X-5.972 Y14.079
G1 X-4.573 Y15.472
