; generated by Slic3r 1.2.9 on 2018-03-06 at 16:13:09

; external perimeters extrusion width = 0.20mm
; perimeters extrusion width = 0.21mm
; infill extrusion width = 0.21mm
; solid infill extrusion width = 0.21mm
; top infill extrusion width = 0.21mm

M107
M104 S200 ; set temperature

M109 S200 ; wait for temperature to be reached
G21 ; set units to millimeters
G90 ; use absolute coordinates
G1 Z0.200
G1 X6.132 Y-14.875 
G1 X18.875 Y-2.132 
G1 X19.049 Y-1.711 
G1 X5.681 Y-15.062
G1 X6.579 Y-14.690
G1 X18.678 Y-2.606
G1 X18.503 Y-3.028
G1 X7.028 Y-14.503
G1 X7.476 Y-14.318
G1 X18.308 Y-3.501
G1 X18.132 Y-3.925
G1 X7.925 Y-14.132
G1 X8.374 Y-13.946
G1 X17.937 Y-4.396
G1 X17.761 Y-4.821 
G1 X8.821 Y-13.761
G1 X9.272 Y-13.574
G1 X17.566 Y-5.291 
G1 X17.390 Y-5.717 
G1 X9.717 Y-13.390
G1 X10.532 Y-12.840 
G1 X16.813 Y-6.568
G1 X15.985 Y-7.647 
G1 X11.647 Y-11.985 
G1 X12.800 Y-11.100
G1 X15.090 Y-8.813
G1 X14.253 Y-9.904
G1 X13.904 Y-10.253
G1 X19.246 Y-1.235 
G1 X5.235 Y-15.246
G1 X4.894 Y-15.322
G1 X19.319 Y-0.916
G1 X19.362 Y-0.595
G1 X4.595 Y-15.362
G1 X4.289 Y-15.402
G1 X19.399 Y-0.312
G1 X19.441 Y0.010
G1 X3.990 Y-15.441
G1 X3.684 Y-15.482
G1 X19.479 Y0.292
G1 X19.521 Y0.615
G1 X3.385 Y-15.521
G1 X3.079 Y-15.561
G1 X19.558 Y0.896
G1 X19.601 Y1.219
G1 X2.781 Y-15.601
G1 X2.473 Y-15.641
G1 X19.638 Y1.500
G1 X19.680 Y1.824
G1 X2.176 Y-15.680
G1 X1.868 Y-15.721
G1 X19.717 Y2.104
G1 X19.760 Y2.429
G1 X1.571 Y-15.760
G1 X1.263 Y-15.800
G1 X19.797 Y2.709
G1 X19.839 Y3.034
G1 X0.966 Y-15.839
G1 X0.658 Y-15.880
G1 X19.876 Y3.313
G1 X19.919 Y3.638
G1 X0.362 Y-15.919
G1 X0.052 Y-15.960
G1 X19.956 Y3.917
G1 X19.950 Y4.195
G1 X-0.195 Y-15.950
G1 X-0.432 Y-15.919
G1 X19.922 Y4.408
G1 X19.889 Y4.659
G1 X-0.659 Y-15.889
G1 X-0.897 Y-15.858
G1 X19.861 Y4.872
G1 X19.828 Y5.123
G1 X-1.123 Y-15.828
G1 X-1.361 Y-15.797
G1 X19.800 Y5.336
G1 X19.767 Y5.587
G1 X-1.587 Y-15.767
G1 X-1.825 Y-15.736
G1 X19.739 Y5.799
G1 X19.706 Y6.051
G1 X-2.051 Y-15.706
G1 X-2.289 Y-15.675
G1 X19.678 Y6.263
G1 X19.645 Y6.515
G1 X-2.515 Y-15.645
G1 X-2.753 Y-15.614
G1 X19.617 Y6.727
G1 X19.584 Y6.979
G1 X-2.979 Y-15.584
G1 X-3.218 Y-15.552
G1 X19.556 Y7.191
G1 X19.523 Y7.443
G1 X-3.443 Y-15.523
G1 X-3.682 Y-15.491
G1 X19.495 Y7.655
G1 X19.462 Y7.907
G1 X-3.907 Y-15.462
G1 X-4.146 Y-15.430
G1 X19.434 Y8.118
G1 X19.401 Y8.371
G1 X-4.371 Y-15.401
G1 X-4.610 Y-15.369
G1 X19.373 Y8.582
G1 X19.340 Y8.835
G1 X-4.835 Y-15.340
G1 X-5.075 Y-15.308
G1 X19.312 Y9.046
G1 X19.258 Y9.278
G1 X-5.278 Y-15.258
G1 X-5.470 Y-15.178
G1 X19.188 Y9.447
G1 X19.104 Y9.649
G1 X-5.649 Y-15.104
G1 X-5.842 Y-15.024
G1 X19.034 Y9.818
G1 X18.950 Y10.021
G1 X-6.021 Y-14.950
G1 X-6.213 Y-14.871
G1 X18.880 Y10.189
G1 X18.796 Y10.392
G1 X-6.392 Y-14.796
G1 X-6.584 Y-14.717
G1 X18.727 Y10.560
G1 X18.643 Y10.763
G1 X-6.763 Y-14.643
G1 X-6.956 Y-14.563
G1 X18.573 Y10.932
G1 X18.489 Y11.134
G1 X-7.134 Y-14.489
G1 X-7.327 Y-14.409
G1 X18.419 Y11.303
G1 X18.335 Y11.506
G1 X-7.506 Y-14.335
G1 X-7.698 Y-14.255
G1 X18.265 Y11.674
G1 X18.181 Y11.877
G1 X-7.877 Y-14.181
G1 X-8.070 Y-14.101
G1 X18.112 Y12.045
G1 X18.027 Y12.248
G1 X-8.248 Y-14.027
G1 X-8.441 Y-13.948
G1 X17.958 Y12.416
G1 X17.874 Y12.620
G1 X-8.620 Y-13.874
G1 X-8.813 Y-13.794
G1 X17.804 Y12.787
G1 X17.720 Y12.991
G1 X-8.991 Y-13.720
G1 X-9.184 Y-13.640
G1 X17.650 Y13.159
G1 X17.566 Y13.362
G1 X-9.362 Y-13.566
G1 X-9.555 Y-13.486
G1 X17.497 Y13.530
G1 X17.412 Y13.733
G1 X-9.733 Y-13.412
G1 X-9.927 Y-13.332
G1 X17.343 Y13.901
G1 X17.238 Y14.084
G1 X-10.084 Y-13.238
G1 X-10.239 Y-13.119
G1 X17.135 Y14.219
G1 X17.010 Y14.382
G1 X-10.382 Y-13.010
G1 X-10.536 Y-12.891
G1 X16.907 Y14.516
G1 X16.782 Y14.679
G1 X-10.679 Y-12.782
G1 X-10.834 Y-12.663
G1 X16.679 Y14.813
G1 X16.554 Y14.976
G1 X-10.976 Y-12.554
G1 X-11.131 Y-12.435
G1 X16.452 Y15.110
G1 X16.326 Y15.273
G1 X-11.273 Y-12.326
G1 X-11.428 Y-12.207
G1 X16.224 Y15.407
G1 X16.098 Y15.570
G1 X-11.570 Y-12.098
G1 X-11.725 Y-11.979
G1 X15.996 Y15.704
G1 X15.870 Y15.867
G1 X-11.867 Y-11.870
G1 X-12.022 Y-11.751
G1 X15.768 Y16.001
G1 X15.642 Y16.164
G1 X-12.164 Y-11.642
G1 X-12.319 Y-11.523
G1 X15.540 Y16.298
G1 X15.414 Y16.461
G1 X-12.461 Y-11.414
G1 X-12.616 Y-11.295
G1 X15.312 Y16.595
G1 X15.186 Y16.758
G1 X-12.758 Y-11.186
G1 X-12.913 Y-11.067
G1 X15.084 Y16.892
G1 X14.959 Y17.055
G1 X-13.055 Y-10.959
G1 X-13.211 Y-10.840
G1 X14.856 Y17.189
G1 X14.731 Y17.353
G1 X-13.353 Y-10.731
G1 X-13.508 Y-10.612
G1 X14.628 Y17.486
G1 X14.503 Y17.650
G1 X-13.650 Y-10.503
G1 X-13.805 Y-10.384
G1 X14.400 Y17.783
G1 X14.275 Y17.947
G1 X-13.947 Y-10.275
G1 X-14.102 Y-10.156
G1 X14.172 Y18.081
G1 X14.021 Y18.218
G1 X-14.218 Y-10.021
G1 X-14.337 Y-9.865
G1 X13.887 Y18.321
G1 X13.724 Y18.446
G1 X-14.446 Y-9.724
G1 X-14.565 Y-9.568
G1 X13.590 Y18.549
G1 X13.426 Y18.674
G1 X-14.674 Y-9.426
G1 X-14.793 Y-9.271
G1 X13.293 Y18.777
G1 X13.129 Y18.902
G1 X-14.902 Y-9.129
G1 X-15.021 Y-8.974
G1 X12.995 Y19.005
G1 X12.832 Y19.130
G1 X-15.130 Y-8.832
G1 X-15.249 Y-8.677
G1 X12.698 Y19.233
G1 X12.535 Y19.358
G1 X-15.358 Y-8.535
G1 X-15.477 Y-8.380
G1 X12.401 Y19.461
G1 X12.238 Y19.586
G1 X-15.586 Y-8.238
G1 X-15.705 Y-8.083
G1 X12.104 Y19.689
G1 X11.941 Y19.814
G1 X-15.814 Y-7.941
G1 X-15.933 Y-7.786
G1 X11.807 Y19.917
G1 X11.644 Y20.042
G1 X-16.042 Y-7.644
G1 X-16.161 Y-7.489
G1 X11.510 Y20.145
G1 X11.347 Y20.270
G1 X-16.270 Y-7.347
G1 X-16.389 Y-7.192
G1 X11.213 Y20.373
G1 X11.050 Y20.498
G1 X-16.498 Y-7.050
G1 X-16.617 Y-6.895
G1 X10.916 Y20.601
G1 X10.752 Y20.726
G1 X-16.726 Y-6.752
G1 X-16.845 Y-6.598
G1 X10.618 Y20.829
G1 X10.455 Y20.954
G1 X-16.975 Y-6.477
G1 X-17.028 Y-6.530
G1 X-19.972 Y-9.474
G1 X-19.972 Y-9.721
G1 X-17.028 Y-6.781
G1 X-17.028 Y-7.055
G1 X-19.972 Y-9.999
G1 X-19.972 Y-10.246
G1 X-17.028 Y-7.306
G1 X-17.028 Y-7.580
G1 X-19.972 Y-10.524
G1 X-19.972 Y-10.770
G1 X-17.028 Y-7.830
G1 X-17.028 Y-8.105
G1 X-19.972 Y-11.049
G1 X-19.972 Y-11.295
G1 X-17.028 Y-8.355
G1 X-17.028 Y-8.630
G1 X-19.972 Y-11.574
G1 X-19.972 Y-11.820
G1 X-17.028 Y-8.880
G1 X-17.028 Y-9.155
G1 X-19.972 Y-12.099
G1 X-19.972 Y-12.344
G1 X-17.028 Y-9.404
G1 X-17.028 Y-9.680
G1 X-19.972 Y-12.624
G1 X-19.972 Y-12.869
G1 X-17.028 Y-9.929
G1 X-17.028 Y-10.205
G1 X-19.972 Y-13.149
G1 X-19.972 Y-13.394
G1 X-17.028 Y-10.454
G1 X-17.028 Y-10.730
G1 X-19.972 Y-13.674
G1 X-19.972 Y-13.919
G1 X-17.028 Y-10.979
G1 X-17.028 Y-11.256
G1 X-19.972 Y-14.199
G1 X-19.972 Y-14.443
G1 X-17.028 Y-11.503
G1 X-17.028 Y-11.781
G1 X-19.972 Y-14.724
G1 X-19.972 Y-14.968
G1 X-17.028 Y-12.028
G1 X-17.028 Y-12.306
G1 X-19.972 Y-15.250
G1 X-19.972 Y-15.493
G1 X-17.028 Y-12.553
G1 X-17.028 Y-12.831
G1 X-19.972 Y-15.775
G1 X-19.972 Y-16.018
G1 X-17.028 Y-13.078
G1 X-17.028 Y-13.356
G1 X-19.972 Y-16.300
G1 X-19.972 Y-16.542
G1 X-17.028 Y-13.602
G1 X-17.028 Y-13.881
G1 X-19.972 Y-16.825
G1 X-19.972 Y-17.067
G1 X-17.028 Y-14.127
G1 X-17.028 Y-14.406
G1 X-19.972 Y-17.350
G1 X-19.972 Y-17.592
G1 X-17.028 Y-14.652
G1 X-17.028 Y-14.931
G1 X-19.972 Y-17.875
G1 X-19.972 Y-18.116
G1 X-17.028 Y-15.177
G1 X-17.028 Y-15.456
G1 X-19.972 Y-18.400
G1 X-19.972 Y-18.641
G1 X-17.028 Y-15.701
G1 X-17.028 Y-15.981
G1 X-19.972 Y-18.925
G1 X-19.972 Y-19.166
G1 X-17.028 Y-16.226
G1 X-17.028 Y-16.506
G1 X-19.972 Y-19.450
G1 X-19.972 Y-19.691
G1 X-17.028 Y-16.751
G1 X-17.028 Y-17.031
G1 X-19.972 Y-19.975
G1 X-19.972 Y-20.215
G1 X-17.028 Y-17.275
G1 X-17.028 Y-17.557
G1 X-19.972 Y-20.500
G1 X-19.972 Y-20.740
G1 X-17.028 Y-17.800
G1 X-17.028 Y-18.082
G1 X-19.972 Y-21.025
G1 X-19.972 Y-21.265
G1 X-17.028 Y-18.325
G1 X-17.028 Y-18.607
G1 X-19.972 Y-21.551
G1 X-19.972 Y-21.790
G1 X-17.028 Y-18.850
G1 X-17.028 Y-19.132
G1 X-19.972 Y-22.076
G1 X-19.972 Y-22.314
G1 X-17.028 Y-19.374
G1 X-17.028 Y-19.657
G1 X-19.972 Y-22.601
G1 X-19.972 Y-22.839
G1 X-17.028 Y-19.899
G1 X-17.028 Y-20.182
G1 X-19.972 Y-23.126
G1 X-19.972 Y-23.364
G1 X-17.028 Y-20.424
G1 X-17.028 Y-20.707
G1 X-19.972 Y-23.651
G1 X-19.972 Y-23.888
G1 X-17.028 Y-20.949
G1 X-16.824 Y-21.028
G1 X-19.972 Y-24.176
G1 X-19.972 Y-24.413
G1 X-16.582 Y-21.028
G1 X-16.299 Y-21.028
G1 X-19.972 Y-24.701
G1 X-19.972 Y-24.938
G1 X-16.057 Y-21.028
G1 X-15.774 Y-21.028
G1 X-19.972 Y-25.226
G1 X-19.972 Y-25.463
G1 X-15.531 Y-21.028
G1 X-15.249 Y-21.028
G1 X-19.972 Y-25.751
G1 X-19.944 Y-25.960
G1 X-15.028 Y-21.050
G1 X-15.028 Y-21.332
G1 X-19.668 Y-25.972
G1 X-19.431 Y-25.972
G1 X-15.028 Y-21.575
G1 X-15.028 Y-21.857
G1 X-19.143 Y-25.972
G1 X-18.906 Y-25.972
G1 X-15.028 Y-22.100
G1 X-15.028 Y-22.383
G1 X-18.617 Y-25.972
G1 X-18.380 Y-25.972
G1 X-15.028 Y-22.624
G1 X-15.028 Y-22.908
G1 X-18.092 Y-25.972
G1 X-17.855 Y-25.972
G1 X-15.028 Y-23.149
G1 X-15.028 Y-23.433
G1 X-17.567 Y-25.972
G1 X-17.329 Y-25.972
G1 X-15.028 Y-23.674
G1 X-15.028 Y-23.958
G1 X-17.042 Y-25.972
G1 X-16.804 Y-25.972
G1 X-15.028 Y-24.198
G1 X-15.028 Y-24.483
G1 X-16.517 Y-25.972
G1 X-16.278 Y-25.972
G1 X-15.028 Y-24.723
G1 X-15.028 Y-25.008
G1 X-15.992 Y-25.972
G1 X-15.753 Y-25.972
G1 X-15.028 Y-25.248
G1 X-15.028 Y-25.533
G1 X-15.467 Y-25.972
G1 X-15.228 Y-25.972
G1 X-15.028 Y-25.773
G1 X-19.972 Y-9.196 F7800.000
G1 X10.321 Y21.057 F3600.000
G1 X10.158 Y21.182
G1 X-19.972 Y-8.949
G1 X-19.972 Y-8.671
G1 X10.024 Y21.285
G1 X9.826 Y21.374
G1 X-19.972 Y-8.423
G1 X-19.972 Y-8.147
G1 X9.658 Y21.444
G1 X9.454 Y21.528
G1 X-19.972 Y-7.898
G1 X-19.972 Y-7.622
G1 X9.287 Y21.597
G1 X9.083 Y21.682
G1 X-19.972 Y-7.373
G1 X-19.972 Y-7.097
G1 X8.915 Y21.751
G1 X8.712 Y21.835
G1 X-19.972 Y-6.848
G1 X-19.972 Y-6.572
G1 X8.544 Y21.905
G1 X8.341 Y21.989
G1 X-19.972 Y-6.323
G1 X-19.972 Y-6.048
G1 X8.172 Y22.059
G1 X7.969 Y22.143
G1 X-19.972 Y-5.798
G1 X-19.972 Y-5.523
G1 X7.801 Y22.213
G1 X7.598 Y22.297
G1 X-19.972 Y-5.273
G1 X-19.972 Y-4.998
G1 X7.430 Y22.367
G1 X7.227 Y22.451
G1 X-19.972 Y-4.748
G1 X-19.972 Y-4.474
G1 X7.058 Y22.520
G1 X6.855 Y22.604
G1 X-19.972 Y-4.223
G1 X-19.972 Y-3.949
G1 X6.687 Y22.674
G1 X6.484 Y22.758
G1 X-19.972 Y-3.698
G1 X-19.972 Y-3.424
G1 X6.315 Y22.828
G1 X6.113 Y22.912
G1 X-19.972 Y-3.173
G1 X-19.972 Y-2.899
G1 X5.944 Y22.982
G1 X5.741 Y23.066
G1 X-19.972 Y-2.648
G1 X-19.972 Y-2.375
G1 X5.573 Y23.136
G1 X5.370 Y23.220
G1 X-19.972 Y-2.123
G1 X-19.972 Y-1.850
G1 X5.201 Y23.290
G1 X4.950 Y23.324
G1 X-19.972 Y-1.597
G1 X-19.972 Y-1.325
G1 X4.739 Y23.352
G1 X4.486 Y23.385
G1 X-19.972 Y-1.072
G1 X-19.972 Y-0.800
G1 X4.274 Y23.413
G1 X4.022 Y23.447
G1 X-19.972 Y-0.547
G1 X-19.972 Y-0.276
G1 X3.810 Y23.474
G1 X3.558 Y23.508
G1 X-19.972 Y-0.022
G1 X-19.972 Y0.249
G1 X3.346 Y23.536
G1 X3.094 Y23.569
G1 X-19.972 Y0.503
G1 X-19.972 Y0.774
G1 X2.882 Y23.597
G1 X2.630 Y23.630
G1 X-19.972 Y1.028
G1 X-19.972 Y1.298
G1 X2.417 Y23.658
G1 X2.166 Y23.691
G1 X-19.972 Y1.553
G1 X-19.972 Y1.823
G1 X1.953 Y23.719
G1 X1.702 Y23.752
G1 X-19.972 Y2.078
G1 X-19.972 Y2.348
G1 X1.489 Y23.780
G1 X1.238 Y23.813
G1 X-19.972 Y2.603
G1 X-19.972 Y2.873
G1 X1.025 Y23.841
G1 X0.774 Y23.874
G1 X-19.972 Y3.128
G1 X-19.972 Y3.397
G1 X0.560 Y23.902
G1 X0.310 Y23.935
G1 X-19.972 Y3.653
G1 X-19.972 Y3.922
G1 X0.096 Y23.963
G1 X-0.212 Y23.939
G1 X-19.939 Y4.212
G1 X-19.898 Y4.520
G1 X-0.491 Y23.902
G1 X-0.816 Y23.859
G1 X-19.859 Y4.816
G1 X-19.819 Y5.125
G1 X-1.096 Y23.822
G1 X-1.421 Y23.780
G1 X-19.780 Y5.421
G1 X-19.739 Y5.729
G1 X-1.701 Y23.743
G1 X-2.026 Y23.700
G1 X-19.700 Y6.026
G1 X-19.660 Y6.333
G1 X-2.306 Y23.663
G1 X-2.630 Y23.620
G1 X-19.620 Y6.630
G1 X-19.580 Y6.937
G1 X-2.911 Y23.583
G1 X-3.235 Y23.541
G1 X-19.541 Y7.235
G1 X-19.500 Y7.541
G1 X-3.517 Y23.504
G1 X-3.840 Y23.461
G1 X-19.461 Y7.840
G1 X-19.421 Y8.145
G1 X-4.122 Y23.424
G1 X-4.444 Y23.382
G1 X-19.382 Y8.444
G1 X-19.341 Y8.750
G1 X-4.727 Y23.344
G1 X-5.049 Y23.302
G1 X-19.302 Y9.049
G1 X-19.151 Y9.464
G1 X-5.433 Y23.164
G1 X-5.909 Y22.967
G1 X-18.967 Y9.909
G1 X-18.781 Y10.359
G1 X-6.331 Y22.792
G1 X-6.805 Y22.596
G1 X-18.596 Y10.805
G1 X-18.410 Y11.254
G1 X-7.229 Y22.420
G1 X-7.702 Y22.224
G1 X-18.224 Y11.702
G1 X-18.039 Y12.149
G1 X-8.126 Y22.049
G1 X-8.598 Y21.853
G1 X-17.853 Y12.598
G1 X-17.669 Y13.044
G1 X-9.024 Y21.677
G1 X-9.495 Y21.482
G1 X-17.482 Y13.495
G1 X-17.288 Y13.948
G1 X-9.922 Y21.305
G1 X-11.087 Y20.415
G1 X-16.415 Y15.087
G1 X-15.566 Y16.193
G1 X-12.174 Y19.580
G1 X-13.343 Y18.683
G1 X-14.683 Y17.343 
G1 X17.083 Y-11.274
G1 X17.274 Y-11.083
G1 X17.783 Y-11.083
G1 X17.083 Y-11.783
G1 X17.083 Y-12.291
G1 X18.291 Y-11.083
G1 X18.799 Y-11.083
G1 X17.083 Y-12.799
G1 X17.083 Y-13.308
G1 X19.308 Y-11.083
G1 X19.816 Y-11.083
G1 X17.083 Y-13.816
G1 X17.083 Y-14.325
G1 X19.917 Y-11.490
G1 X19.917 Y-11.999
G1 X17.083 Y-14.833
G1 X17.083 Y-15.342
G1 X19.917 Y-12.507
G1 X19.917 Y-13.015
G1 X17.083 Y-15.850
G1 X17.083 Y-16.358
G1 X19.917 Y-13.524
G1 X19.917 Y-14.032
G1 X17.083 Y-16.867
G1 X17.083 Y-17.375
G1 X19.917 Y-14.541
G1 X19.917 Y-15.049
G1 X17.083 Y-17.884
G1 X17.083 Y-18.392
G1 X19.917 Y-15.558
G1 X19.917 Y-16.066
G1 X17.083 Y-18.900
G1 X17.083 Y-19.409
G1 X19.917 Y-16.574
G1 X19.917 Y-17.083
G1 X17.083 Y-19.917
G1 X17.083 Y-20.426
G1 X19.917 Y-17.591
G1 X19.917 Y-18.100
G1 X15.083 Y-22.934
G1 X15.083 Y-23.442
G1 X19.917 Y-18.608
G1 X19.917 Y-19.116
G1 X15.083 Y-23.951
G1 X15.083 Y-24.459
G1 X19.917 Y-19.625
G1 X19.917 Y-20.133
G1 X15.083 Y-24.968
G1 X15.083 Y-25.476
G1 X19.917 Y-20.642
G1 X19.917 Y-21.150
G1 X15.150 Y-25.917
G1 X15.658 Y-25.917
G1 X19.917 Y-21.658
G1 X19.917 Y-22.167
G1 X16.167 Y-25.917
G1 X16.675 Y-25.917
G1 X19.917 Y-22.675
G1 X19.917 Y-23.184
G1 X17.184 Y-25.917
G1 X17.692 Y-25.917
G1 X19.917 Y-23.692
G1 X19.917 Y-24.200
G1 X18.200 Y-25.917
G1 X18.709 Y-25.917
G1 X19.917 Y-24.709
G1 X19.917 Y-25.217
G1 X19.217 Y-25.917
G1 X19.726 Y-25.917
G1 X19.917 Y-25.726
G1 X16.426 Y-21.083 F7800.000
G1 X15.083 Y-22.426 F3600.000
G1 X15.083 Y-21.917
G1 X15.917 Y-21.083
G1 X15.409 Y-21.083
G1 X15.083 Y-21.409

G1 Z0.600 
G1 X19.972 Y-15.737 F7800.000
G1 X19.737 Y-15.972 F3600.000
G1 X19.474 Y-15.972
G1 X19.972 Y-15.475
G1 X19.972 Y-15.212
G1 X19.212 Y-15.972
G1 X18.948 Y-15.972
G1 X19.972 Y-14.950
G1 X19.972 Y-14.687
G1 X18.687 Y-15.972
G1 X18.423 Y-15.972
G1 X19.972 Y-14.425
G1 X19.972 Y-14.162
G1 X18.162 Y-15.972
G1 X17.897 Y-15.972
G1 X19.972 Y-13.901
G1 X19.972 Y-13.637
G1 X17.637 Y-15.972
G1 X17.372 Y-15.972
G1 X19.972 Y-13.376
G1 X19.972 Y-13.112
G1 X17.112 Y-15.972
G1 X17.028 Y-15.790
G1 X19.972 Y-12.851
G1 X19.972 Y-12.586
G1 X17.028 Y-15.530
G1 X17.028 Y-15.266
G1 X19.972 Y-12.327
G1 X19.972 Y-12.061
G1 X17.028 Y-15.005
G1 X17.028 Y-14.741
G1 X19.972 Y-11.802
G1 X19.972 Y-11.536
G1 X17.028 Y-14.480
G1 X17.028 Y-14.217
G1 X19.972 Y-11.278
G1 X19.972 Y-11.011
G1 X17.028 Y-13.955
G1 X17.028 Y-13.692
G1 X19.972 Y-10.753
G1 X19.972 Y-10.486
G1 X17.028 Y-13.430
G1 X17.028 Y-13.167
G1 X19.972 Y-10.228
G1 X19.972 Y-9.961
G1 X17.028 Y-12.905
G1 X17.028 Y-12.643
G1 X19.972 Y-9.704
G1 X19.972 Y-9.436
G1 X17.028 Y-12.380
G1 X17.028 Y-12.118
G1 X19.972 Y-9.179
G1 X19.972 Y-8.911
G1 X17.028 Y-11.855
G1 X17.028 Y-11.593
G1 X19.972 Y-8.654
G1 X19.972 Y-8.386
G1 X17.028 Y-11.330
G1 X17.028 Y-11.069
G1 X19.972 Y-8.130
G1 X19.972 Y-7.861
G1 X17.028 Y-10.805
G1 X17.028 Y-10.544
G1 X19.972 Y-7.605
G1 X19.972 Y-7.336
G1 X17.028 Y-10.279
G1 X17.028 Y-10.019
G1 X19.972 Y-7.080
G1 X19.972 Y-6.811
G1 X17.012 Y-9.771
G1 X16.337 Y-10.446 
G1 X14.446 Y-12.337 
G1 X13.303 Y-13.214
G1 X19.972 Y-6.556 
G1 X19.972 Y-6.285
G1 X12.189 Y-14.068
G1 X11.032 Y-14.956 
G1 X19.972 Y-6.031
G1 X19.972 Y-5.760
G1 X10.535 Y-15.197
G1 X10.074 Y-15.388 
G1 X19.972 Y-5.507
G1 X19.972 Y-5.235
G1 X9.639 Y-15.568
G1 X9.175 Y-15.760
G1 X19.972 Y-4.982
G1 X19.972 Y-4.710
G1 X8.742 Y-15.940
G1 X8.277 Y-16.132
G1 X20.118 Y-4.311
G1 X20.311 Y-3.846
G1 X7.846 Y-16.311
G1 X7.379 Y-16.504
G1 X20.489 Y-3.417
G1 X20.682 Y-2.950
G1 X6.950 Y-16.682
G1 X6.481 Y-16.876
G1 X20.859 Y-2.522
G1 X21.054 Y-2.053
G1 X6.053 Y-17.054
G1 X5.602 Y-17.229
G1 X21.225 Y-1.632
G1 X21.267 Y-1.315
G1 X5.315 Y-17.267
G1 X4.997 Y-17.309
G1 X21.305 Y-1.028
G1 X21.347 Y-0.710
G1 X4.710 Y-17.347
G1 X4.391 Y-17.389
G1 X21.384 Y-0.424
G1 X21.426 Y-0.105
G1 X4.105 Y-17.426
G1 X3.786 Y-17.468
G1 X21.464 Y0.180
G1 X21.506 Y0.499
G1 X3.501 Y-17.506
G1 X3.181 Y-17.548
G1 X21.543 Y0.784
G1 X21.585 Y1.104
G1 X2.896 Y-17.585
G1 X2.575 Y-17.628
G1 X21.623 Y1.388
G1 X21.665 Y1.709
G1 X2.291 Y-17.665
G1 X1.970 Y-17.707
G1 X21.702 Y1.992
G1 X21.745 Y2.313
G1 X1.687 Y-17.745
G1 X1.364 Y-17.787
G1 X21.782 Y2.596
G1 X21.824 Y2.918
G1 X1.082 Y-17.824
G1 X0.759 Y-17.867
G1 X21.861 Y3.200
G1 X21.904 Y3.523
G1 X0.477 Y-17.904
G1 X0.154 Y-17.946
G1 X21.941 Y3.804
G1 X21.962 Y4.106
G1 X-0.106 Y-17.962
G1 X-0.355 Y-17.929
G1 X21.934 Y4.322
G1 X21.901 Y4.570
G1 X-0.570 Y-17.901
G1 X-0.819 Y-17.868
G1 X21.873 Y4.785
G1 X21.840 Y5.034
G1 X-1.034 Y-17.840
G1 X-1.283 Y-17.807
G1 X21.812 Y5.249
G1 X21.779 Y5.498
G1 X-1.498 Y-17.779
G1 X-1.748 Y-17.746
G1 X21.751 Y5.713
G1 X21.718 Y5.962
G1 X-1.962 Y-17.718
G1 X-2.212 Y-17.685
G1 X21.690 Y6.176
G1 X21.657 Y6.426
G1 X-2.426 Y-17.657
G1 X-2.676 Y-17.624
G1 X21.628 Y6.640
G1 X21.596 Y6.890
G1 X-2.890 Y-17.596
G1 X-3.140 Y-17.563
G1 X21.567 Y7.104
G1 X21.534 Y7.354
G1 X-3.354 Y-17.534
G1 X-3.605 Y-17.501
G1 X21.506 Y7.567
G1 X21.473 Y7.818
G1 X-3.818 Y-17.473
G1 X-4.069 Y-17.440
G1 X21.445 Y8.031
G1 X21.412 Y8.282
G1 X-4.282 Y-17.412
G1 X-4.533 Y-17.379
G1 X21.384 Y8.495
G1 X21.351 Y8.746
G1 X-4.746 Y-17.351
G1 X-4.998 Y-17.318
G1 X21.323 Y8.958
G1 X21.290 Y9.210
G1 X-5.210 Y-17.290
G1 X-5.462 Y-17.257
G1 X21.262 Y9.422
G1 X21.229 Y9.674
G1 X-5.674 Y-17.229
G1 X-5.884 Y-17.153
G1 X21.167 Y9.851
G1 X21.083 Y10.053
G1 X-6.053 Y-17.083
G1 X-6.255 Y-16.999
G1 X21.013 Y10.222
G1 X20.929 Y10.424
G1 X-6.424 Y-16.929
G1 X-6.626 Y-16.846
G1 X20.859 Y10.594
G1 X20.775 Y10.796
G1 X-6.796 Y-16.775
G1 X-6.998 Y-16.692
G1 X20.705 Y10.965
G1 X20.622 Y11.167
G1 X-7.167 Y-16.622
G1 X-7.369 Y-16.538
G1 X20.552 Y11.336
G1 X20.468 Y11.538
G1 X-7.538 Y-16.468
G1 X-7.741 Y-16.384
G1 X20.398 Y11.707
G1 X20.314 Y11.909
G1 X-7.909 Y-16.314
G1 X-8.112 Y-16.230
G1 X20.244 Y12.078
G1 X20.160 Y12.281
G1 X-8.281 Y-16.160
G1 X-8.483 Y-16.076
G1 X20.090 Y12.449
G1 X20.006 Y12.652
G1 X-8.652 Y-16.006
G1 X-8.855 Y-15.922
G1 X19.937 Y12.821
G1 X19.853 Y13.023
G1 X-9.023 Y-15.853
G1 X-9.226 Y-15.769
G1 X19.783 Y13.192
G1 X19.699 Y13.395
G1 X-9.395 Y-15.699
G1 X-9.598 Y-15.615
G1 X19.629 Y13.563
G1 X19.545 Y13.766
G1 X-9.766 Y-15.545
G1 X-9.969 Y-15.461
G1 X19.475 Y13.934
G1 X19.391 Y14.137
G1 X-10.137 Y-15.391
G1 X-10.341 Y-15.307
G1 X19.322 Y14.305
G1 X19.238 Y14.508
G1 X-10.508 Y-15.238
G1 X-10.712 Y-15.153
G1 X19.168 Y14.676
G1 X19.084 Y14.880
G1 X-10.880 Y-15.084
G1 X-11.067 Y-14.983
G1 X19.005 Y15.039
G1 X18.880 Y15.202
G1 X-11.202 Y-14.880
G1 X-11.365 Y-14.755
G1 X18.777 Y15.336
G1 X18.652 Y15.499
G1 X-11.499 Y-14.652
G1 X-11.662 Y-14.527
G1 X18.549 Y15.633
G1 X18.425 Y15.796
G1 X-11.796 Y-14.425
G1 X-11.959 Y-14.299
G1 X18.322 Y15.930
G1 X18.197 Y16.093
G1 X-12.093 Y-14.197
G1 X-12.256 Y-14.071
G1 X18.094 Y16.227
G1 X17.969 Y16.390
G1 X-12.390 Y-13.969
G1 X-12.553 Y-13.843
G1 X17.866 Y16.524
G1 X17.741 Y16.687
G1 X-12.687 Y-13.741
G1 X-12.850 Y-13.615
G1 X17.638 Y16.821
G1 X17.513 Y16.984
G1 X-12.984 Y-13.513
G1 X-13.147 Y-13.387
G1 X17.410 Y17.118
G1 X17.285 Y17.281
G1 X-13.281 Y-13.285
G1 X-13.444 Y-13.159
G1 X17.182 Y17.415
G1 X17.057 Y17.578
G1 X-13.578 Y-13.057
G1 X-13.742 Y-12.931
G1 X16.954 Y17.712
G1 X16.829 Y17.875
G1 X-13.875 Y-12.829
G1 X-14.039 Y-12.703
G1 X16.726 Y18.009
G1 X16.601 Y18.173
G1 X-14.173 Y-12.601
G1 X-14.336 Y-12.475
G1 X16.498 Y18.307
G1 X16.373 Y18.470
G1 X-14.470 Y-12.373
G1 X-14.633 Y-12.247
G1 X16.270 Y18.604
G1 X16.145 Y18.767
G1 X-14.767 Y-12.145
G1 X-14.930 Y-12.019
G1 X16.042 Y18.901
G1 X15.917 Y19.064
G1 X-15.064 Y-11.917
G1 X-15.227 Y-11.791
G1 X15.814 Y19.198
G1 X15.689 Y19.361
G1 X-15.361 Y-11.689
G1 X-15.513 Y-11.552
G1 X15.586 Y19.495
G1 X15.435 Y19.632
G1 X-15.631 Y-11.434
G1 X-15.758 Y-11.271
G1 X15.301 Y19.735
G1 X15.138 Y19.860
G1 X-15.860 Y-11.138
G1 X-15.985 Y-10.974
G1 X15.004 Y19.963
G1 X14.841 Y20.088
G1 X-16.088 Y-10.841
G1 X-16.213 Y-10.677
G1 X14.707 Y20.191
G1 X14.544 Y20.316
G1 X-16.316 Y-10.544
G1 X-16.441 Y-10.380
G1 X14.410 Y20.419
G1 X14.246 Y20.544
G1 X-16.544 Y-10.246
G1 X-16.669 Y-10.083
G1 X14.112 Y20.647
G1 X13.949 Y20.772
G1 X-16.772 Y-9.949
G1 X-16.897 Y-9.786
G1 X13.815 Y20.875
G1 X13.652 Y21.000
G1 X-17.000 Y-9.652
G1 X-17.125 Y-9.489
G1 X13.518 Y21.103
G1 X13.355 Y21.228
G1 X-17.228 Y-9.355
G1 X-17.353 Y-9.192
G1 X13.221 Y21.331
G1 X13.058 Y21.456
G1 X-17.456 Y-9.058
G1 X-17.581 Y-8.895
G1 X12.924 Y21.559
G1 X12.761 Y21.684
G1 X-17.684 Y-8.761
G1 X-17.809 Y-8.598
G1 X12.627 Y21.787
G1 X12.464 Y21.912
G1 X-17.912 Y-8.464
G1 X-18.037 Y-8.301
G1 X12.330 Y22.015
G1 X12.167 Y22.140
G1 X-18.140 Y-8.167
G1 X-18.265 Y-8.004
G1 X12.033 Y22.243
G1 X11.870 Y22.368
G1 X-18.368 Y-7.870
G1 X-18.493 Y-7.707
G1 X11.735 Y22.471
G1 X11.572 Y22.596
G1 X-18.596 Y-7.572
G1 X-18.721 Y-7.410
G1 X11.438 Y22.699
G1 X11.275 Y22.824
G1 X-18.824 Y-7.275
G1 X-18.949 Y-7.112
G1 X11.141 Y22.927
G1 X10.972 Y23.046
G1 X-19.046 Y-6.972
G1 X-19.130 Y-6.768
G1 X10.804 Y23.115
G1 X10.601 Y23.199
G1 X-19.199 Y-6.601
G1 X-19.284 Y-6.397
G1 X10.433 Y23.269
G1 X10.229 Y23.353
G1 X-19.353 Y-6.229
G1 X-19.437 Y-6.026
G1 X10.061 Y23.423
G1 X9.858 Y23.507
G1 X-19.507 Y-5.858
G1 X-19.591 Y-5.655
G1 X9.690 Y23.577
G1 X9.487 Y23.661
G1 X-19.661 Y-5.487
G1 X-19.745 Y-5.284
G1 X9.318 Y23.730
G1 X9.116 Y23.814
G1 X-19.814 Y-5.116
G1 X-19.899 Y-4.913
G1 X8.947 Y23.884
G1 X8.744 Y23.968
G1 X-19.968 Y-4.744
G1 X-20.052 Y-4.542
G1 X8.576 Y24.038
G1 X8.373 Y24.122
G1 X-20.122 Y-4.373
G1 X-20.206 Y-4.170
G1 X8.204 Y24.192
G1 X8.002 Y24.276
G1 X-20.276 Y-4.002
G1 X-20.360 Y-3.799
G1 X7.833 Y24.346
G1 X7.630 Y24.430
G1 X-20.430 Y-3.630
G1 X-20.513 Y-3.428
G1 X7.461 Y24.500
G1 X7.259 Y24.583
G1 X-20.583 Y-3.259
G1 X-20.667 Y-3.057
G1 X7.090 Y24.654
G1 X6.888 Y24.737
G1 X-20.737 Y-2.888
G1 X-20.821 Y-2.686
G1 X6.719 Y24.807
G1 X6.517 Y24.891
G1 X-20.891 Y-2.517
G1 X-20.975 Y-2.315
G1 X6.347 Y24.961
G1 X6.145 Y25.045
G1 X-21.045 Y-2.145
G1 X-21.128 Y-1.943
G1 X5.976 Y25.115
G1 X5.774 Y25.199
G1 X-21.199 Y-1.774
G1 X-21.247 Y-1.537
G1 X5.577 Y25.242
G1 X5.325 Y25.275
G1 X-21.275 Y-1.325
G1 X-21.308 Y-1.074
G1 X5.113 Y25.303
G1 X4.861 Y25.336
G1 X-21.336 Y-0.861
G1 X-21.369 Y-0.610
G1 X4.649 Y25.364
G1 X4.397 Y25.397
G1 X-21.397 Y-0.397
G1 X-21.430 Y-0.146
G1 X4.184 Y25.425
G1 X3.933 Y25.458
G1 X-21.458 Y0.067
G1 X-21.491 Y0.318
G1 X3.720 Y25.486
G1 X3.469 Y25.519
G1 X-21.519 Y0.531
G1 X-21.552 Y0.781
G1 X3.256 Y25.547
G1 X3.005 Y25.580
G1 X-21.580 Y0.995
G1 X-21.613 Y1.245
G1 X2.791 Y25.609
G1 X2.541 Y25.641
G1 X-21.641 Y1.459
G1 X-21.674 Y1.709
G1 X2.327 Y25.670
G1 X2.077 Y25.703
G1 X-21.703 Y1.923
G1 X-21.735 Y2.172
G1 X1.863 Y25.731
G1 X1.613 Y25.764
G1 X-21.764 Y2.387
G1 X-21.796 Y2.636
G1 X1.398 Y25.792
G1 X1.149 Y25.825
G1 X-21.825 Y2.851
G1 X-21.858 Y3.100
G1 X0.934 Y25.853
G1 X0.685 Y25.886
G1 X-21.886 Y3.315
G1 X-21.919 Y3.563
G1 X0.470 Y25.914
G1 X0.221 Y25.947
G1 X-21.947 Y3.779
G1 X-21.961 Y4.046
G1 X-0.004 Y25.966
G1 X-0.327 Y25.924
G1 X-21.924 Y4.327
G1 X-21.881 Y4.650
G1 X-0.609 Y25.887
G1 X-0.932 Y25.844
G1 X-21.844 Y4.932
G1 X-21.802 Y5.254
G1 X-1.214 Y25.807
G1 X-1.536 Y25.764
G1 X-21.764 Y5.536
G1 X-21.722 Y5.858
G1 X-1.820 Y25.727
G1 X-2.141 Y25.685
G1 X-21.685 Y6.141
G1 X-21.643 Y6.462
G1 X-2.425 Y25.647
G1 X-2.746 Y25.605
G1 X-21.605 Y6.746
G1 X-21.563 Y7.066
G1 X-3.030 Y25.568
G1 X-3.350 Y25.526
G1 X-21.526 Y7.350
G1 X-21.484 Y7.670
G1 X-3.636 Y25.488
G1 X-3.955 Y25.446
G1 X-21.446 Y7.955
G1 X-21.404 Y8.274
G1 X-4.241 Y25.408
G1 X-4.560 Y25.366
G1 X-21.366 Y8.560
G1 X-21.324 Y8.878
G1 X-4.846 Y25.329
G1 X-5.165 Y25.287
G1 X-21.287 Y9.165
G1 X-21.245 Y9.482
G1 X-5.452 Y25.249
G1 X-5.831 Y25.146
G1 X-21.146 Y9.831
G1 X-20.951 Y10.300
G1 X-6.258 Y24.969
G1 X-6.727 Y24.774
G1 X-20.774 Y10.727
G1 X-20.581 Y11.195
G1 X-7.156 Y24.597
G1 X-7.623 Y24.403
G1 X-20.403 Y11.623
G1 X-20.210 Y12.089
G1 X-8.054 Y24.225
G1 X-8.520 Y24.032
G1 X-20.032 Y12.520
G1 X-19.840 Y12.984
G1 X-8.952 Y23.853
G1 X-9.416 Y23.661
G1 X-19.661 Y13.416
G1 X-19.469 Y13.878
G1 X-9.851 Y23.481
G1 X-10.312 Y23.289
G1 X-19.289 Y14.312
G1 X-19.099 Y14.773
G1 X-10.749 Y23.109
G1 X-11.628 Y22.499
G1 X-18.499 Y15.628
G1 X-17.619 Y16.774
G1 X-12.739 Y21.646
G1 X-13.885 Y20.767
G1 X-16.767 Y17.885
G1 X-15.899 Y19.017
G1 X-15.011 Y19.903
G1 Z0.800
G1 X5.080 Y23.298 F7800.000
G1 X19.298 Y9.080 F3600.000
G1 X19.334 Y8.808
G1 X4.808 Y23.334
G1 X4.535 Y23.370
G1 X19.370 Y8.535
G1 X19.406 Y8.263
G1 X4.263 Y23.406
G1 X3.990 Y23.441
G1 X19.441 Y7.990
G1 X19.477 Y7.718
G1 X3.718 Y23.477
G1 X3.445 Y23.513
G1 X19.513 Y7.445
G1 X19.549 Y7.172
G1 X3.172 Y23.549
G1 X2.900 Y23.585
G1 X19.585 Y6.900
G1 X19.621 Y6.627
G1 X2.627 Y23.621
G1 X2.355 Y23.657
G1 X19.657 Y6.355
G1 X19.693 Y6.082
G1 X2.082 Y23.693
G1 X1.810 Y23.728
G1 X19.728 Y5.810
G1 X19.764 Y5.537
G1 X1.537 Y23.764
G1 X1.264 Y23.800
G1 X19.800 Y5.264
G1 X19.836 Y4.992
G1 X0.992 Y23.836
G1 X0.719 Y23.872
G1 X19.872 Y4.719
G1 X19.908 Y4.447
G1 X0.447 Y23.908
G1 X0.174 Y23.944
G1 X19.944 Y4.174
G1 X19.965 Y3.916
G1 X-0.084 Y23.965
G1 X-0.293 Y23.937
G1 X19.937 Y3.707
G1 X19.910 Y3.498
G1 X-0.502 Y23.910
G1 X-0.711 Y23.882
G1 X19.882 Y3.289
G1 X19.855 Y3.080
G1 X-0.920 Y23.855
G1 X-1.130 Y23.827
G1 X19.827 Y2.870
G1 X19.800 Y2.661
G1 X-1.339 Y23.800
G1 X-1.548 Y23.772
G1 X19.772 Y2.452
G1 X19.745 Y2.243
G1 X-1.757 Y23.745
G1 X-1.966 Y23.717
G1 X19.717 Y2.034
G1 X19.690 Y1.825
G1 X-2.175 Y23.690
G1 X-2.384 Y23.662
G1 X19.662 Y1.616
G1 X19.635 Y1.406
G1 X-2.594 Y23.635
G1 X-2.803 Y23.607
G1 X19.607 Y1.197
G1 X19.580 Y0.988
G1 X-3.012 Y23.580
G1 X-3.221 Y23.552
G1 X19.552 Y0.779
G1 X19.524 Y0.570
G1 X-3.430 Y23.524
G1 X-3.639 Y23.497
G1 X19.497 Y0.361
G1 X19.469 Y0.152
G1 X-3.848 Y23.469
G1 X-4.058 Y23.442
G1 X19.442 Y-0.058
G1 X19.414 Y-0.267
G1 X-4.267 Y23.414
G1 X-4.476 Y23.387
G1 X19.387 Y-0.476
G1 X19.359 Y-0.685
G1 X-4.685 Y23.359
G1 X-4.894 Y23.332
G1 X19.332 Y-0.894
G1 X19.304 Y-1.103
G1 X-5.103 Y23.304
G1 X-5.289 Y23.253
G1 X19.253 Y-1.289
G1 X19.184 Y-1.456
G1 X-5.456 Y23.184
G1 X-5.624 Y23.115
G1 X19.115 Y-1.624
G1 X19.045 Y-1.791
G1 X-5.791 Y23.045
G1 X-5.958 Y22.976
G1 X18.976 Y-1.958
G1 X18.907 Y-2.126
G1 X-6.126 Y22.907
G1 X-6.293 Y22.837
G1 X18.837 Y-2.293
G1 X18.768 Y-2.461
G1 X-6.461 Y22.768
G1 X-6.628 Y22.699
G1 X18.699 Y-2.628
G1 X18.629 Y-2.795
G1 X-6.795 Y22.629
G1 X-6.963 Y22.560
G1 X18.560 Y-2.963
G1 X18.491 Y-3.130
G1 X-7.130 Y22.491
G1 X-7.297 Y22.421
G1 X18.421 Y-3.297
G1 X18.352 Y-3.465
G1 X-7.465 Y22.352
G1 X-7.632 Y22.283
G1 X18.283 Y-3.632
G1 X18.213 Y-3.799
G1 X-7.799 Y22.213
G1 X-7.967 Y22.144
G1 X18.144 Y-3.967
G1 X18.075 Y-4.134
G1 X-8.134 Y22.075
G1 X-8.302 Y22.005
G1 X18.005 Y-4.302
G1 X17.936 Y-4.469
G1 X-8.469 Y21.936
G1 X-8.636 Y21.867
G1 X17.867 Y-4.636
G1 X17.797 Y-4.804
G1 X-8.804 Y21.797
G1 X-8.971 Y21.728
G1 X17.728 Y-4.971
G1 X17.659 Y-5.138
G1 X-9.138 Y21.659
G1 X-9.306 Y21.589
G1 X17.589 Y-5.306
G1 X17.520 Y-5.473
G1 X-9.473 Y21.520
G1 X-9.640 Y21.451
G1 X17.451 Y-5.640
G1 X17.382 Y-5.808
G1 X-9.808 Y21.382
G1 X-9.975 Y21.312
G1 X17.312 Y-5.975
G1 X17.215 Y-6.115
G1 X-10.115 Y21.215
G1 X-10.249 Y21.112
G1 X17.112 Y-6.249
G1 X17.010 Y-6.383
G1 X-10.383 Y21.010
G1 X-10.516 Y20.907
G1 X16.907 Y-6.516
G1 X16.804 Y-6.650
G1 X-10.650 Y20.804
G1 X-10.784 Y20.701
G1 X16.701 Y-6.784
G1 X16.599 Y-6.918
G1 X-10.918 Y20.599
G1 X-11.052 Y20.496
G1 X16.496 Y-7.052
G1 X16.393 Y-7.186
G1 X-11.186 Y20.393
G1 X-11.320 Y20.290
G1 X16.290 Y-7.320
G1 X16.187 Y-7.454
G1 X-11.454 Y20.187
G1 X-11.588 Y20.085
G1 X16.085 Y-7.588
G1 X15.982 Y-7.722
G1 X-11.722 Y19.982
G1 X-11.856 Y19.879
G1 X15.879 Y-7.856
G1 X15.776 Y-7.990
G1 X-11.990 Y19.776
G1 X-12.124 Y19.674
G1 X15.674 Y-8.124
G1 X15.571 Y-8.257
G1 X-12.257 Y19.571
G1 X-12.391 Y19.468
G1 X15.468 Y-8.391
G1 X15.365 Y-8.525
G1 X-12.525 Y19.365
G1 X-12.659 Y19.263
G1 X15.263 Y-8.659
G1 X15.160 Y-8.793
G1 X-12.793 Y19.160
G1 X-12.927 Y19.057
G1 X15.057 Y-8.927
G1 X14.954 Y-9.061
G1 X-13.061 Y18.954
G1 X-13.195 Y18.852
G1 X14.852 Y-9.195
G1 X14.749 Y-9.329
G1 X-13.329 Y18.749
G1 X-13.463 Y18.646
G1 X14.646 Y-9.463
G1 X14.543 Y-9.597
G1 X-13.597 Y18.543
G1 X-13.731 Y18.441
G1 X14.441 Y-9.731
G1 X14.338 Y-9.864
G1 X-13.864 Y18.338
G1 X-13.998 Y18.235
G1 X14.235 Y-9.998
G1 X14.118 Y-10.118
G1 X-14.118 Y18.118
G1 X-14.235 Y17.998
G1 X13.998 Y-10.235
G1 X13.864 Y-10.338
G1 X-14.338 Y17.864
G1 X-14.441 Y17.730
G1 X13.730 Y-10.441
G1 X13.597 Y-10.543
G1 X-14.543 Y17.597
G1 X-14.646 Y17.463
G1 X13.463 Y-10.646
G1 X13.329 Y-10.749
G1 X-14.749 Y17.329
G1 X-14.852 Y17.195
G1 X13.195 Y-10.852
G1 X13.061 Y-10.954
G1 X-14.954 Y17.061
G1 X-15.057 Y16.927
G1 X12.927 Y-11.057
G1 X12.793 Y-11.160
G1 X-15.160 Y16.793
G1 X-15.263 Y16.659
G1 X12.659 Y-11.263
G1 X12.525 Y-11.365
G1 X-15.365 Y16.525
G1 X-15.468 Y16.391
G1 X12.391 Y-11.468
G1 X12.257 Y-11.571
G1 X-15.571 Y16.257
G1 X-15.674 Y16.123
G1 X12.123 Y-11.674
G1 X11.989 Y-11.777
G1 X-15.777 Y15.989
G1 X-15.879 Y15.856
G1 X11.856 Y-11.879
G1 X11.722 Y-11.982
G1 X-15.982 Y15.722
G1 X-16.085 Y15.588
G1 X11.588 Y-12.085
G1 X11.454 Y-12.188
G1 X-16.188 Y15.454
G1 X-16.290 Y15.320
G1 X11.320 Y-12.290
G1 X11.186 Y-12.393
G1 X-16.393 Y15.186
G1 X-16.496 Y15.052
G1 X11.052 Y-12.496
G1 X10.918 Y-12.599
G1 X-16.599 Y14.918
G1 X-16.701 Y14.784
G1 X10.784 Y-12.701
G1 X10.650 Y-12.804
G1 X-16.804 Y14.650
G1 X-16.907 Y14.516
G1 X10.516 Y-12.907
G1 X10.382 Y-13.010
G1 X-17.010 Y14.382
G1 X-17.112 Y14.248
G1 X10.248 Y-13.112
G1 X10.115 Y-13.215
G1 X-17.215 Y14.115
G1 X-17.312 Y13.975
G1 X9.975 Y-13.312
G1 X9.808 Y-13.382
G1 X-17.382 Y13.808
G1 X-17.451 Y13.640
G1 X9.640 Y-13.451
G1 X9.473 Y-13.520
G1 X-17.520 Y13.473
G1 X-17.590 Y13.306
G1 X9.306 Y-13.590
G1 X9.138 Y-13.659
G1 X-17.659 Y13.138
G1 X-17.728 Y12.971
G1 X8.971 Y-13.728
G1 X8.803 Y-13.798
G1 X-17.798 Y12.803
G1 X-17.867 Y12.636
G1 X8.636 Y-13.867
G1 X8.469 Y-13.936
G1 X-17.936 Y12.469
G1 X-18.005 Y12.301
G1 X8.301 Y-14.005
G1 X8.134 Y-14.075
G1 X-18.075 Y12.134
G1 X-18.144 Y11.967
G1 X7.967 Y-14.144
G1 X7.799 Y-14.213
G1 X-18.213 Y11.799
G1 X-18.283 Y11.632
G1 X7.632 Y-14.283
G1 X7.465 Y-14.352
G1 X-18.352 Y11.465
G1 X-18.421 Y11.297
G1 X7.297 Y-14.421
G1 X7.130 Y-14.491
G1 X-18.491 Y11.130
G1 X-18.560 Y10.962
G1 X6.962 Y-14.560
G1 X6.795 Y-14.629
G1 X-18.629 Y10.795
G1 X-18.699 Y10.628
G1 X6.628 Y-14.699
G1 X6.460 Y-14.768
G1 X-18.768 Y10.460
G1 X-18.837 Y10.293
G1 X6.293 Y-14.837
G1 X6.126 Y-14.907
G1 X-18.907 Y10.126
G1 X-18.976 Y9.958
G1 X5.958 Y-14.976
G1 X5.791 Y-15.045
G1 X-19.045 Y9.791
G1 X-19.115 Y9.624
G1 X5.624 Y-15.115
G1 X5.456 Y-15.184
G1 X-19.184 Y9.456
G1 X-19.253 Y9.289
G1 X5.289 Y-15.253
G1 X5.103 Y-15.304
G1 X-19.304 Y9.103
G1 X-19.332 Y8.894
G1 X4.894 Y-15.332
G1 X4.685 Y-15.359
G1 X-19.359 Y8.685
G1 X-19.387 Y8.476
G1 X4.476 Y-15.387
G1 X4.267 Y-15.414
G1 X-19.414 Y8.267
G1 X-19.442 Y8.057
G1 X4.057 Y-15.442
G1 X3.848 Y-15.469
G1 X-19.469 Y7.848
G1 X-19.497 Y7.639
G1 X3.639 Y-15.497
G1 X3.430 Y-15.524
G1 X-19.524 Y7.430
G1 X-19.552 Y7.221
G1 X3.221 Y-15.552
G1 X3.012 Y-15.580
G1 X-19.580 Y7.012
G1 X-19.607 Y6.803
G1 X2.802 Y-15.607
G1 X2.593 Y-15.635
G1 X-19.635 Y6.593
G1 X-19.662 Y6.384
G1 X2.384 Y-15.662
G1 X2.175 Y-15.690
G1 X-19.690 Y6.175
G1 X-19.717 Y5.966
G1 X1.966 Y-15.717
G1 X1.757 Y-15.745
G1 X-19.745 Y5.757
G1 X-19.772 Y5.548
G1 X1.548 Y-15.772
G1 X1.338 Y-15.800
G1 X-19.800 Y5.338
G1 X-19.827 Y5.129
G1 X1.129 Y-15.827
G1 X0.920 Y-15.855
G1 X-19.855 Y4.920
G1 X-19.882 Y4.711
G1 X0.711 Y-15.882
G1 X0.502 Y-15.910
G1 X-19.910 Y4.502
G1 X-19.938 Y4.293
G1 X0.293 Y-15.938
G1 X0.084 Y-15.965
G1 X-19.965 Y4.084
G1 X-19.944 Y3.826
G1 X-0.174 Y-15.944
G1 X-0.447 Y-15.908
G1 X-19.908 Y3.553
G1 X-19.872 Y3.280
G1 X-0.720 Y-15.872
G1 X-0.992 Y-15.836
G1 X-19.836 Y3.008
G1 X-19.800 Y2.735
G1 X-1.265 Y-15.800
G1 X-1.537 Y-15.764
G1 X-19.764 Y2.463
G1 X-19.728 Y2.190
G1 X-1.810 Y-15.728
G1 X-2.082 Y-15.693
G1 X-19.693 Y1.918
G1 X-19.657 Y1.645
G1 X-2.355 Y-15.657
G1 X-2.627 Y-15.621
G1 X-19.621 Y1.373
G1 X-19.585 Y1.100
G1 X-2.900 Y-15.585
G1 X-3.173 Y-15.549
G1 X-19.549 Y0.827
G1 X-19.513 Y0.555
G1 X-3.445 Y-15.513
G1 X-3.718 Y-15.477
G1 X-19.477 Y0.282
G1 X-19.441 Y0.010
G1 X-3.990 Y-15.441
G1 X-4.263 Y-15.405
G1 X-19.405 Y-0.263
G1 X-19.370 Y-0.535
G1 X-4.535 Y-15.370
G1 X-4.808 Y-15.334
G1 X-19.334 Y-0.808
G1 X-19.298 Y-1.081
G1 X-5.081 Y-15.298
G1 X-5.464 Y-15.152 
G1 X-19.152 Y-1.464
G1 X-18.984 Y-1.868
G1 X-5.868 Y-14.984
G1 X-6.272 Y-14.817 
G1 X-18.817 Y-2.272
G1 X-18.650 Y-2.676
G1 X-6.676 Y-14.650 
G1 X-7.080 Y-14.482
G1 X-18.482 Y-3.080
G1 X-18.315 Y-3.484
G1 X-7.484 Y-14.315
G1 X-7.888 Y-14.147
G1 X-18.147 Y-3.888
G1 X-17.980 Y-4.292
G1 X-8.292 Y-13.980
G1 X-8.696 Y-13.813
G1 X-17.813 Y-4.696
G1 X-17.645 Y-5.100
G1 X-9.100 Y-13.645
G1 X-9.504 Y-13.478
G1 X-17.478 Y-5.504
G1 X-17.311 Y-5.908
G1 X-9.908 Y-13.311
G1 X-10.888 Y-12.567
G1 X-16.567 Y-6.888
G1 X-15.787 Y-7.905
G1 X-11.905 Y-11.787
G1 X-12.922 Y-11.006
G1 X-15.006 Y-8.922
G1 X5.463 Y23.152 F7800.000
G1 X19.152 Y9.463 F3600.000
G1 X18.984 Y9.867
G1 X5.867 Y22.984
G1 X6.271 Y22.817
G1 X18.817 Y10.271
G1 X18.650 Y10.675
G1 X6.675 Y22.650
G1 X7.079 Y22.482
G1 X18.482 Y11.079
G1 X18.315 Y11.483
G1 X7.483 Y22.315
G1 X7.887 Y22.148
G1 X18.148 Y11.887
G1 X17.980 Y12.291
G1 X8.291 Y21.980
G1 X8.695 Y21.813
G1 X17.813 Y12.696
G1 X17.645 Y13.100
G1 X9.100 Y21.646
G1 X9.504 Y21.478
G1 X17.478 Y13.504
G1 X17.311 Y13.908
G1 X9.908 Y21.311
G1 X10.887 Y20.568
G1 X16.568 Y14.887
G1 X15.787 Y15.904
G1 X11.904 Y19.787
G1 X12.922 Y19.007
G1 X15.007 Y16.922
G1 X14.226 Y17.939
G1 X13.939 Y18.226

M107
G1 Z1.200
G1 X13.372 Y18.661
G1 X14.661 Y17.372
G1 X15.515 Y16.259
G1 X12.279 Y19.500
G1 X11.115 Y20.393
G1 X16.393 Y15.115
G1 X17.256 Y13.990
G1 X10.034 Y21.222
G1 X9.506 Y21.477
G1 X17.477 Y13.506
G1 X17.663 Y13.057
G1 X9.078 Y21.654
G1 X8.610 Y21.848
G1 X17.848 Y12.610
G1 X18.035 Y12.160
G1 X8.183 Y22.025
G1 X7.713 Y22.220
G1 X18.220 Y11.713
G1 X18.407 Y11.262
G1 X7.289 Y22.396
G1 X6.817 Y22.591
G1 X18.591 Y10.817
G1 X18.779 Y10.364
G1 X6.394 Y22.766
G1 X5.920 Y22.962
G1 X18.962 Y9.920
G1 X19.151 Y9.466
G1 X5.499 Y23.137
G1 X5.057 Y23.301
G1 X19.301 Y9.057
G1 X19.341 Y8.749
G1 X4.773 Y23.338
G1 X4.452 Y23.381
G1 X19.381 Y8.452
G1 X19.421 Y8.144
G1 X4.169 Y23.418
G1 X3.847 Y23.460
G1 X19.460 Y7.847
G1 X19.501 Y7.539
G1 X3.565 Y23.497
G1 X3.243 Y23.540
G1 X19.540 Y7.243
G1 X19.580 Y6.933
G1 X2.961 Y23.577
G1 X2.638 Y23.619
G1 X19.619 Y6.638
G1 X19.660 Y6.328
G1 X2.357 Y23.656
G1 X2.033 Y23.699
G1 X19.699 Y6.033
G1 X19.740 Y5.723
G1 X1.753 Y23.736
G1 X1.429 Y23.779
G1 X19.779 Y5.429
G1 X19.820 Y5.118
G1 X1.148 Y23.816
G1 X0.824 Y23.858
G1 X19.858 Y4.824
G1 X19.899 Y4.512
G1 X0.544 Y23.895
G1 X0.219 Y23.938
G1 X19.938 Y4.219
G1 X19.972 Y3.914
G1 X-0.054 Y23.969
G1 X-0.304 Y23.936
G1 X19.972 Y3.660
G1 X19.972 Y3.389
G1 X-0.518 Y23.908
G1 X-0.768 Y23.875
G1 X19.972 Y3.135
G1 X19.972 Y2.863
G1 X-0.982 Y23.847
G1 X-1.232 Y23.814
G1 X19.972 Y2.610
G1 X19.972 Y2.338
G1 X-1.445 Y23.786
G1 X-1.696 Y23.753
G1 X19.972 Y2.085
G1 X19.972 Y1.812
G1 X-1.909 Y23.725
G1 X-2.160 Y23.692
G1 X19.972 Y1.560
G1 X19.972 Y1.287
G1 X-2.373 Y23.664
G1 X-2.624 Y23.631
G1 X19.972 Y1.035
G1 X19.972 Y0.761
G1 X-2.837 Y23.603
G1 X-3.088 Y23.569
G1 X19.972 Y0.510
G1 X19.972 Y0.236
G1 X-3.300 Y23.542
G1 X-3.552 Y23.508
G1 X19.972 Y-0.016
G1 X19.972 Y-0.289
G1 X-3.764 Y23.480
G1 X-4.016 Y23.447
G1 X19.972 Y-0.541
G1 X19.972 Y-0.815
G1 X-4.228 Y23.419
G1 X-4.480 Y23.386
G1 X19.972 Y-1.066
G1 X19.972 Y-1.340
G1 X-4.692 Y23.358
G1 X-4.944 Y23.325
G1 X19.972 Y-1.591
G1 X19.972 Y-1.866
G1 X-5.155 Y23.297
G1 X-5.365 Y23.222
G1 X19.972 Y-2.116
G1 X19.972 Y-2.391
G1 X-5.534 Y23.152
G1 X-5.737 Y23.068
G1 X19.972 Y-2.641
G1 X19.972 Y-2.917
G1 X-5.906 Y22.998
G1 X-6.108 Y22.914
G1 X19.972 Y-3.166
G1 X19.972 Y-3.442
G1 X-6.277 Y22.844
G1 X-6.479 Y22.760
G1 X19.972 Y-3.691
G1 X19.972 Y-3.968
G1 X-6.648 Y22.690
G1 X-6.851 Y22.606
G1 X19.972 Y-4.216
G1 X19.972 Y-4.493
G1 X-7.019 Y22.537
G1 X-7.222 Y22.453
G1 X19.972 Y-4.741
G1 X19.972 Y-5.019
G1 X-7.390 Y22.383
G1 X-7.593 Y22.299
G1 X19.972 Y-5.266
G1 X19.972 Y-5.544
G1 X-7.761 Y22.229
G1 X-7.964 Y22.145
G1 X19.972 Y-5.791
G1 X19.972 Y-6.070
G1 X-8.133 Y22.075
G1 X-8.336 Y21.991
G1 X19.972 Y-6.316
G1 X19.972 Y-6.595
G1 X-8.504 Y21.922
G1 X-8.707 Y21.837
G1 X19.972 Y-6.842
G1 X19.972 Y-7.120
G1 X-8.875 Y21.768
G1 X-9.078 Y21.684
G1 X19.972 Y-7.367
G1 X19.972 Y-7.646
G1 X-9.246 Y21.614
G1 X-9.450 Y21.530
G1 X19.972 Y-7.892
G1 X19.972 Y-8.171
G1 X-9.617 Y21.460
G1 X-9.821 Y21.376
G1 X19.972 Y-8.417
G1 X19.972 Y-8.697
G1 X-9.989 Y21.307
G1 X-10.154 Y21.185
G1 X19.972 Y-8.942
G1 X19.972 Y-9.222
G1 X-10.289 Y21.082
G1 X-10.452 Y20.957
G1 X16.985 Y-6.480
G1 X17.028 Y-6.523
G1 X19.972 Y-9.467
G1 X19.972 Y-9.748
G1 X17.028 Y-6.800
G1 X17.028 Y-7.048
G1 X19.972 Y-9.992
G1 X19.972 Y-10.273
G1 X17.028 Y-7.325
G1 X17.028 Y-7.573
G1 X19.972 Y-10.517
G1 X19.972 Y-10.799
G1 X17.028 Y-7.851
G1 X17.028 Y-8.098
G1 X19.972 Y-11.042
G1 X19.972 Y-11.324
G1 X17.028 Y-8.376
G1 X17.028 Y-8.623
G1 X19.972 Y-11.567
G1 X19.972 Y-11.850
G1 X17.028 Y-8.902
G1 X17.028 Y-9.149
G1 X19.972 Y-12.092
G1 X19.972 Y-12.375
G1 X17.028 Y-9.427
G1 X17.028 Y-9.674
G1 X19.972 Y-12.617
G1 X19.972 Y-12.900
G1 X17.028 Y-9.953
G1 X17.028 Y-10.199
G1 X19.972 Y-13.143
G1 X19.972 Y-13.426
G1 X17.028 Y-10.478
G1 X17.028 Y-10.724
G1 X19.972 Y-13.668
G1 X19.972 Y-13.951
G1 X17.028 Y-11.003
G1 X17.028 Y-11.249
G1 X19.972 Y-14.193
G1 X19.972 Y-14.477
G1 X17.028 Y-11.529
G1 X17.028 Y-11.774
G1 X19.972 Y-14.718
G1 X19.972 Y-15.002
G1 X17.028 Y-12.054
G1 X17.028 Y-12.299
G1 X19.972 Y-15.243
G1 X19.972 Y-15.528
G1 X17.028 Y-12.580
G1 X17.028 Y-12.824
G1 X19.972 Y-15.768
G1 X19.972 Y-16.053
G1 X17.028 Y-13.105
G1 X17.028 Y-13.349
G1 X19.972 Y-16.293
G1 X19.972 Y-16.579
G1 X17.028 Y-13.631
G1 X17.028 Y-13.874
G1 X19.972 Y-16.818
G1 X19.972 Y-17.104
G1 X17.028 Y-14.156
G1 X17.028 Y-14.399
G1 X19.972 Y-17.343
G1 X19.972 Y-17.630
G1 X17.028 Y-14.682
G1 X17.028 Y-14.924
G1 X19.972 Y-17.868
G1 X19.972 Y-18.155
G1 X17.028 Y-15.207
G1 X17.028 Y-15.449
G1 X19.972 Y-18.393
G1 X19.972 Y-18.681
G1 X17.028 Y-15.733
G1 X17.028 Y-15.975
G1 X19.972 Y-18.918
G1 X19.972 Y-19.206
G1 X17.028 Y-16.258
G1 X17.028 Y-16.500
G1 X19.972 Y-19.443
G1 X19.972 Y-19.731
G1 X17.028 Y-16.783
G1 X17.028 Y-17.025
G1 X19.972 Y-19.969
G1 X19.972 Y-20.257
G1 X17.028 Y-17.309
G1 X17.028 Y-17.550
G1 X19.972 Y-20.494
G1 X19.972 Y-20.782
G1 X17.028 Y-17.834
G1 X17.028 Y-18.075
G1 X19.925 Y-20.972
G1 X19.637 Y-20.972
G1 X17.028 Y-18.360
G1 X17.028 Y-18.600
G1 X19.400 Y-20.972
G1 X19.112 Y-20.972
G1 X17.028 Y-18.885
G1 X17.028 Y-19.125
G1 X18.875 Y-20.972
G1 X18.587 Y-20.972
G1 X17.028 Y-19.411
G1 X17.028 Y-19.650
G1 X18.350 Y-20.972
G1 X18.062 Y-20.972
G1 X17.028 Y-19.936
G1 X17.028 Y-20.175
G1 X17.825 Y-20.972
G1 X17.538 Y-20.972
G1 X17.028 Y-20.462
G1 X17.028 Y-20.700
G1 X17.300 Y-20.972
G1 X10.823 Y-12.671 F7800.000
G1 X-16.654 Y14.845 F3600.000
G1 X-16.551 Y14.980
G1 X10.980 Y-12.551
G1 X11.120 Y-12.443
G1 X-16.426 Y15.143
G1 X-16.323 Y15.277
G1 X11.277 Y-12.323
G1 X11.417 Y-12.215
G1 X-16.198 Y15.440
G1 X-16.095 Y15.574
G1 X11.574 Y-12.095
G1 X11.714 Y-11.988
G1 X-15.970 Y15.737
G1 X-15.868 Y15.871
G1 X11.871 Y-11.868
G1 X12.012 Y-11.760
G1 X-15.742 Y16.034
G1 X-15.640 Y16.168
G1 X12.168 Y-11.640
G1 X12.309 Y-11.532
G1 X-15.514 Y16.331
G1 X-15.412 Y16.465
G1 X12.465 Y-11.412
G1 X12.606 Y-11.304
G1 X-15.286 Y16.628
G1 X-15.184 Y16.762
G1 X12.762 Y-11.184
G1 X12.903 Y-11.076
G1 X-15.058 Y16.925
G1 X-14.956 Y17.059
G1 X13.059 Y-10.956
G1 X13.200 Y-10.848
G1 X-14.830 Y17.223
G1 X-14.728 Y17.356
G1 X13.356 Y-10.728
G1 X13.497 Y-10.620
G1 X-14.602 Y17.520
G1 X-14.500 Y17.653
G1 X13.653 Y-10.500
G1 X13.794 Y-10.392
G1 X-14.374 Y17.817
G1 X-14.272 Y17.951
G1 X13.951 Y-10.272
G1 X14.091 Y-10.164
G1 X-14.146 Y18.114
G1 X-14.017 Y18.221
G1 X14.221 Y-10.017
G1 X14.329 Y-9.876
G1 X-13.854 Y18.346
G1 X-13.720 Y18.449
G1 X14.449 Y-9.720
G1 X14.557 Y-9.579
G1 X-13.556 Y18.574
G1 X-13.423 Y18.677
G1 X14.677 Y-9.423
G1 X14.785 Y-9.282
G1 X-13.259 Y18.802
G1 X-13.126 Y18.905
G1 X14.905 Y-9.126
G1 X15.013 Y-8.985
G1 X-12.962 Y19.030
G1 X-12.828 Y19.133
G1 X15.133 Y-8.828
G1 X15.241 Y-8.688
G1 X-12.665 Y19.258
G1 X-12.531 Y19.361
G1 X15.361 Y-8.531
G1 X15.469 Y-8.391
G1 X-12.368 Y19.486
G1 X-12.234 Y19.589
G1 X15.589 Y-8.234
G1 X15.697 Y-8.094
G1 X-12.071 Y19.714
G1 X-11.937 Y19.817
G1 X15.817 Y-7.937
G1 X15.925 Y-7.796
G1 X-11.774 Y19.942
G1 X-11.640 Y20.045
G1 X16.045 Y-7.640
G1 X16.153 Y-7.499
G1 X-11.477 Y20.170
G1 X-11.343 Y20.273
G1 X16.273 Y-7.343
G1 X16.381 Y-7.202
G1 X-11.180 Y20.398
G1 X-11.046 Y20.501
G1 X16.501 Y-7.046
G1 X16.609 Y-6.905
G1 X-10.883 Y20.626
G1 X-10.749 Y20.729
G1 X16.729 Y-6.749
G1 X16.837 Y-6.608
G1 X-10.586 Y20.854
G1 X-16.779 Y14.682 F7800.000
G1 X10.682 Y-12.779 F3600.000
G1 X10.526 Y-12.899
G1 X-16.882 Y14.548
G1 X-17.007 Y14.385
G1 X10.385 Y-13.007
G1 X10.229 Y-13.127
G1 X-17.110 Y14.251
G1 X-17.235 Y14.088
G1 X10.088 Y-13.235
G1 X9.914 Y-13.337
G1 X-17.326 Y13.942
G1 X-17.410 Y13.738
G1 X9.738 Y-13.410
G1 X9.543 Y-13.491
G1 X-17.480 Y13.570
G1 X-17.564 Y13.367
G1 X9.367 Y-13.564
G1 X9.172 Y-13.645
G1 X-17.634 Y13.199
G1 X-17.718 Y12.996
G1 X8.996 Y-13.718
G1 X8.801 Y-13.799
G1 X-17.788 Y12.828
G1 X-17.872 Y12.624
G1 X8.624 Y-13.872
G1 X8.429 Y-13.952
G1 X-17.941 Y12.456
G1 X-18.026 Y12.253
G1 X8.253 Y-14.026
G1 X8.058 Y-14.106
G1 X-18.095 Y12.085
G1 X-18.179 Y11.882
G1 X7.882 Y-14.179
G1 X7.687 Y-14.260
G1 X-18.249 Y11.713
G1 X-18.333 Y11.510
G1 X7.510 Y-14.333
G1 X7.316 Y-14.414
G1 X-18.403 Y11.342
G1 X-18.487 Y11.139
G1 X7.139 Y-14.487
G1 X6.945 Y-14.567
G1 X-18.557 Y10.971
G1 X-18.641 Y10.768
G1 X6.768 Y-14.641
G1 X6.574 Y-14.721
G1 X-18.711 Y10.599
G1 X-18.794 Y10.397
G1 X6.397 Y-14.794
G1 X6.202 Y-14.875
G1 X-18.864 Y10.228
G1 X-18.948 Y10.025
G1 X6.025 Y-14.948
G1 X5.831 Y-15.029
G1 X-19.018 Y9.856
G1 X-19.102 Y9.654
G1 X5.654 Y-15.102
G1 X5.460 Y-15.182
G1 X-19.172 Y9.485
G1 X-19.256 Y9.283
G1 X5.283 Y-15.256
G1 X5.062 Y-15.310
G1 X-19.306 Y9.093
G1 X-19.339 Y8.840
G1 X4.840 Y-15.339
G1 X4.599 Y-15.371
G1 X-19.367 Y8.629
G1 X-19.400 Y8.377
G1 X4.377 Y-15.400
G1 X4.135 Y-15.432
G1 X-19.428 Y8.165
G1 X-19.461 Y7.913
G1 X3.913 Y-15.461
G1 X3.671 Y-15.493
G1 X-19.489 Y7.700
G1 X-19.522 Y7.449
G1 X3.449 Y-15.522
G1 X3.207 Y-15.554
G1 X-19.550 Y7.236
G1 X-19.583 Y6.985
G1 X2.985 Y-15.583
G1 X2.744 Y-15.615
G1 X-19.611 Y6.772
G1 X-19.644 Y6.521
G1 X2.521 Y-15.644
G1 X2.280 Y-15.676
G1 X-19.672 Y6.308
G1 X-19.705 Y6.057
G1 X2.057 Y-15.705
G1 X1.816 Y-15.737
G1 X-19.733 Y5.843
G1 X-19.766 Y5.593
G1 X1.593 Y-15.766
G1 X1.352 Y-15.798
G1 X-19.794 Y5.379
G1 X-19.827 Y5.129
G1 X1.129 Y-15.827
G1 X0.889 Y-15.859
G1 X-19.856 Y4.915
G1 X-19.889 Y4.665
G1 X0.665 Y-15.889
G1 X0.425 Y-15.920
G1 X-19.917 Y4.451
G1 X-19.950 Y4.201
G1 X0.201 Y-15.950
G1 X-0.061 Y-15.959
G1 X-19.963 Y3.972
G1 X-19.920 Y3.646
G1 X-0.354 Y-15.920
G1 X-0.665 Y-15.879
G1 X-19.883 Y3.366
G1 X-19.840 Y3.041
G1 X-0.959 Y-15.840
G1 X-1.270 Y-15.800
G1 X-19.804 Y2.761
G1 X-19.761 Y2.437
G1 X-1.563 Y-15.761
G1 X-1.874 Y-15.720
G1 X-19.724 Y2.156
G1 X-19.681 Y1.832
G1 X-2.168 Y-15.681
G1 X-2.478 Y-15.640
G1 X-19.644 Y1.550
G1 X-19.602 Y1.227
G1 X-2.773 Y-15.602
G1 X-3.082 Y-15.561
G1 X-19.565 Y0.945
G1 X-19.522 Y0.622
G1 X-3.378 Y-15.522
G1 X-3.686 Y-15.481
G1 X-19.485 Y0.340
G1 X-19.442 Y0.018
G1 X-3.982 Y-15.442
G1 X-4.290 Y-15.402
G1 X-19.405 Y-0.265
G1 X-19.363 Y-0.587
G1 X-4.587 Y-15.363
G1 X-4.894 Y-15.322
G1 X-19.325 Y-0.871
G1 X-19.251 Y-1.224
G1 X-5.224 Y-15.251
G1 X-5.678 Y-15.063
G1 X-19.076 Y-1.646
G1 X-18.879 Y-2.120
G1 X-6.120 Y-14.879
G1 X-6.573 Y-14.692
G1 X-18.704 Y-2.544
G1 X-18.508 Y-3.017
G1 X-7.017 Y-14.508
G1 X-7.468 Y-14.321
G1 X-18.332 Y-3.442
G1 X-18.137 Y-3.913
G1 X-7.913 Y-14.137
G1 X-8.363 Y-13.951
G1 X-17.960 Y-4.339
G1 X-17.766 Y-4.809
G1 X-8.809 Y-13.766
G1 X-9.258 Y-13.580
G1 X-17.588 Y-5.237
G1 X-17.394 Y-5.706
G1 X-9.706 Y-13.394
G1 X-10.484 Y-12.877
G1 X-16.907 Y-6.445
G1 X-16.007 Y-7.619
G1 X-11.619 Y-12.007
G1 X-12.729 Y-11.155
G1 X-15.166 Y-8.714
G1 X-14.275 Y-9.875
G1 X-13.875 Y-10.275

; filament used = 0.0mm (0.0cm3)

; avoid_crossing_perimeters = 0
; bed_shape = -100x-100,100x-100,100x100,-100x100
; bed_temperature = 0
; before_layer_gcode = 
; bridge_acceleration = 0
; bridge_fan_speed = 100
; brim_width = 0
; complete_objects = 0
; cooling = 1
; default_acceleration = 0
; disable_fan_first_layers = 3
; duplicate_distance = 6
; end_gcode = 
; extruder_clearance_height = 20
; extruder_clearance_radius = 20
; extruder_offset = 0x0
; extrusion_axis = E
; extrusion_multiplier = 1
; fan_always_on = 0
; fan_below_layer_time = 60
; filament_colour = #FFFFFF
; filament_diameter = 3
; first_layer_acceleration = 0
; first_layer_bed_temperature = 0
; first_layer_extrusion_width = 200%
; first_layer_speed = 60
; first_layer_temperature = 200
; gcode_arcs = 0
; gcode_comments = 0
; gcode_flavor = no-extrusion
; infill_acceleration = 0
; infill_first = 0
; layer_gcode = 
; max_fan_speed = 100
; max_print_speed = 60
; max_volumetric_speed = 0
; min_fan_speed = 35
; min_print_speed = 10
; min_skirt_length = 0
; notes = 
; nozzle_diameter = 0.2
; only_retract_when_crossing_perimeters = 1
; ooze_prevention = 0
; output_filename_format = [input_filename_base].gcode
; perimeter_acceleration = 0
; post_process = 
; pressure_advance = 0
; resolution = 0
; retract_before_travel = 2
; retract_layer_change = 0
; retract_length = 0
; retract_length_toolchange = 10
; retract_lift = 0
; retract_restart_extra = 0
; retract_restart_extra_toolchange = 0
; retract_speed = 30
; skirt_distance = 0
; skirt_height = 0
; skirts = 0
; slowdown_below_layer_time = 5
; spiral_vase = 0
; standby_temperature_delta = -5
; start_gcode = 
; temperature = 200
; threads = 2
; toolchange_gcode = 
; travel_speed = 130
; use_firmware_retraction = 0
; use_relative_e_distances = 0
; use_volumetric_e = 0
; vibration_limit = 0
; wipe = 0
; z_offset = 0
; dont_support_bridges = 1
; extrusion_width = 0
; first_layer_height = 0.2
; infill_only_where_needed = 0
; interface_shells = 0
; layer_height = 0.2
; raft_layers = 0
; seam_position = aligned
; support_material = 0
; support_material_angle = 0
; support_material_contact_distance = 0.2
; support_material_enforce_layers = 0
; support_material_extruder = 1
; support_material_extrusion_width = 0
; support_material_interface_extruder = 1
; support_material_interface_layers = 3
; support_material_interface_spacing = 0
; support_material_interface_speed = 100%
; support_material_pattern = pillars
; support_material_spacing = 2.5
; support_material_speed = 60
; support_material_threshold = 0
; xy_size_compensation = 0
; bottom_solid_layers = 0
; bridge_flow_ratio = 1
; bridge_speed = 60
; external_fill_pattern = rectilinear
; external_perimeter_extrusion_width = 0
; external_perimeter_speed = 100%
; external_perimeters_first = 0
; extra_perimeters = 0
; fill_angle = 45
; fill_density = 90%
; fill_pattern = line
; gap_fill_speed = 60
; infill_every_layers = 1
; infill_extruder = 1
; infill_extrusion_width = 0
; infill_overlap = 15%
; infill_speed = 60
; overhangs = 1
; perimeter_extruder = 1
; perimeter_extrusion_width = 0
; perimeter_speed = 60
; perimeters = 0
; small_perimeter_speed = 60
; solid_infill_below_area = 70
; solid_infill_every_layers = 0
; solid_infill_extruder = 1
; solid_infill_extrusion_width = 0
; solid_infill_speed = 60
; thin_walls = 1
; top_infill_extrusion_width = 0
; top_solid_infill_speed = 60
; top_solid_layers = 1
