; generated by Slic3r 1.1.7 on 2018-03-14 at 12:53:48

; perimeters extrusion width = 0.20mm
; infill extrusion width = 0.21mm
; solid infill extrusion width = 0.21mm
; top infill extrusion width = 0.21mm

G21 ; set units to millimeters
M107
M104 S200 ; set temperature

M109 S200 ; wait for temperature to be reached
G90 ; use absolute coordinates
G1 Z0.200 F7800.000
G1 X82.261 Y78.751 F7800.000
G1 X81.748 Y78.239 F3600.000
G1 X81.236 Y78.239
G1 X82.261 Y79.264
G1 X82.261 Y79.871
G1 X80.624 Y78.239
G1 X80.114 Y78.239
G1 X82.261 Y80.386
G1 X82.261 Y80.992
G1 X79.500 Y78.239
G1 X78.992 Y78.239
G1 X82.261 Y81.508
G1 X82.261 Y82.112
G1 X78.376 Y78.239
G1 X77.870 Y78.239
G1 X82.261 Y82.630
G1 X81.788 Y82.761
G1 X77.739 Y78.725
G1 X77.739 Y79.230
G1 X81.270 Y82.761
G1 X80.664 Y82.761
G1 X77.739 Y79.845
G1 X77.739 Y80.352
G1 X80.261 Y82.875
G1 X80.261 Y83.480
G1 X77.739 Y80.965
G1 X77.739 Y81.475
G1 X80.261 Y83.997
G1 X80.261 Y84.600
G1 X77.739 Y82.086
G1 X77.739 Y82.597
G1 X80.261 Y85.119
G1 X80.261 Y85.721
G1 X77.739 Y83.206
G1 X77.739 Y83.719
G1 X80.261 Y86.241
G1 X80.261 Y86.841
G1 X77.739 Y84.327
G1 X77.739 Y84.841
G1 X80.261 Y87.363
G1 X80.261 Y87.961 F7800.000
G1 X77.739 Y85.447 F3600.000
G1 X77.739 Y85.963
G1 X84.767 Y92.991
G1 X84.688 Y93.495
G1 X77.739 Y86.567
G1 X77.739 Y87.086
G1 X84.643 Y93.990
G1 X84.595 Y94.523
G1 X77.739 Y87.688
G1 X77.717 Y88.186
G1 X84.551 Y95.019
G1 X84.503 Y95.551
G1 X77.648 Y88.717
G1 X77.588 Y89.179
G1 X84.458 Y96.049
G1 X84.410 Y96.579
G1 X77.519 Y89.709
G1 X77.459 Y90.172
G1 X84.365 Y97.078
G1 X84.317 Y97.607
G1 X77.390 Y90.701
G1 X77.330 Y91.165
G1 X84.272 Y98.107
G1 X84.225 Y98.635
G1 X77.261 Y91.693
G1 X77.200 Y92.158
G1 X84.318 Y99.276
G1 X84.548 Y100.078
G1 X77.132 Y92.685
G1 X77.071 Y93.151
G1 X84.769 Y100.849
G1 X84.998 Y101.646
G1 X77.003 Y93.677
G1 X76.942 Y94.144
G1 X85.220 Y102.422
G1 X85.447 Y103.215
G1 X76.874 Y94.669
G1 X76.813 Y95.137
G1 X85.671 Y103.995
G1 X86.496 Y105.381 F7800.000
G1 X76.940 Y95.855 F3600.000
G1 X77.058 Y96.504
G1 X88.248 Y107.695
G1 X90.224 Y109.670 F7800.000
G1 X98.000 Y117.447 F3600.000
G1 X97.379 Y117.350
G1 X77.189 Y97.223
G1 X77.307 Y97.876
G1 X96.671 Y117.240
G1 X96.047 Y117.142
G1 X77.438 Y98.592
G1 X77.557 Y99.248
G1 X95.342 Y117.033
G1 X94.715 Y116.935
G1 X77.686 Y99.960
G1 X77.806 Y100.619
G1 X94.012 Y116.825
G1 X93.383 Y116.727
G1 X77.935 Y101.329
G1 X78.056 Y101.991
G1 X92.504 Y116.439
G1 X91.431 Y115.903 F7800.000
G1 X78.573 Y103.085 F3600.000
G1 X79.193 Y104.250 F7800.000
G1 X90.259 Y115.317 F3600.000
G1 X89.176 Y114.775 F7800.000
G1 X79.842 Y105.471 F3600.000
G1 X80.469 Y106.649 F7800.000
G1 X88.015 Y114.195 F3600.000
G1 X86.921 Y113.648 F7800.000
G1 X81.112 Y107.856 F3600.000
G1 X91.737 Y110.606 F7800.000
G1 X98.711 Y117.557 F3600.000
G1 X99.330 Y117.654
G1 X93.162 Y111.486
G1 X94.472 Y112.211 F7800.000
G1 X100.032 Y117.753 F3600.000
G1 X100.481 Y117.683
G1 X95.133 Y112.334
G1 X95.855 Y112.469
G1 X101.004 Y117.602
G1 X101.452 Y117.532
G1 X96.512 Y112.592
G1 X97.238 Y112.727
G1 X101.976 Y117.450
G1 X102.423 Y117.381
G1 X97.892 Y112.850
G1 X98.621 Y112.986
G1 X102.948 Y117.299
G1 X103.394 Y117.229
G1 X99.272 Y113.107
G1 X100.002 Y113.243
G1 X103.920 Y117.148
G1 X104.365 Y117.078
G1 X100.446 Y113.160
G1 X100.949 Y113.066
G1 X104.892 Y116.996
G1 X105.336 Y116.927
G1 X101.392 Y112.983
G1 X101.896 Y112.889
G1 X105.864 Y116.845
G1 X106.307 Y116.776
G1 X102.338 Y112.807
G1 X102.843 Y112.712
G1 X106.836 Y116.693
G1 X107.227 Y116.574
G1 X103.283 Y112.630
G1 X103.789 Y112.536
G1 X107.635 Y116.369
G1 X107.975 Y116.200
G1 X104.229 Y112.454
G1 X104.736 Y112.359
G1 X108.384 Y115.995
G1 X108.723 Y115.825
G1 X105.175 Y112.277
G1 X105.683 Y112.182
G1 X109.132 Y115.621
G1 X109.471 Y115.451
G1 X106.015 Y111.995
G1 X106.388 Y111.765
G1 X109.881 Y115.247
G1 X110.219 Y115.077
G1 X106.708 Y111.566
G1 X107.081 Y111.336
G1 X110.629 Y114.872
G1 X110.968 Y114.703
G1 X107.402 Y111.138
G1 X107.775 Y110.907
G1 X111.378 Y114.498
G1 X111.716 Y114.329
G1 X108.095 Y110.709
G1 X108.469 Y110.478
G1 X112.126 Y114.124
G1 X112.464 Y113.955
G1 X108.789 Y110.280
G1 X109.163 Y110.049
G1 X112.875 Y113.750
G1 X113.212 Y113.581
G1 X109.483 Y109.852
G1 X109.857 Y109.621
G1 X113.580 Y113.332
G1 X113.836 Y113.083
G1 X110.176 Y109.423
G1 X110.550 Y109.192
G1 X114.148 Y112.778
G1 X114.404 Y112.529
G1 X110.811 Y108.936
G1 X111.072 Y108.592
G1 X114.716 Y112.224
G1 X114.972 Y111.975
G1 X111.295 Y108.298
G1 X111.556 Y107.953
G1 X115.285 Y111.670
G1 X115.540 Y111.421
G1 X111.779 Y107.659
G1 X112.039 Y107.315
G1 X115.853 Y111.116
G1 X116.109 Y110.867
G1 X112.262 Y107.020
G1 X112.523 Y106.676
G1 X116.421 Y110.562
G1 X116.677 Y110.313
G1 X112.746 Y106.382
G1 X113.006 Y106.038
G1 X116.989 Y110.008
G1 X117.245 Y109.759
G1 X113.230 Y105.743
G1 X113.490 Y105.399
G1 X117.557 Y109.454
G1 X117.813 Y109.205
G1 X113.713 Y105.105
G1 X113.973 Y104.761
G1 X118.126 Y108.900
G1 X118.381 Y108.651
G1 X114.195 Y104.464
G1 X114.329 Y103.995
G1 X118.651 Y108.303
G1 X118.826 Y107.973
G1 X114.445 Y103.592
G1 X114.579 Y103.124
G1 X119.040 Y107.571
G1 X119.216 Y107.241
G1 X114.695 Y102.720
G1 X114.829 Y102.252
G1 X119.430 Y106.839
G1 X119.606 Y106.508
G1 X114.945 Y101.848
G1 X115.079 Y101.381
G1 X119.819 Y106.107
G1 X119.995 Y105.776
G1 X115.195 Y100.975
G1 X115.328 Y100.510
G1 X120.209 Y105.375
G1 X120.385 Y105.043
G1 X115.445 Y100.103
G1 X115.578 Y99.638
G1 X120.598 Y104.643
G1 X120.775 Y104.311
G1 X115.695 Y99.231
G1 X115.783 Y98.722
G1 X120.988 Y103.910
G1 X121.164 Y103.578
G1 X115.731 Y98.145
G1 X115.672 Y97.491
G1 X121.377 Y103.178
G1 X121.554 Y102.846
G1 X115.620 Y96.912
G1 X115.561 Y96.260
G1 X121.767 Y102.446
G1 X121.925 Y102.095
G1 X115.509 Y95.679
G1 X115.450 Y95.029
G1 X122.020 Y101.578
G1 X122.098 Y101.146
G1 X115.398 Y94.445
G1 X115.339 Y93.798
G1 X122.192 Y100.629
G1 X122.271 Y100.196
G1 X115.287 Y93.212
G1 X114.824 Y92.164 F7800.000
G1 X122.364 Y99.681 F3600.000
G1 X122.443 Y99.247
G1 X114.300 Y91.103
G1 X113.733 Y89.956 F7800.000
G1 X122.537 Y98.732 F3600.000
G1 X122.616 Y98.297
G1 X113.204 Y88.884
G1 X113.135 Y88.239
G1 X122.709 Y97.784
G1 X122.789 Y97.347
G1 X113.680 Y88.239
G1 X114.258 Y88.239
G1 X122.882 Y96.835
G1 X122.961 Y96.398
G1 X114.802 Y88.239
G1 X115.382 Y88.239
G1 X123.054 Y95.887
G1 X123.134 Y95.448
G1 X115.925 Y88.239
G1 X116.506 Y88.239
G1 X123.151 Y94.863
G1 X123.073 Y94.266
G1 X117.047 Y88.239
G1 X117.630 Y88.239
G1 X122.984 Y93.575
G1 X122.906 Y92.976
G1 X118.169 Y88.239
G1 X118.754 Y88.239
G1 X122.816 Y92.288
G1 X122.738 Y91.686
G1 X119.291 Y88.239
G1 X119.878 Y88.239
G1 X122.649 Y91.001
G1 X122.571 Y90.396
G1 X120.413 Y88.239
G1 X121.002 Y88.239
G1 X122.482 Y89.714
G1 X122.403 Y89.106
G1 X121.535 Y88.239
G1 X122.126 Y88.239
G1 X122.315 Y88.427
G1 X86.748 Y88.239 F7800.000
G1 X86.994 Y88.485 F3600.000
G1 X86.800 Y88.877
G1 X86.159 Y88.239
G1 X85.625 Y88.239
G1 X86.623 Y89.236
G1 X86.429 Y89.628
G1 X85.035 Y88.239
G1 X84.503 Y88.239
G1 X86.252 Y89.987
G1 X86.058 Y90.379
G1 X83.911 Y88.239
G1 X83.381 Y88.239
G1 X85.880 Y90.738
G1 X85.687 Y91.129
G1 X82.787 Y88.239
G1 X82.259 Y88.239
G1 X85.509 Y91.489
G1 X85.316 Y91.880
G1 X81.663 Y88.239
G1 X81.137 Y88.239
G1 X85.138 Y92.240
G1 X84.945 Y92.631
G1 X80.540 Y88.239
G1 X92.779 Y85.261 F7800.000
G1 X92.739 Y85.221 F3600.000
G1 X92.739 Y84.700
G1 X93.300 Y85.261
G1 X93.821 Y85.261
G1 X92.739 Y84.179
G1 X92.739 Y83.658
G1 X94.342 Y85.261
G1 X94.863 Y85.261
G1 X92.739 Y83.137
G1 X92.739 Y82.616
G1 X95.261 Y85.138
G1 X95.261 Y84.617
G1 X92.739 Y82.094
G1 X92.739 Y81.573
G1 X95.261 Y84.096
G1 X95.261 Y83.574
G1 X92.739 Y81.052
G1 X92.739 Y80.531
G1 X95.261 Y83.053
G1 X95.490 Y82.761
G1 X92.739 Y80.010
G1 X92.739 Y79.489
G1 X96.011 Y82.761
G1 X96.532 Y82.761
G1 X92.739 Y78.968
G1 X92.739 Y78.447
G1 X97.053 Y82.761
G1 X97.261 Y82.448
G1 X93.052 Y78.239
G1 X93.573 Y78.239
G1 X97.261 Y81.927
G1 X97.261 Y81.406
G1 X94.094 Y78.239
G1 X94.616 Y78.239
G1 X97.261 Y80.884
G1 X97.261 Y80.363
G1 X95.137 Y78.239
G1 X95.658 Y78.239
G1 X97.261 Y79.842
G1 X97.261 Y79.321
G1 X96.179 Y78.239
G1 X96.700 Y78.239
G1 X97.261 Y78.800
G1 X97.261 Y78.279
G1 X97.221 Y78.239
G1 X103.153 Y82.761 F7800.000
G1 X102.739 Y82.347 F3600.000
G1 X102.739 Y81.829
G1 X103.677 Y82.761
G1 X104.275 Y82.761
G1 X102.739 Y81.225
G1 X102.739 Y80.711
G1 X107.261 Y85.201
G1 X107.261 Y84.625
G1 X102.739 Y80.103
G1 X102.739 Y79.593
G1 X107.261 Y84.083
G1 X107.261 Y83.503
G1 X102.739 Y78.981
G1 X102.739 Y78.475
G1 X107.261 Y82.965
G1 X107.261 Y82.381
G1 X103.119 Y78.239
G1 X103.628 Y78.239
G1 X107.261 Y81.847
G1 X107.261 Y81.259
G1 X104.241 Y78.239
G1 X104.754 Y78.239
G1 X107.261 Y80.729
G1 X107.261 Y80.137
G1 X105.363 Y78.239
G1 X105.880 Y78.239
G1 X107.261 Y79.610
G1 X107.261 Y79.014
G1 X106.486 Y78.239
G1 X107.006 Y78.239
G1 X107.261 Y78.492
G1 X104.739 Y83.225 F7800.000
G1 X107.261 Y85.748 F3600.000
G1 X107.261 Y86.320
G1 X104.739 Y83.815
G1 X104.739 Y84.347
G1 X107.261 Y86.870
G1 X107.261 Y87.438
G1 X104.739 Y84.934
G1 X104.739 Y85.470
G1 X107.261 Y87.992
G1 X108.751 Y90.036 F7800.000
G1 X104.739 Y86.052 F3600.000
G1 X104.739 Y86.592
G1 X110.109 Y91.962
G1 X110.291 Y92.683
G1 X104.739 Y87.170
G1 X104.739 Y87.714
G1 X110.488 Y93.463
G1 X110.668 Y94.175
G1 X104.689 Y88.239
G1 X104.142 Y88.239
G1 X110.867 Y94.965
G1 X111.045 Y95.668
G1 X103.563 Y88.239
G1 X103.019 Y88.239
G1 X111.113 Y96.332
G1 X111.041 Y96.783
G1 X102.437 Y88.239
G1 X101.897 Y88.239
G1 X110.959 Y97.301
G1 X110.889 Y97.749
G1 X101.311 Y88.239
G1 X100.775 Y88.239
G1 X110.806 Y98.270
G1 X110.736 Y98.716
G1 X100.184 Y88.239
G1 X99.653 Y88.239
G1 X110.653 Y99.239
G1 X110.583 Y99.682
G1 X99.058 Y88.239
G1 X98.531 Y88.239
G1 X110.500 Y100.208
G1 X110.391 Y100.610
G1 X97.932 Y88.239
G1 X97.408 Y88.239
G1 X110.155 Y100.986
G1 X109.958 Y101.298
G1 X96.806 Y88.239
G1 X96.286 Y88.239
G1 X109.722 Y101.675
G1 X109.526 Y101.987
G1 X95.680 Y88.239
G1 X95.164 Y88.239
G1 X109.289 Y102.364
G1 X109.093 Y102.676
G1 X94.554 Y88.239
G1 X94.042 Y88.239
G1 X108.856 Y103.053
G1 X108.661 Y103.365
G1 X93.427 Y88.239
G1 X92.920 Y88.239
G1 X108.423 Y103.743
G1 X108.228 Y104.053
G1 X92.482 Y88.418
G1 X92.263 Y88.705
G1 X107.949 Y104.390
G1 X107.650 Y104.597
G1 X91.997 Y89.055
G1 X91.778 Y89.342
G1 X107.286 Y104.849
G1 X106.986 Y105.057
G1 X91.511 Y89.691
G1 X91.293 Y89.978
G1 X106.623 Y105.309
G1 X106.323 Y105.516
G1 X91.026 Y90.328
G1 X90.807 Y90.615
G1 X105.960 Y105.768
G1 X105.660 Y105.976
G1 X90.541 Y90.964
G1 X90.322 Y91.252
G1 X105.297 Y106.227
G1 X104.997 Y106.436
G1 X90.056 Y91.601
G1 X89.894 Y91.947
G1 X104.634 Y106.687
G1 X104.311 Y106.873
G1 X89.771 Y92.436
G1 X89.668 Y92.843
G1 X103.803 Y106.977
G1 X103.377 Y107.064
G1 X89.545 Y93.330
G1 X89.442 Y93.739
G1 X102.871 Y107.168
G1 X102.444 Y107.256
G1 X89.320 Y94.224
G1 X89.216 Y94.635
G1 X101.940 Y107.359
G1 X101.510 Y107.447
G1 X89.094 Y95.118
G1 X88.990 Y95.531
G1 X101.008 Y107.550
G1 X100.577 Y107.638
G1 X88.868 Y96.013
G1 X88.928 Y96.592
G1 X100.077 Y107.740
G1 X99.457 Y107.645
G1 X89.041 Y97.302
G1 X89.139 Y97.925
G1 X98.706 Y107.491
G1 X98.039 Y107.354
G1 X89.250 Y98.628
G1 X89.350 Y99.258
G1 X97.294 Y107.202
G1 X96.620 Y107.064
G1 X89.460 Y99.955
G1 X89.658 Y100.688
G1 X95.883 Y106.913
G1 X94.532 Y106.109 F7800.000
G1 X90.629 Y102.233 F3600.000
G1 X91.553 Y103.705 F7800.000
G1 X92.659 Y104.811 F3600.000
G1 X119.779 Y85.261 F7800.000
G1 X119.739 Y85.221 F3600.000
G1 X119.739 Y84.695
G1 X120.305 Y85.261
G1 X120.830 Y85.261
G1 X119.739 Y84.170
G1 X119.739 Y83.644
G1 X121.356 Y85.261
G1 X121.882 Y85.261
G1 X119.739 Y83.118
G1 X119.382 Y82.761 F7800.000
G1 X117.739 Y81.118 F3600.000
G1 X117.739 Y80.592
G1 X122.261 Y85.114
G1 X122.261 Y84.589
G1 X117.739 Y80.066
G1 X117.739 Y79.540
G1 X122.261 Y84.063
G1 X122.261 Y83.537
G1 X117.739 Y79.015
G1 X117.739 Y78.489
G1 X122.261 Y83.011
G1 X122.261 Y82.485
G1 X118.015 Y78.239
G1 X118.540 Y78.239
G1 X122.261 Y81.960
G1 X122.261 Y81.434
G1 X119.066 Y78.239
G1 X119.592 Y78.239
G1 X122.261 Y80.908
G1 X122.261 Y80.382
G1 X120.118 Y78.239
G1 X120.644 Y78.239
G1 X122.261 Y79.856
G1 X122.261 Y79.330
G1 X121.170 Y78.239
G1 X121.695 Y78.239
G1 X122.261 Y78.805
G1 X122.261 Y78.279
G1 X122.221 Y78.239
G1 X118.856 Y82.761 F7800.000
G1 X117.739 Y81.644 F3600.000
G1 X117.739 Y82.170
G1 X118.330 Y82.761
G1 X117.805 Y82.761
G1 X117.739 Y82.695
M106 S255
G1 Z0.400 F7800.000
M107
G1 Z0.600 F7800.000
G1 X127.402 Y84.704 F7800.000
G1 X127.325 Y84.627 F3600.000
G1 X126.985 Y84.627
G1 X127.463 Y85.105
G1 X127.518 Y85.471
G1 X126.672 Y84.627
G1 X126.331 Y84.627
G1 X127.578 Y85.873
G1 X127.633 Y86.239
G1 X126.018 Y84.627
G1 X125.678 Y84.627
G1 X127.693 Y86.642
G1 X127.748 Y87.007
G1 X125.364 Y84.627
G1 X125.025 Y84.627
G1 X127.809 Y87.411
G1 X127.863 Y87.774
G1 X124.710 Y84.627
G1 X124.372 Y84.627
G1 X127.924 Y88.179
G1 X127.978 Y88.542
G1 X124.057 Y84.627
G1 X123.718 Y84.627
G1 X128.039 Y88.948
G1 X128.094 Y89.310
G1 X123.403 Y84.627
G1 X123.065 Y84.627
G1 X128.155 Y89.716
G1 X128.209 Y90.077
G1 X122.749 Y84.627
G1 X122.412 Y84.627
G1 X128.270 Y90.485
G1 X128.324 Y90.845
G1 X122.095 Y84.627
G1 X121.759 Y84.627
G1 X128.385 Y91.253
G1 X128.439 Y91.612
G1 X121.441 Y84.627
G1 X121.106 Y84.627
G1 X128.501 Y92.022
G1 X128.554 Y92.380
G1 X120.788 Y84.627
G1 X120.452 Y84.627
G1 X128.616 Y92.790
G1 X128.670 Y93.148
G1 X120.134 Y84.627
G1 X119.799 Y84.627
G1 X128.683 Y93.510
G1 X128.640 Y93.770
G1 X119.480 Y84.627
G1 X119.146 Y84.627
G1 X128.590 Y94.071
G1 X128.547 Y94.331
G1 X118.826 Y84.627
G1 X118.493 Y84.627
G1 X128.497 Y94.631
G1 X128.454 Y94.891
G1 X118.173 Y84.627
G1 X117.839 Y84.627
G1 X128.405 Y95.192
G1 X128.362 Y95.451
G1 X117.519 Y84.627
G1 X117.186 Y84.627
G1 X128.312 Y95.753
G1 X128.269 Y96.011
G1 X116.865 Y84.627
G1 X116.533 Y84.627
G1 X128.219 Y96.313
G1 X128.177 Y96.572
G1 X116.211 Y84.627
G1 X115.880 Y84.627
G1 X128.127 Y96.874
G1 X128.084 Y97.132
G1 X115.557 Y84.627
G1 X115.227 Y84.627
G1 X128.034 Y97.434
G1 X127.992 Y97.692
G1 X114.904 Y84.627
G1 X114.573 Y84.627
G1 X127.942 Y97.995
G1 X127.899 Y98.253
G1 X114.250 Y84.627
G1 X113.920 Y84.627
G1 X127.849 Y98.556
G1 X127.806 Y98.813
G1 X113.596 Y84.627
G1 X113.267 Y84.627
G1 X127.756 Y99.116
G1 X127.714 Y99.373
G1 X112.942 Y84.627
G1 X112.614 Y84.627
G1 X127.664 Y99.677
G1 X127.621 Y99.933
G1 X112.289 Y84.627
G1 X111.960 Y84.627
G1 X127.571 Y100.237
G1 X127.529 Y100.494
G1 X111.635 Y84.627
G1 X111.307 Y84.627
G1 X127.479 Y100.798
G1 X127.436 Y101.054
G1 X110.981 Y84.627
G1 X110.654 Y84.627
G1 X127.386 Y101.359
G1 X127.344 Y101.614
G1 X110.327 Y84.627
G1 X110.001 Y84.627
G1 X127.293 Y101.919
G1 X127.251 Y102.174
G1 X109.673 Y84.627
G1 X109.348 Y84.627
G1 X127.135 Y102.415
G1 X127.034 Y102.611
G1 X109.020 Y84.627
G1 X108.694 Y84.627
G1 X126.913 Y102.846
G1 X126.812 Y103.041
G1 X108.366 Y84.627
G1 X108.041 Y84.627
G1 X126.691 Y103.276
G1 X126.590 Y103.472
G1 X107.712 Y84.627
G1 X107.388 Y84.627
G1 X126.468 Y103.707
G1 X126.367 Y103.903
G1 X105.556 Y83.127
G1 X105.235 Y83.127
G1 X126.246 Y104.138
G1 X126.145 Y104.334
G1 X104.902 Y83.127
G1 X104.627 Y83.172
G1 X126.024 Y104.569
G1 X125.923 Y104.764
G1 X104.627 Y83.505
G1 X104.627 Y83.825
G1 X125.801 Y105.000
G1 X125.701 Y105.195
G1 X104.627 Y84.157
G1 X104.627 Y84.478
G1 X125.579 Y105.431
G1 X125.478 Y105.626
G1 X104.443 Y84.627
G1 X104.122 Y84.627
G1 X125.357 Y105.862
G1 X125.256 Y106.057
G1 X103.789 Y84.627
