; generated by Slic3r 1.2.9 on 2018-02-20 at 14:15:50

; external perimeters extrusion width = 0.20mm
; perimeters extrusion width = 0.21mm
; infill extrusion width = 0.21mm
; solid infill extrusion width = 0.21mm
; top infill extrusion width = 0.21mm

M107
M104 S200 ; set temperature

M109 S200 ; wait for temperature to be reached
G21 ; set units to millimeters
G90 ; use absolute coordinates
G1 Z0.200 
G1 X7.241 Y-7.892 F7800.000
G1 X5.797 Y-9.334 F3600.000
G1 X5.797 Y-9.091
G1 X7.241 Y-7.647
G1 X7.241 Y-7.367
G1 X5.797 Y-8.809
G1 X5.797 Y-8.566
G1 X7.241 Y-7.122
G1 X7.241 Y-6.843
G1 X5.797 Y-8.284
G1 X5.797 Y-8.041
G1 X7.241 Y-6.597
G1 X7.241 Y-6.318
G1 X5.797 Y-7.760
G1 X5.797 Y-7.516
G1 X7.241 Y-6.072
G1 X7.241 Y-5.794
G1 X5.797 Y-7.235
G1 X5.797 Y-6.991
G1 X7.241 Y-5.547
G1 X7.241 Y-5.269
G1 X5.797 Y-6.710
G1 X5.797 Y-6.465
G1 X7.241 Y-5.022
G1 X7.241 Y-4.744
G1 X5.797 Y-6.186
G1 X5.797 Y-5.940
G1 X7.241 Y-4.497
G1 X7.241 Y-4.220
G1 X5.797 Y-5.661
G1 X5.797 Y-5.415
G1 X7.241 Y-3.972
G1 X7.241 Y-3.695
G1 X5.797 Y-5.137
G1 X5.797 Y-4.890
G1 X7.241 Y-3.446
G1 X7.241 Y-3.170
G1 X5.797 Y-4.612
G1 X5.797 Y-4.365
G1 X7.241 Y-2.921
G1 X7.241 Y-2.646
G1 X5.797 Y-4.087
G1 X5.797 Y-3.840
G1 X7.241 Y-2.396
G1 X7.241 Y-2.121
G1 X5.797 Y-3.563
G1 X5.797 Y-3.315
G1 X7.241 Y-1.871
G1 X7.241 Y-1.596
G1 X5.797 Y-3.038
G1 X5.797 Y-2.790
G1 X7.241 Y-1.346
G1 X7.241 Y-1.072
G1 X5.797 Y-2.513
G1 X5.797 Y-2.265
G1 X7.241 Y-0.821
G1 X7.241 Y-0.547
G1 X5.797 Y-1.989
G1 X5.797 Y-1.740
G1 X7.241 Y-0.296
G1 X7.241 Y-0.022
G1 X5.797 Y-1.464
G1 X5.797 Y-1.215
G1 X7.241 Y0.229
G1 X7.241 Y0.502
G1 X5.797 Y-0.939
G1 X5.797 Y-0.690
G1 X7.241 Y0.754
G1 X7.241 Y1.027
G1 X5.797 Y-0.415
G1 X5.797 Y-0.165
G1 X7.241 Y1.279
G1 X7.241 Y1.552
G1 X5.797 Y0.110
G1 X5.797 Y0.361
G1 X7.241 Y1.804
G1 X7.241 Y2.076
G1 X5.797 Y0.635
G1 X5.797 Y0.886
G1 X7.241 Y2.329
G1 X7.241 Y2.601
G1 X5.797 Y1.159
G1 X5.797 Y1.411
G1 X7.241 Y2.855
G1 X7.241 Y3.126
G1 X5.797 Y1.684
G1 X5.797 Y1.936
G1 X7.241 Y3.380
G1 X7.241 Y3.650
G1 X5.797 Y2.209
G1 X5.797 Y2.461
G1 X7.241 Y3.905
G1 X7.241 Y4.175
G1 X5.797 Y2.733
G1 X5.797 Y2.986
G1 X7.241 Y4.430
G1 X7.241 Y4.700
G1 X5.797 Y3.258
G1 X5.797 Y3.511
G1 X7.241 Y4.955
G1 X7.241 Y5.224
G1 X5.797 Y3.783
G1 X5.797 Y4.036
G1 X7.241 Y5.480
G1 X7.241 Y5.749
G1 X5.797 Y4.307
G1 X5.797 Y4.561
G1 X7.241 Y6.005
G1 X7.241 Y6.274
G1 X5.797 Y4.832
G1 X5.797 Y5.086
G1 X7.241 Y6.530
G1 X7.241 Y6.798
G1 X5.797 Y5.357
G1 X5.797 Y5.611
G1 X7.241 Y7.055
G1 X7.241 Y7.323
G1 X5.797 Y5.881
G1 X5.797 Y6.136
G1 X7.241 Y7.580
G1 X7.241 Y7.848
G1 X5.797 Y6.406
G1 X5.797 Y6.662
G1 X7.241 Y8.105
G1 X7.241 Y8.372
G1 X5.797 Y6.931
G1 X5.797 Y7.187
G1 X7.241 Y8.630
G1 X7.241 Y8.897
G1 X5.797 Y7.455
G1 X5.797 Y7.712
G1 X7.241 Y9.156
G1 X7.241 Y9.421
G1 X5.797 Y7.980
G1 X5.797 Y8.237
G1 X7.241 Y9.681
G1 X7.241 Y9.946
G1 X5.797 Y8.505
G1 X5.797 Y8.762
G1 X7.241 Y10.206
G1 X7.241 Y10.471
G1 X5.797 Y9.029
G1 X5.797 Y9.287
G1 X7.241 Y10.731
G1 X7.241 Y10.995
G1 X5.797 Y9.554
G1 X5.797 Y9.812
G1 X7.241 Y11.256
G1 X7.241 Y11.520
G1 X5.797 Y10.078
G1 X5.797 Y10.337
G1 X7.241 Y11.781
G1 X7.241 Y12.045
G1 X5.797 Y10.603
G1 X5.797 Y10.862
G1 X7.241 Y12.306
G1 X7.241 Y12.569
G1 X5.797 Y11.128
G1 X5.797 Y11.387
G1 X7.241 Y12.831
G1 X7.241 Y13.094
G1 X5.797 Y11.652
G1 X5.797 Y11.912
G1 X7.241 Y13.356
G1 X7.241 Y13.619
G1 X5.797 Y12.177
G1 X5.797 Y12.437
G1 X7.241 Y13.881
G1 X7.241 Y14.143
G1 X5.797 Y12.702
G1 X5.797 Y12.962
G1 X7.241 Y14.406
G1 X7.241 Y14.668
G1 X5.797 Y13.226
G1 X5.797 Y13.488
G1 X7.241 Y14.931
G1 X7.241 Y15.193
G1 X5.797 Y13.751
G1 X5.797 Y14.013
G1 X7.241 Y15.456
G1 X7.241 Y15.717
G1 X5.797 Y14.276
G1 X5.797 Y14.538
G1 X7.241 Y15.982
G1 X7.288 Y16.028 F7800.000
G1 X8.732 Y17.472 F3600.000
G1 X8.473 Y17.472
G1 X5.797 Y14.800
G1 X5.797 Y15.063
G1 X8.206 Y17.472
G1 X7.948 Y17.472
G1 X5.797 Y15.325
G1 X5.797 Y15.588
G1 X7.681 Y17.472
G1 X7.422 Y17.472
G1 X5.797 Y15.850
G1 X5.797 Y16.113
G1 X7.156 Y17.472
G1 X6.897 Y17.472
G1 X5.797 Y16.374
G1 X5.797 Y16.638
G1 X6.631 Y17.472
G1 X6.371 Y17.472
G1 X5.797 Y16.899
G1 X5.797 Y17.163
G1 X6.106 Y17.472
G1 X7.553 Y16.028 F7800.000
G1 X8.999 Y17.472 F3600.000
G1 X9.257 Y17.472
G1 X7.813 Y16.028
G1 X8.078 Y16.028
G1 X9.524 Y17.472
G1 X9.782 Y17.472
G1 X8.338 Y16.028
G1 X8.604 Y16.028
G1 X10.050 Y17.472
G1 X10.307 Y17.472
G1 X8.863 Y16.028
G1 X9.129 Y16.028
G1 X10.575 Y17.472
G1 X10.832 Y17.472
G1 X9.388 Y16.028
G1 X9.655 Y16.028
G1 X11.101 Y17.472
G1 X11.357 Y17.472
G1 X9.913 Y16.028
G1 X10.180 Y16.028
G1 X11.626 Y17.472
G1 X11.882 Y17.472
G1 X10.438 Y16.028
G1 X10.706 Y16.028
G1 X12.152 Y17.472
G1 X12.407 Y17.472
G1 X10.963 Y16.028
G1 X11.231 Y16.028
G1 X12.677 Y17.472
G1 X12.932 Y17.472
G1 X11.488 Y16.028
G1 X11.757 Y16.028
G1 X13.203 Y17.472
G1 X13.457 Y17.472
G1 X12.013 Y16.028
G1 X12.282 Y16.028
G1 X13.728 Y17.472
G1 X13.982 Y17.472
G1 X12.538 Y16.028
G1 X12.808 Y16.028
G1 X14.254 Y17.472
G1 X14.507 Y17.472
G1 X13.064 Y16.028
G1 X13.333 Y16.028
G1 X14.779 Y17.472
G1 X15.032 Y17.472
G1 X13.589 Y16.028
G1 X13.859 Y16.028
G1 X15.305 Y17.472
G1 X15.558 Y17.472
G1 X14.114 Y16.028
G1 X14.384 Y16.028
G1 X15.830 Y17.472
G1 X16.083 Y17.472
G1 X14.639 Y16.028
G1 X14.910 Y16.028
G1 X16.356 Y17.472
G1 X16.608 Y17.472
G1 X15.164 Y16.028
G1 X15.435 Y16.028
G1 X16.881 Y17.472
G1 X17.133 Y17.472
G1 X15.689 Y16.028
G1 X15.961 Y16.028
G1 X17.407 Y17.472
G1 X17.658 Y17.472
G1 X16.214 Y16.028
G1 X16.486 Y16.028
G1 X17.932 Y17.472
G1 X18.183 Y17.472
G1 X16.739 Y16.028
G1 X17.012 Y16.028
G1 X18.458 Y17.472
G1 X18.708 Y17.472
G1 X17.264 Y16.028
G1 X17.537 Y16.028
G1 X18.983 Y17.472
G1 X19.233 Y17.472
G1 X17.789 Y16.028
G1 X18.063 Y16.028
G1 X19.509 Y17.472
G1 X19.758 Y17.472
G1 X18.314 Y16.028
G1 X18.588 Y16.028
G1 X20.034 Y17.472
G1 X20.283 Y17.472
G1 X18.839 Y16.028
G1 X19.114 Y16.028
G1 X20.560 Y17.472
G1 X20.808 Y17.472
G1 X19.365 Y16.028
G1 X19.639 Y16.028
G1 X21.085 Y17.472
G1 X21.333 Y17.472
G1 X19.890 Y16.028
G1 X20.165 Y16.028
G1 X21.611 Y17.472
G1 X21.859 Y17.472
G1 X20.415 Y16.028
G1 X20.690 Y16.028
G1 X22.136 Y17.472
G1 X22.384 Y17.472
G1 X20.940 Y16.028
G1 X21.216 Y16.028
G1 X22.662 Y17.472
G1 X22.909 Y17.472
G1 X21.465 Y16.028
G1 X21.741 Y16.028
G1 X23.187 Y17.472
G1 X23.434 Y17.472
G1 X21.990 Y16.028
G1 X22.267 Y16.028
G1 X23.713 Y17.472
G1 X23.959 Y17.472
G1 X22.515 Y16.028
G1 X22.792 Y16.028
G1 X24.238 Y17.472
G1 X24.484 Y17.472
G1 X23.040 Y16.028
G1 X23.318 Y16.028
G1 X24.764 Y17.472
G1 X25.009 Y17.472
G1 X23.565 Y16.028
G1 X23.843 Y16.028
G1 X25.289 Y17.472
G1 X25.534 Y17.472
G1 X24.090 Y16.028
G1 X24.369 Y16.028
G1 X25.815 Y17.472
G1 X26.059 Y17.472
G1 X24.615 Y16.028
G1 X24.894 Y16.028
G1 X26.340 Y17.472
G1 X26.584 Y17.472
G1 X25.140 Y16.028
G1 X25.420 Y16.028
G1 X26.866 Y17.472
G1 X27.109 Y17.472
G1 X25.666 Y16.028
G1 X25.945 Y16.028
G1 X27.391 Y17.472
G1 X27.634 Y17.472
G1 X26.191 Y16.028
G1 X26.471 Y16.028
G1 X27.917 Y17.472
G1 X28.159 Y17.472
G1 X26.716 Y16.028
G1 X26.996 Y16.028
G1 X28.442 Y17.472
G1 X28.685 Y17.472
G1 X27.241 Y16.028
G1 X27.522 Y16.028
G1 X28.968 Y17.472
G1 X29.210 Y17.472
G1 X27.766 Y16.028
G1 X28.047 Y16.028
G1 X29.493 Y17.472
G1 X29.735 Y17.472
G1 X28.291 Y16.028
G1 X28.573 Y16.028
G1 X30.019 Y17.472
G1 X30.260 Y17.472
G1 X28.816 Y16.028
G1 X29.098 Y16.028
G1 X30.544 Y17.472
G1 X30.785 Y17.472
G1 X29.341 Y16.028
G1 X29.624 Y16.028
G1 X31.070 Y17.472
G1 X31.310 Y17.472
G1 X29.866 Y16.028
G1 X30.149 Y16.028
G1 X31.595 Y17.472
G1 X31.835 Y17.472
G1 X30.391 Y16.028
G1 X30.675 Y16.028
G1 X32.121 Y17.472
G1 X32.360 Y17.472
G1 X30.916 Y16.028
G1 X31.200 Y16.028
G1 X32.646 Y17.472
G1 X32.885 Y17.472
G1 X31.441 Y16.028
G1 X31.726 Y16.028
G1 X33.172 Y17.472
G1 X33.410 Y17.472
G1 X31.966 Y16.028
G1 X32.251 Y16.028
G1 X33.697 Y17.472
G1 X33.935 Y17.472
G1 X32.492 Y16.028
G1 X32.777 Y16.028
G1 X34.223 Y17.472
G1 X34.460 Y17.472
G1 X33.017 Y16.028
G1 X33.302 Y16.028
G1 X34.748 Y17.472
G1 X34.986 Y17.472
G1 X33.542 Y16.028
G1 X33.828 Y16.028
G1 X35.274 Y17.472
G1 X35.511 Y17.472
G1 X34.067 Y16.028
G1 X34.297 Y15.972 F7800.000
G1 X35.741 Y17.414 F3600.000
G1 X35.741 Y17.177
G1 X34.297 Y15.734
G1 X34.297 Y15.447
G1 X35.741 Y16.889
G1 X35.741 Y16.652
G1 X34.297 Y15.208
G1 X34.297 Y14.923
G1 X35.741 Y16.364
G1 X35.741 Y16.127
G1 X34.297 Y14.683
G1 X34.297 Y14.398
G1 X35.741 Y15.840
G1 X35.741 Y15.602
G1 X34.297 Y14.158
G1 X34.297 Y13.874
G1 X35.741 Y15.315
G1 X35.741 Y15.077
G1 X34.297 Y13.633
G1 X34.297 Y13.349
G1 X35.741 Y14.790
G1 X35.741 Y14.552
G1 X34.297 Y13.108
G1 X34.297 Y12.824
G1 X35.741 Y14.266
G1 X35.741 Y14.027
G1 X34.297 Y12.583
G1 X34.297 Y12.300
G1 X35.741 Y13.741
G1 X35.741 Y13.502
G1 X34.297 Y12.058
G1 X34.297 Y11.775
G1 X35.741 Y13.216
G1 X35.741 Y12.977
G1 X34.297 Y11.533
G1 X34.297 Y11.250
G1 X35.741 Y12.692
G1 X35.741 Y12.452
G1 X34.297 Y11.008
G1 X34.297 Y10.726
G1 X35.741 Y12.167
G1 X35.741 Y11.927
G1 X34.297 Y10.483
G1 X34.297 Y10.201
G1 X35.741 Y11.643
G1 X35.741 Y11.401
G1 X34.297 Y9.958
G1 X34.297 Y9.676
G1 X35.741 Y11.118
G1 X35.741 Y10.876
G1 X34.297 Y9.433
G1 X34.297 Y9.152
G1 X35.741 Y10.593
G1 X35.741 Y10.351
G1 X34.297 Y8.907
G1 X34.297 Y8.627
G1 X35.741 Y10.069
G1 X35.741 Y9.826
G1 X34.297 Y8.382
G1 X34.297 Y8.102
G1 X35.741 Y9.544
G1 X35.741 Y9.301
G1 X34.297 Y7.857
G1 X34.297 Y7.578
G1 X35.741 Y9.019
G1 X35.741 Y8.776
G1 X34.297 Y7.332
G1 X34.297 Y7.053
G1 X35.741 Y8.495
G1 X35.741 Y8.251
G1 X34.297 Y6.807
G1 X34.297 Y6.528
G1 X35.741 Y7.970
G1 X35.741 Y7.726
G1 X34.297 Y6.282
G1 X34.297 Y6.004
G1 X35.741 Y7.445
G1 X35.741 Y7.201
G1 X34.297 Y5.757
G1 X34.297 Y5.479
G1 X35.741 Y6.921
G1 X35.741 Y6.676
G1 X34.297 Y5.232
G1 X34.297 Y4.954
G1 X35.741 Y6.396
G1 X35.741 Y6.151
G1 X34.297 Y4.707
G1 X34.297 Y4.430
G1 X35.741 Y5.871
G1 X35.741 Y5.626
G1 X34.297 Y4.182
G1 X34.297 Y3.905
G1 X35.741 Y5.347
G1 X35.741 Y5.101
G1 X34.297 Y3.657
G1 X34.297 Y3.380
G1 X35.741 Y4.822
G1 X35.741 Y4.575
G1 X34.297 Y3.132
G1 X34.297 Y2.856
G1 X35.741 Y4.297
G1 X35.741 Y4.050
G1 X34.297 Y2.607
G1 X34.297 Y2.331
G1 X35.741 Y3.773
G1 X35.741 Y3.525
G1 X34.297 Y2.081
G1 X34.297 Y1.806
G1 X35.741 Y3.248
G1 X35.741 Y3.000
G1 X34.297 Y1.556
G1 X34.297 Y1.282
G1 X35.741 Y2.723
G1 X35.741 Y2.475
G1 X34.297 Y1.031
G1 X34.297 Y0.757
G1 X35.741 Y2.199
G1 X35.741 Y1.950
G1 X34.297 Y0.506
G1 X34.297 Y0.232
G1 X35.741 Y1.674
G1 X35.741 Y1.425
G1 X34.297 Y-0.019
G1 X34.297 Y-0.292
G1 X35.741 Y1.149
G1 X35.741 Y0.900
G1 X34.297 Y-0.544
G1 X34.297 Y-0.817
G1 X35.741 Y0.625
G1 X35.741 Y0.375
G1 X34.297 Y-1.069
G1 X34.297 Y-1.341
G1 X35.741 Y0.100
G1 X35.741 Y-0.150
G1 X34.297 Y-1.594
G1 X34.297 Y-1.866
G1 X35.741 Y-0.425
G1 X35.741 Y-0.675
G1 X34.297 Y-2.119
G1 X34.297 Y-2.391
G1 X35.741 Y-0.949
G1 X35.741 Y-1.200
G1 X34.297 Y-2.644
G1 X34.297 Y-2.915
G1 X35.741 Y-1.474
G1 X35.741 Y-1.726
G1 X34.297 Y-3.169
G1 X34.297 Y-3.440
G1 X35.741 Y-1.999
G1 X35.741 Y-2.251
G1 X34.297 Y-3.694
G1 X34.297 Y-3.965
G1 X35.741 Y-2.523
G1 X35.741 Y-2.776
G1 X34.297 Y-4.220
G1 X34.297 Y-4.489
G1 X35.741 Y-3.048
G1 X35.741 Y-3.301
G1 X34.297 Y-4.745
G1 X34.297 Y-5.014
G1 X35.741 Y-3.572
G1 X35.741 Y-3.826
G1 X34.297 Y-5.270
G1 X34.297 Y-5.539
G1 X35.741 Y-4.097
G1 X35.741 Y-4.351
G1 X34.297 Y-5.795
G1 X34.297 Y-6.063
G1 X35.741 Y-4.622
G1 X35.741 Y-4.876
G1 X34.297 Y-6.320
G1 X34.297 Y-6.588
G1 X35.741 Y-5.146
G1 X35.741 Y-5.401
G1 X34.297 Y-6.845
G1 X34.297 Y-7.113
G1 X35.741 Y-5.671
G1 X35.741 Y-5.926
G1 X34.297 Y-7.370
G1 X34.297 Y-7.637
G1 X35.741 Y-6.196
G1 X35.741 Y-6.451
G1 X34.297 Y-7.895
G1 X34.297 Y-8.162
G1 X35.741 Y-6.720
G1 X35.741 Y-6.976
G1 X34.297 Y-8.420
G1 X34.297 Y-8.687
G1 X35.741 Y-7.245
G1 X35.741 Y-7.501
G1 X34.297 Y-8.945
G1 X34.297 Y-9.211
G1 X35.741 Y-7.770
G1 X35.741 Y-8.027
G1 X34.297 Y-9.470
G1 X34.297 Y-9.736
G1 X35.741 Y-8.294
G1 X35.741 Y-8.552
G1 X34.297 Y-9.995
G1 X34.297 Y-10.261
G1 X35.741 Y-8.819
G1 X35.741 Y-9.077
G1 X34.297 Y-10.520
G1 X34.297 Y-10.785
G1 X35.741 Y-9.344
G1 X34.315 Y-11.028 F7800.000
G1 X32.871 Y-12.472 F3600.000
G1 X32.608 Y-12.472
G1 X34.054 Y-11.028
G1 X33.790 Y-11.028
G1 X32.346 Y-12.472
G1 X32.082 Y-12.472
G1 X33.528 Y-11.028
G1 X33.265 Y-11.028
G1 X31.821 Y-12.472
G1 X31.557 Y-12.472
G1 X33.003 Y-11.028
G1 X32.740 Y-11.028
G1 X31.296 Y-12.472
G1 X31.031 Y-12.472
G1 X32.477 Y-11.028
G1 X32.214 Y-11.028
G1 X30.771 Y-12.472
G1 X30.506 Y-12.472
G1 X31.952 Y-11.028
G1 X31.689 Y-11.028
G1 X30.246 Y-12.472
G1 X29.980 Y-12.472
G1 X31.426 Y-11.028
G1 X31.164 Y-11.028
G1 X29.721 Y-12.472
G1 X29.455 Y-12.472
G1 X30.901 Y-11.028
G1 X30.639 Y-11.028
G1 X29.195 Y-12.472
G1 X28.929 Y-12.472
G1 X30.375 Y-11.028
G1 X30.114 Y-11.028
G1 X28.670 Y-12.472
G1 X28.404 Y-12.472
G1 X29.850 Y-11.028
G1 X29.589 Y-11.028
G1 X28.145 Y-12.472
G1 X27.878 Y-12.472
G1 X29.324 Y-11.028
G1 X29.064 Y-11.028
G1 X27.620 Y-12.472
G1 X27.353 Y-12.472
G1 X28.799 Y-11.028
G1 X28.539 Y-11.028
G1 X27.095 Y-12.472
G1 X26.827 Y-12.472
G1 X28.273 Y-11.028
G1 X28.014 Y-11.028
G1 X26.570 Y-12.472
G1 X26.302 Y-12.472
G1 X27.748 Y-11.028
G1 X27.489 Y-11.028
G1 X26.045 Y-12.472
G1 X25.776 Y-12.472
G1 X27.222 Y-11.028
G1 X26.964 Y-11.028
G1 X25.520 Y-12.472
G1 X25.251 Y-12.472
G1 X26.697 Y-11.028
G1 X26.439 Y-11.028
G1 X24.995 Y-12.472
G1 X24.725 Y-12.472
G1 X26.171 Y-11.028
G1 X25.914 Y-11.028
G1 X24.470 Y-12.472
G1 X24.200 Y-12.472
G1 X25.646 Y-11.028
G1 X25.388 Y-11.028
G1 X23.945 Y-12.472
G1 X23.674 Y-12.472
G1 X25.120 Y-11.028
G1 X24.863 Y-11.028
G1 X23.420 Y-12.472
G1 X23.149 Y-12.472
G1 X24.595 Y-11.028
G1 X24.338 Y-11.028
G1 X22.894 Y-12.472
G1 X22.623 Y-12.472
G1 X24.069 Y-11.028
G1 X23.813 Y-11.028
G1 X22.369 Y-12.472
G1 X22.098 Y-12.472
G1 X23.544 Y-11.028
G1 X23.288 Y-11.028
G1 X21.844 Y-12.472
G1 X21.572 Y-12.472
G1 X23.018 Y-11.028
G1 X22.763 Y-11.028
G1 X21.319 Y-12.472
G1 X21.047 Y-12.472
G1 X22.493 Y-11.028
G1 X22.238 Y-11.028
G1 X20.794 Y-12.472
G1 X20.521 Y-12.472
G1 X21.967 Y-11.028
G1 X21.713 Y-11.028
G1 X20.269 Y-12.472
G1 X19.996 Y-12.472
G1 X21.442 Y-11.028
G1 X21.188 Y-11.028
G1 X19.744 Y-12.472
G1 X19.470 Y-12.472
G1 X20.916 Y-11.028
G1 X20.663 Y-11.028
G1 X19.219 Y-12.472
G1 X18.945 Y-12.472
G1 X20.391 Y-11.028
G1 X20.138 Y-11.028
G1 X18.694 Y-12.472
G1 X18.419 Y-12.472
G1 X19.865 Y-11.028
G1 X19.613 Y-11.028
G1 X18.169 Y-12.472
G1 X17.894 Y-12.472
G1 X19.340 Y-11.028
G1 X19.087 Y-11.028
G1 X17.644 Y-12.472
G1 X17.368 Y-12.472
G1 X18.814 Y-11.028
G1 X18.562 Y-11.028
G1 X17.119 Y-12.472
G1 X16.843 Y-12.472
G1 X18.289 Y-11.028
G1 X18.037 Y-11.028
G1 X16.593 Y-12.472
G1 X16.317 Y-12.472
G1 X17.763 Y-11.028
G1 X17.512 Y-11.028
G1 X16.068 Y-12.472
G1 X15.792 Y-12.472
G1 X17.238 Y-11.028
G1 X16.987 Y-11.028
G1 X15.543 Y-12.472
G1 X15.266 Y-12.472
G1 X16.712 Y-11.028
G1 X16.462 Y-11.028
G1 X15.018 Y-12.472
G1 X14.741 Y-12.472
G1 X16.187 Y-11.028
G1 X15.937 Y-11.028
G1 X14.493 Y-12.472
G1 X14.215 Y-12.472
G1 X15.661 Y-11.028
G1 X15.412 Y-11.028
G1 X13.968 Y-12.472
G1 X13.690 Y-12.472
G1 X15.136 Y-11.028
G1 X14.887 Y-11.028
G1 X13.443 Y-12.472
G1 X13.164 Y-12.472
G1 X14.610 Y-11.028
G1 X14.362 Y-11.028
G1 X12.918 Y-12.472
G1 X12.639 Y-12.472
G1 X14.085 Y-11.028
G1 X13.837 Y-11.028
G1 X12.393 Y-12.472
G1 X12.113 Y-12.472
G1 X13.559 Y-11.028
G1 X13.312 Y-11.028
G1 X11.868 Y-12.472
G1 X11.588 Y-12.472
G1 X13.034 Y-11.028
G1 X12.787 Y-11.028
G1 X11.343 Y-12.472
G1 X11.062 Y-12.472
G1 X12.508 Y-11.028
G1 X12.261 Y-11.028
G1 X10.818 Y-12.472
G1 X10.537 Y-12.472
G1 X11.983 Y-11.028
G1 X11.736 Y-11.028
G1 X10.293 Y-12.472
G1 X10.011 Y-12.472
G1 X11.457 Y-11.028
G1 X11.211 Y-11.028
G1 X9.767 Y-12.472
G1 X9.486 Y-12.472
G1 X10.932 Y-11.028
G1 X10.686 Y-11.028
G1 X9.242 Y-12.472
G1 X8.960 Y-12.472
G1 X10.406 Y-11.028
G1 X10.161 Y-11.028
G1 X8.717 Y-12.472
G1 X8.435 Y-12.472
G1 X9.881 Y-11.028
G1 X9.636 Y-11.028
G1 X8.192 Y-12.472
G1 X7.909 Y-12.472
G1 X9.355 Y-11.028
G1 X9.111 Y-11.028
G1 X7.667 Y-12.472
G1 X7.384 Y-12.472
G1 X8.830 Y-11.028
G1 X8.586 Y-11.028
G1 X5.797 Y-13.817
G1 X5.797 Y-14.056
G1 X7.241 Y-12.614
G1 X7.241 Y-12.898
G1 X5.797 Y-14.342
G1 X5.797 Y-14.580
G1 X7.241 Y-13.139
G1 X7.241 Y-13.423
G1 X5.797 Y-14.867
G1 X5.797 Y-15.105
G1 X7.241 Y-13.663
G1 X7.241 Y-13.948
G1 X5.797 Y-15.392
G1 X5.797 Y-15.630
G1 X7.241 Y-14.188
G1 X7.241 Y-14.473
G1 X5.797 Y-15.917
G1 X5.797 Y-16.154
G1 X7.241 Y-14.713
G1 X7.241 Y-14.998
G1 X5.797 Y-16.442
G1 X5.797 Y-16.679
G1 X7.241 Y-15.237
G1 X7.241 Y-15.523
G1 X5.797 Y-16.967
G1 X5.797 Y-17.204
G1 X7.241 Y-15.762
G1 X7.241 Y-16.048
G1 X5.827 Y-17.462
G1 X6.054 Y-17.472
G1 X7.241 Y-16.287
G1 X7.241 Y-16.573
G1 X6.343 Y-17.472
G1 X6.580 Y-17.472
G1 X7.241 Y-16.811
G1 X7.241 Y-17.099
G1 X6.868 Y-17.472
G1 X7.105 Y-17.472
G1 X7.241 Y-17.336
G1 X5.797 Y-13.531 F7800.000
G1 X8.304 Y-11.028 F3600.000
G1 X8.061 Y-11.028
G1 X5.797 Y-13.292
G1 X5.797 Y-13.006
G1 X7.779 Y-11.028
G1 X7.536 Y-11.028
G1 X5.797 Y-12.766
G1 X5.797 Y-12.482
G1 X7.253 Y-11.028
G1 X7.011 Y-11.028
G1 X5.797 Y-12.241
G1 X5.797 Y-11.957
G1 X6.728 Y-11.028
G1 X6.486 Y-11.028
G1 X5.797 Y-11.716
G1 X5.797 Y-11.432
G1 X6.202 Y-11.028
G1 X5.960 Y-11.028
G1 X5.797 Y-11.191
G1 X5.941 Y-9.472 F7800.000
G1 X7.385 Y-8.028 F3600.000
G1 X6.184 Y-9.472 F7800.000
G1 X7.630 Y-8.028 F3600.000
G1 X7.910 Y-8.028
G1 X6.466 Y-9.472
G1 X6.710 Y-9.472
G1 X8.156 Y-8.028
G1 X8.435 Y-8.028
G1 X6.992 Y-9.472
G1 X7.235 Y-9.472
G1 X8.682 Y-8.028
G1 X8.960 Y-8.028
G1 X7.517 Y-9.472
G1 X7.761 Y-9.472
G1 X9.207 Y-8.028
G1 X9.486 Y-8.028
G1 X8.042 Y-9.472
G1 X8.286 Y-9.472
G1 X9.733 Y-8.028
G1 X10.011 Y-8.028
G1 X8.567 Y-9.472
G1 X8.812 Y-9.472
G1 X10.258 Y-8.028
G1 X10.536 Y-8.028
G1 X9.092 Y-9.472
G1 X9.337 Y-9.472
G1 X10.784 Y-8.028
G1 X11.061 Y-8.028
G1 X9.617 Y-9.472
G1 X9.863 Y-9.472
G1 X11.309 Y-8.028
G1 X11.586 Y-8.028
G1 X10.142 Y-9.472
G1 X10.388 Y-9.472
G1 X11.835 Y-8.028
G1 X12.111 Y-8.028
G1 X10.667 Y-9.472
G1 X10.914 Y-9.472
G1 X12.360 Y-8.028
G1 X12.636 Y-8.028
G1 X11.192 Y-9.472
G1 X11.440 Y-9.472
G1 X12.886 Y-8.028
G1 X13.161 Y-8.028
G1 X11.717 Y-9.472
G1 X11.965 Y-9.472
G1 X13.411 Y-8.028
G1 X13.686 Y-8.028
G1 X12.242 Y-9.472
G1 X12.491 Y-9.472
G1 X13.937 Y-8.028
G1 X14.211 Y-8.028
G1 X12.767 Y-9.472
G1 X13.016 Y-9.472
G1 X14.462 Y-8.028
G1 X14.736 Y-8.028
G1 X13.293 Y-9.472
G1 X13.542 Y-9.472
G1 X14.988 Y-8.028
G1 X15.261 Y-8.028
G1 X13.818 Y-9.472
G1 X14.067 Y-9.472
G1 X15.513 Y-8.028
G1 X15.787 Y-8.028
G1 X14.343 Y-9.472
G1 X14.593 Y-9.472
G1 X16.039 Y-8.028
G1 X16.312 Y-8.028
G1 X14.868 Y-9.472
G1 X15.118 Y-9.472
G1 X16.564 Y-8.028
G1 X16.837 Y-8.028
G1 X15.393 Y-9.472
G1 X15.644 Y-9.472
G1 X17.090 Y-8.028
G1 X17.362 Y-8.028
G1 X15.918 Y-9.472
G1 X16.169 Y-9.472
G1 X17.615 Y-8.028
G1 X17.887 Y-8.028
G1 X16.443 Y-9.472
G1 X16.695 Y-9.472
G1 X18.141 Y-8.028
G1 X18.412 Y-8.028
G1 X16.968 Y-9.472
G1 X17.220 Y-9.472
G1 X18.666 Y-8.028
G1 X18.937 Y-8.028
G1 X17.493 Y-9.472
G1 X17.746 Y-9.472
G1 X19.192 Y-8.028
G1 X19.462 Y-8.028
G1 X18.018 Y-9.472
G1 X18.271 Y-9.472
G1 X19.717 Y-8.028
G1 X19.987 Y-8.028
G1 X18.543 Y-9.472
G1 X18.797 Y-9.472
G1 X20.243 Y-8.028
G1 X20.512 Y-8.028
G1 X19.068 Y-9.472
G1 X19.322 Y-9.472
G1 X20.768 Y-8.028
G1 X21.037 Y-8.028
G1 X19.593 Y-9.472
G1 X19.848 Y-9.472
G1 X21.294 Y-8.028
G1 X21.562 Y-8.028
G1 X20.119 Y-9.472
G1 X20.373 Y-9.472
G1 X21.819 Y-8.028
G1 X22.087 Y-8.028
G1 X20.644 Y-9.472
G1 X20.899 Y-9.472
G1 X22.345 Y-8.028
G1 X22.613 Y-8.028
G1 X21.169 Y-9.472
G1 X21.424 Y-9.472
G1 X22.870 Y-8.028
G1 X23.138 Y-8.028
G1 X21.694 Y-9.472
G1 X21.950 Y-9.472
G1 X23.396 Y-8.028
G1 X23.663 Y-8.028
G1 X22.219 Y-9.472
G1 X22.475 Y-9.472
G1 X23.921 Y-8.028
G1 X24.188 Y-8.028
G1 X22.744 Y-9.472
G1 X23.001 Y-9.472
G1 X24.447 Y-8.028
G1 X24.713 Y-8.028
G1 X23.269 Y-9.472
G1 X23.526 Y-9.472
G1 X24.972 Y-8.028
G1 X25.238 Y-8.028
G1 X23.794 Y-9.472
G1 X24.052 Y-9.472
G1 X25.498 Y-8.028
G1 X25.763 Y-8.028
G1 X24.319 Y-9.472
G1 X24.577 Y-9.472
G1 X26.023 Y-8.028
G1 X26.288 Y-8.028
G1 X24.844 Y-9.472
G1 X25.103 Y-9.472
G1 X26.549 Y-8.028
G1 X26.813 Y-8.028
G1 X25.369 Y-9.472
G1 X25.628 Y-9.472
G1 X27.074 Y-8.028
G1 X27.338 Y-8.028
G1 X25.894 Y-9.472
G1 X26.154 Y-9.472
G1 X27.600 Y-8.028
G1 X27.863 Y-8.028
G1 X26.420 Y-9.472
G1 X26.679 Y-9.472
G1 X28.125 Y-8.028
G1 X28.388 Y-8.028
G1 X26.945 Y-9.472
G1 X27.205 Y-9.472
G1 X28.651 Y-8.028
G1 X28.914 Y-8.028
G1 X27.470 Y-9.472
G1 X27.730 Y-9.472
G1 X29.176 Y-8.028
G1 X29.439 Y-8.028
G1 X27.995 Y-9.472
G1 X28.256 Y-9.472
G1 X29.702 Y-8.028
G1 X29.964 Y-8.028
G1 X28.520 Y-9.472
G1 X28.781 Y-9.472
G1 X30.227 Y-8.028
G1 X30.489 Y-8.028
G1 X29.045 Y-9.472
G1 X29.307 Y-9.472
G1 X30.753 Y-8.028
G1 X31.014 Y-8.028
G1 X29.570 Y-9.472
G1 X29.832 Y-9.472
G1 X31.278 Y-8.028
G1 X31.297 Y-8.009 F7800.000
G1 X32.741 Y-6.568 F3600.000
G1 X32.741 Y-6.826
G1 X30.095 Y-9.472
G1 X30.358 Y-9.472
G1 X32.741 Y-7.092
G1 X32.741 Y-7.351
G1 X30.620 Y-9.472
G1 X30.883 Y-9.472
G1 X32.741 Y-7.617
G1 X32.741 Y-7.876
G1 X31.145 Y-9.472
G1 X31.409 Y-9.472
G1 X32.741 Y-8.142
G1 X32.741 Y-8.401
G1 X31.670 Y-9.472
G1 X31.934 Y-9.472
G1 X32.741 Y-8.666
G1 X32.741 Y-8.926
G1 X32.195 Y-9.472
G1 X32.460 Y-9.472
G1 X32.741 Y-9.191
G1 X31.297 Y-7.745 F7800.000
G1 X32.741 Y-6.301 F3600.000
G1 X32.741 Y-6.043
G1 X31.297 Y-7.485
G1 X31.297 Y-7.220
G1 X32.741 Y-5.776
G1 X32.741 Y-5.518
G1 X31.297 Y-6.960
G1 X31.297 Y-6.694
G1 X32.741 Y-5.251
G1 X32.741 Y-4.994
G1 X31.297 Y-6.435
G1 X31.297 Y-6.169
G1 X32.741 Y-4.726
G1 X32.741 Y-4.469
G1 X31.297 Y-5.911
G1 X31.297 Y-5.644
G1 X32.741 Y-4.200
G1 X32.741 Y-3.944
G1 X31.297 Y-5.386
G1 X31.297 Y-5.119
G1 X32.741 Y-3.675
G1 X32.741 Y-3.420
G1 X31.297 Y-4.861
G1 X31.297 Y-4.594
G1 X32.741 Y-3.150
G1 X32.741 Y-2.895
G1 X31.297 Y-4.337
G1 X31.297 Y-4.069
G1 X32.741 Y-2.625
G1 X32.741 Y-2.370
G1 X31.297 Y-3.812
G1 X31.297 Y-3.544
G1 X32.741 Y-2.100
G1 X32.741 Y-1.846
G1 X31.297 Y-3.287
G1 X31.297 Y-3.019
G1 X32.741 Y-1.575
G1 X32.741 Y-1.321
G1 X31.297 Y-2.763
G1 X31.297 Y-2.494
G1 X32.741 Y-1.050
G1 X32.741 Y-0.796
G1 X31.297 Y-2.238
G1 X31.297 Y-1.969
G1 X32.741 Y-0.525
G1 X32.741 Y-0.272
G1 X31.297 Y-1.713
G1 X31.297 Y-1.444
G1 X32.741 Y0.000
G1 X32.741 Y0.253
G1 X31.297 Y-1.189
G1 X31.297 Y-0.919
G1 X32.741 Y0.525
G1 X32.741 Y0.778
G1 X31.297 Y-0.664
G1 X31.297 Y-0.393
G1 X32.741 Y1.050
G1 X32.741 Y1.302
G1 X31.297 Y-0.139
G1 X31.297 Y0.132
G1 X32.741 Y1.575
G1 X32.741 Y1.827
G1 X31.297 Y0.385
G1 X31.297 Y0.657
G1 X32.741 Y2.101
G1 X32.741 Y2.352
G1 X31.297 Y0.910
G1 X31.297 Y1.182
G1 X32.741 Y2.626
G1 X32.741 Y2.876
G1 X31.297 Y1.435
G1 X31.297 Y1.707
G1 X32.741 Y3.151
G1 X32.741 Y3.401
G1 X31.297 Y1.959
G1 X31.297 Y2.232
G1 X32.741 Y3.676
G1 X32.741 Y3.925
G1 X31.297 Y2.484
G1 X31.297 Y2.757
G1 X32.741 Y4.201
G1 X32.741 Y4.450
G1 X31.297 Y3.009
G1 X31.297 Y3.282
G1 X32.741 Y4.726
G1 X32.741 Y4.975
G1 X31.297 Y3.533
G1 X31.297 Y3.807
G1 X32.741 Y5.251
G1 X32.741 Y5.499
G1 X31.297 Y4.058
G1 X31.297 Y4.332
G1 X32.741 Y5.776
G1 X32.741 Y6.024
G1 X31.297 Y4.583
G1 X31.297 Y4.857
G1 X32.741 Y6.301
G1 X32.741 Y6.549
G1 X31.297 Y5.107
G1 X31.297 Y5.382
G1 X32.741 Y6.826
G1 X32.741 Y7.073
G1 X31.297 Y5.632
G1 X31.297 Y5.907
G1 X32.741 Y7.351
G1 X32.741 Y7.598
G1 X31.297 Y6.156
G1 X31.297 Y6.433
G1 X32.741 Y7.876
G1 X32.741 Y8.123
G1 X31.297 Y6.681
G1 X31.297 Y6.958
G1 X32.741 Y8.401
G1 X32.741 Y8.647
G1 X31.297 Y7.206
G1 X31.297 Y7.483
G1 X32.741 Y8.927
G1 X32.741 Y9.172
G1 X31.297 Y7.730
G1 X31.297 Y8.008
G1 X32.741 Y9.452
G1 X32.741 Y9.697
G1 X31.297 Y8.255
G1 X31.297 Y8.533
G1 X32.741 Y9.977
G1 X32.741 Y10.221
G1 X31.297 Y8.780
G1 X31.297 Y9.058
G1 X32.741 Y10.502
G1 X32.741 Y10.746
G1 X31.297 Y9.304
G1 X31.297 Y9.583
G1 X32.741 Y11.027
G1 X32.741 Y11.271
G1 X31.297 Y9.829
G1 X31.297 Y10.108
G1 X32.741 Y11.552
G1 X32.741 Y11.795
G1 X31.297 Y10.354
G1 X31.297 Y10.633
G1 X32.741 Y12.077
G1 X32.741 Y12.320
G1 X31.297 Y10.878
G1 X31.297 Y11.158
G1 X32.741 Y12.602
G1 X32.741 Y12.845
G1 X31.297 Y11.403
G1 X31.297 Y11.683
G1 X32.741 Y13.127
G1 X32.741 Y13.369
G1 X31.297 Y11.928
G1 X31.297 Y12.208
G1 X32.741 Y13.652
G1 X32.741 Y13.894
G1 X31.297 Y12.452
G1 X31.297 Y12.734
G1 X32.741 Y14.177
G1 X32.741 Y14.419
G1 X31.297 Y12.977
G1 X31.067 Y13.028 F7800.000
G1 X32.511 Y14.472 F3600.000
G1 X32.269 Y14.472
G1 X30.823 Y13.028
G1 X30.542 Y13.028
G1 X31.986 Y14.472
G1 X31.744 Y14.472
G1 X30.297 Y13.028
G1 X30.017 Y13.028
G1 X31.460 Y14.472
G1 X31.218 Y14.472
G1 X29.772 Y13.028
G1 X29.492 Y13.028
G1 X30.935 Y14.472
G1 X30.693 Y14.472
G1 X29.246 Y13.028
G1 X28.966 Y13.028
G1 X30.410 Y14.472
G1 X30.167 Y14.472
G1 X28.721 Y13.028
G1 X28.441 Y13.028
G1 X29.885 Y14.472
G1 X29.642 Y14.472
G1 X28.195 Y13.028
G1 X27.916 Y13.028
G1 X29.360 Y14.472
G1 X29.116 Y14.472
G1 X27.670 Y13.028
G1 X27.391 Y13.028
G1 X28.835 Y14.472
G1 X28.590 Y14.472
G1 X27.144 Y13.028
G1 X26.866 Y13.028
G1 X28.310 Y14.472
G1 X28.065 Y14.472
G1 X26.619 Y13.028
G1 X26.341 Y13.028
G1 X27.785 Y14.472
G1 X27.539 Y14.472
G1 X26.093 Y13.028
G1 X25.816 Y13.028
G1 X27.260 Y14.472
G1 X27.014 Y14.472
G1 X25.568 Y13.028
G1 X25.291 Y13.028
G1 X26.735 Y14.472
G1 X26.488 Y14.472
G1 X25.042 Y13.028
G1 X24.766 Y13.028
G1 X26.210 Y14.472
G1 X25.963 Y14.472
G1 X24.517 Y13.028
G1 X24.241 Y13.028
G1 X25.685 Y14.472
G1 X25.437 Y14.472
G1 X23.991 Y13.028
G1 X23.716 Y13.028
G1 X25.159 Y14.472
G1 X24.912 Y14.472
G1 X23.466 Y13.028
G1 X23.191 Y13.028
G1 X24.634 Y14.472
G1 X24.386 Y14.472
G1 X22.940 Y13.028
G1 X22.666 Y13.028
G1 X24.109 Y14.472
G1 X23.861 Y14.472
G1 X22.415 Y13.028
G1 X22.140 Y13.028
G1 X23.584 Y14.472
G1 X23.335 Y14.472
G1 X21.889 Y13.028
G1 X21.615 Y13.028
G1 X23.059 Y14.472
G1 X22.810 Y14.472
G1 X21.364 Y13.028
G1 X21.090 Y13.028
G1 X22.534 Y14.472
G1 X22.284 Y14.472
G1 X20.838 Y13.028
G1 X20.565 Y13.028
G1 X22.009 Y14.472
G1 X21.759 Y14.472
G1 X20.313 Y13.028
G1 X20.040 Y13.028
G1 X21.484 Y14.472
G1 X21.233 Y14.472
G1 X19.787 Y13.028
G1 X19.515 Y13.028
G1 X20.959 Y14.472
G1 X20.708 Y14.472
G1 X19.262 Y13.028
G1 X18.990 Y13.028
G1 X20.434 Y14.472
G1 X20.182 Y14.472
G1 X18.736 Y13.028
G1 X18.465 Y13.028
G1 X19.909 Y14.472
G1 X19.657 Y14.472
G1 X18.211 Y13.028
G1 X17.940 Y13.028
G1 X19.384 Y14.472
G1 X19.131 Y14.472
G1 X17.685 Y13.028
G1 X17.415 Y13.028
G1 X18.859 Y14.472
G1 X18.606 Y14.472
G1 X17.160 Y13.028
G1 X16.890 Y13.028
G1 X18.333 Y14.472
G1 X18.080 Y14.472
G1 X16.634 Y13.028
G1 X16.365 Y13.028
G1 X17.808 Y14.472
G1 X17.555 Y14.472
G1 X16.109 Y13.028
G1 X15.839 Y13.028
G1 X17.283 Y14.472
G1 X17.029 Y14.472
G1 X15.583 Y13.028
G1 X15.314 Y13.028
G1 X16.758 Y14.472
G1 X16.504 Y14.472
G1 X15.058 Y13.028
G1 X14.789 Y13.028
G1 X16.233 Y14.472
G1 X15.978 Y14.472
G1 X14.532 Y13.028
G1 X14.264 Y13.028
G1 X15.708 Y14.472
G1 X15.453 Y14.472
G1 X14.007 Y13.028
G1 X13.739 Y13.028
G1 X15.183 Y14.472
G1 X14.927 Y14.472
G1 X13.481 Y13.028
G1 X13.214 Y13.028
G1 X14.658 Y14.472
G1 X14.402 Y14.472
G1 X12.956 Y13.028
G1 X12.689 Y13.028
G1 X14.133 Y14.472
G1 X13.876 Y14.472
G1 X12.430 Y13.028
G1 X12.164 Y13.028
G1 X13.608 Y14.472
G1 X13.351 Y14.472
G1 X11.905 Y13.028
G1 X11.639 Y13.028
G1 X13.083 Y14.472
G1 X12.825 Y14.472
G1 X11.379 Y13.028
G1 X11.114 Y13.028
G1 X12.558 Y14.472
G1 X12.300 Y14.472
G1 X10.854 Y13.028
G1 X10.589 Y13.028
G1 X12.032 Y14.472
G1 X11.774 Y14.472
G1 X10.328 Y13.028
G1 X8.882 Y14.472 F7800.000
G1 X8.797 Y14.387 F3600.000
G1 X8.797 Y14.123
G1 X9.147 Y14.472
G1 X9.407 Y14.472
G1 X8.797 Y13.862
G1 X8.797 Y13.598
G1 X9.672 Y14.472
G1 X9.932 Y14.472
G1 X8.797 Y13.337
G1 X8.797 Y13.074
G1 X10.198 Y14.472
G1 X10.457 Y14.472
G1 X8.797 Y12.812
G1 X8.797 Y12.549
G1 X10.723 Y14.472
G1 X10.982 Y14.472
G1 X8.797 Y12.287
G1 X8.797 Y12.024
G1 X11.249 Y14.472
G1 X11.507 Y14.472
G1 X8.797 Y11.762
G1 X8.797 Y11.500
G1 X10.241 Y12.941
G1 X10.241 Y12.681
G1 X8.797 Y11.237
G1 X8.797 Y10.975
G1 X10.241 Y12.417
G1 X10.241 Y12.156
G1 X8.797 Y10.712
G1 X8.797 Y10.450
G1 X10.241 Y11.892
G1 X10.241 Y11.630
G1 X8.797 Y10.187
G1 X8.797 Y9.926
G1 X10.241 Y11.367
G1 X10.241 Y11.105
G1 X8.797 Y9.662
G1 X8.797 Y9.401
G1 X10.241 Y10.843
G1 X10.241 Y10.580
G1 X8.797 Y9.136
G1 X8.797 Y8.876
G1 X10.241 Y10.318
G1 X10.241 Y10.055
G1 X8.797 Y8.611
G1 X8.797 Y8.352
G1 X10.241 Y9.793
G1 X10.241 Y9.530
G1 X8.797 Y8.086
G1 X8.797 Y7.827
G1 X10.241 Y9.269
G1 X10.241 Y9.005
G1 X8.797 Y7.561
G1 X8.797 Y7.302
G1 X10.241 Y8.744
G1 X10.241 Y8.480
G1 X8.797 Y7.036
G1 X8.797 Y6.778
G1 X10.241 Y8.219
G1 X10.241 Y7.955
G1 X8.797 Y6.511
G1 X8.797 Y6.253
G1 X10.241 Y7.695
G1 X10.241 Y7.430
G1 X8.797 Y5.986
G1 X8.797 Y5.728
G1 X10.241 Y7.170
G1 X10.241 Y6.905
G1 X8.797 Y5.461
G1 X8.797 Y5.204
G1 X10.241 Y6.645
G1 X10.241 Y6.380
G1 X8.797 Y4.936
G1 X8.797 Y4.679
G1 X10.241 Y6.121
G1 X10.241 Y5.855
G1 X8.797 Y4.411
G1 X8.797 Y4.154
G1 X10.241 Y5.596
G1 X10.241 Y5.329
G1 X8.797 Y3.886
G1 X8.797 Y3.630
G1 X10.241 Y5.071
G1 X10.241 Y4.804
G1 X8.797 Y3.361
G1 X8.797 Y3.105
G1 X10.241 Y4.547
G1 X10.241 Y4.279
G1 X8.797 Y2.835
G1 X8.797 Y2.581
G1 X10.241 Y4.022
G1 X10.241 Y3.754
G1 X8.797 Y2.310
G1 X8.797 Y2.056
G1 X10.241 Y3.497
G1 X10.241 Y3.229
G1 X8.797 Y1.785
G1 X8.797 Y1.531
G1 X10.241 Y2.973
G1 X10.241 Y2.704
G1 X8.797 Y1.260
G1 X8.797 Y1.007
G1 X10.241 Y2.448
G1 X10.241 Y2.179
G1 X8.797 Y0.735
G1 X8.797 Y0.482
G1 X10.241 Y1.924
G1 X10.241 Y1.654
G1 X8.797 Y0.210
G1 X8.797 Y-0.043
G1 X10.241 Y1.399
G1 X10.241 Y1.129
G1 X8.797 Y-0.315
G1 X8.797 Y-0.567
G1 X10.241 Y0.874
G1 X10.241 Y0.604
G1 X8.797 Y-0.840
G1 X8.797 Y-1.092
G1 X10.241 Y0.350
G1 X10.241 Y0.079
G1 X8.797 Y-1.365
G1 X8.797 Y-1.617
G1 X10.241 Y-0.175
G1 X10.241 Y-0.446
G1 X8.797 Y-1.890
G1 X8.797 Y-2.141
G1 X10.241 Y-0.700
G1 X10.241 Y-0.972
G1 X8.797 Y-2.415
G1 X8.797 Y-2.666
G1 X10.241 Y-1.224
G1 X10.241 Y-1.497
G1 X8.797 Y-2.940
G1 X8.797 Y-3.191
G1 X10.241 Y-1.749
G1 X10.241 Y-2.022
G1 X8.797 Y-3.466
G1 X8.797 Y-3.715
G1 X10.241 Y-2.274
G1 X10.241 Y-2.547
G1 X8.797 Y-3.991
G1 X8.797 Y-4.240
G1 X10.241 Y-2.798
G1 X10.241 Y-3.072
G1 X8.797 Y-4.516
G1 X8.797 Y-4.765
G1 X10.241 Y-3.323
G1 X10.241 Y-3.597
G1 X8.797 Y-5.041
G1 X8.797 Y-5.289
G1 X10.241 Y-3.848
G1 X10.241 Y-4.122
G1 X8.797 Y-5.566
G1 X8.797 Y-5.814
G1 X10.241 Y-4.372
G1 X10.241 Y-4.647
G1 X8.797 Y-6.091
G1 X8.797 Y-6.339
G1 X10.241 Y-4.897
G1 X10.404 Y-5.009 F7800.000
G1 X8.941 Y-6.472 F3600.000
G1 X9.189 Y-6.472 F7800.000
G1 X10.655 Y-5.009 F3600.000
G1 X10.929 Y-5.009
G1 X9.466 Y-6.472
G1 X9.715 Y-6.472
G1 X11.180 Y-5.009
G1 X11.455 Y-5.009
G1 X9.992 Y-6.472
G1 X10.240 Y-6.472
G1 X11.706 Y-5.009
G1 X11.980 Y-5.009
G1 X10.517 Y-6.472
G1 X10.766 Y-6.472
G1 X12.231 Y-5.009
G1 X12.505 Y-5.009
G1 X11.042 Y-6.472
G1 X11.291 Y-6.472
G1 X12.757 Y-5.009
G1 X13.030 Y-5.009
G1 X11.567 Y-6.472
G1 X11.817 Y-6.472
G1 X13.282 Y-5.009
G1 X13.555 Y-5.009
G1 X12.092 Y-6.472
G1 X12.342 Y-6.472
G1 X13.808 Y-5.009
G1 X14.080 Y-5.009
G1 X12.617 Y-6.472
G1 X12.868 Y-6.472
G1 X14.333 Y-5.009
G1 X14.605 Y-5.009
G1 X13.142 Y-6.472
G1 X13.393 Y-6.472
G1 X14.859 Y-5.009
G1 X15.130 Y-5.009
G1 X13.667 Y-6.472
G1 X13.919 Y-6.472
G1 X15.384 Y-5.009
G1 X15.655 Y-5.009
G1 X14.192 Y-6.472
G1 X14.444 Y-6.472
G1 X15.910 Y-5.009
G1 X16.180 Y-5.009
G1 X14.717 Y-6.472
G1 X14.970 Y-6.472
G1 X16.435 Y-5.009
G1 X16.705 Y-5.009
G1 X15.242 Y-6.472
G1 X15.495 Y-6.472
G1 X16.961 Y-5.009
G1 X17.230 Y-5.009
G1 X15.767 Y-6.472
G1 X16.021 Y-6.472
G1 X17.486 Y-5.009
G1 X17.755 Y-5.009
G1 X16.293 Y-6.472
G1 X16.546 Y-6.472
G1 X18.012 Y-5.009
G1 X18.281 Y-5.009
G1 X16.818 Y-6.472
G1 X17.072 Y-6.472
G1 X18.537 Y-5.009
G1 X18.806 Y-5.009
G1 X17.343 Y-6.472
G1 X17.597 Y-6.472
G1 X19.063 Y-5.009
G1 X19.331 Y-5.009
G1 X17.868 Y-6.472
G1 X18.123 Y-6.472
G1 X19.588 Y-5.009
G1 X19.856 Y-5.009
G1 X18.393 Y-6.472
G1 X18.648 Y-6.472
G1 X20.114 Y-5.009
G1 X20.381 Y-5.009
G1 X18.918 Y-6.472
G1 X19.174 Y-6.472
G1 X20.639 Y-5.009
G1 X20.906 Y-5.009
G1 X19.443 Y-6.472
G1 X19.699 Y-6.472
G1 X21.165 Y-5.009
G1 X21.431 Y-5.009
G1 X19.968 Y-6.472
G1 X20.225 Y-6.472
G1 X21.690 Y-5.009
G1 X21.956 Y-5.009
G1 X20.493 Y-6.472
G1 X20.750 Y-6.472
G1 X22.216 Y-5.009
G1 X22.481 Y-5.009
G1 X21.018 Y-6.472
G1 X21.276 Y-6.472
G1 X22.741 Y-5.009
G1 X23.006 Y-5.009
G1 X21.543 Y-6.472
G1 X21.801 Y-6.472
G1 X23.267 Y-5.009
G1 X23.531 Y-5.009
G1 X22.068 Y-6.472
G1 X22.327 Y-6.472
G1 X23.792 Y-5.009
G1 X24.056 Y-5.009
G1 X22.593 Y-6.472
G1 X22.852 Y-6.472
G1 X24.318 Y-5.009
G1 X24.582 Y-5.009
G1 X23.119 Y-6.472
G1 X23.378 Y-6.472
G1 X24.843 Y-5.009
G1 X25.107 Y-5.009
G1 X23.644 Y-6.472
G1 X23.903 Y-6.472
G1 X25.369 Y-5.009
G1 X25.632 Y-5.009
G1 X24.169 Y-6.472
G1 X24.429 Y-6.472
G1 X25.894 Y-5.009
G1 X26.157 Y-5.009
G1 X24.694 Y-6.472
G1 X24.955 Y-6.472
G1 X26.420 Y-5.009
G1 X26.682 Y-5.009 F7800.000
G1 X25.219 Y-6.472 F3600.000
G1 X25.480 Y-6.472
G1 X26.945 Y-5.009
G1 X27.207 Y-5.009
G1 X25.744 Y-6.472
G1 X26.006 Y-6.472
G1 X27.471 Y-5.009
G1 X27.732 Y-5.009
G1 X26.269 Y-6.472
G1 X26.531 Y-6.472
G1 X27.996 Y-5.009
G1 X28.257 Y-5.009 F7800.000
G1 X26.794 Y-6.472 F3600.000
G1 X27.057 Y-6.472
G1 X29.841 Y-3.692
G1 X29.841 Y-3.950
G1 X27.319 Y-6.472
G1 X27.582 Y-6.472
G1 X29.841 Y-4.216
G1 X29.841 Y-4.475
G1 X27.844 Y-6.472
G1 X28.108 Y-6.472
G1 X29.841 Y-4.741
G1 X29.841 Y-5.000
G1 X28.369 Y-6.472
G1 X28.633 Y-6.472
G1 X29.841 Y-5.266
G1 X29.841 Y-5.525
G1 X28.894 Y-6.472
G1 X29.159 Y-6.472
G1 X29.841 Y-5.790
G1 X29.841 Y-6.050
G1 X29.420 Y-6.472
G1 X29.684 Y-6.472
G1 X29.841 Y-6.315
G1 X28.397 Y-4.869 F7800.000
G1 X29.841 Y-3.425 F3600.000
G1 X29.841 Y-3.167
G1 X28.397 Y-4.609
G1 X28.397 Y-4.344
G1 X29.841 Y-2.900
G1 X29.841 Y-2.642
G1 X28.397 Y-4.084
G1 X28.397 Y-3.819
G1 X29.841 Y-2.375
G1 X29.841 Y-2.118
G1 X28.397 Y-3.559
G1 X28.397 Y-3.293
G1 X29.841 Y-1.850
G1 X29.841 Y-1.593
G1 X28.397 Y-3.035
G1 X28.397 Y-2.768
G1 X29.841 Y-1.325
G1 X29.841 Y-1.068
G1 X28.397 Y-2.510
G1 X28.397 Y-2.243
G1 X29.841 Y-0.799
G1 X29.841 Y-0.544
G1 X28.397 Y-1.985
G1 X28.397 Y-1.718
G1 X29.841 Y-0.274
G1 X29.841 Y-0.019
G1 X28.397 Y-1.461
G1 X28.397 Y-1.193
G1 X29.841 Y0.251
G1 X29.841 Y0.506
G1 X28.397 Y-0.936
G1 X28.397 Y-0.668
G1 X29.841 Y0.776
G1 X29.841 Y1.030
G1 X28.397 Y-0.411
G1 X28.397 Y-0.143
G1 X29.841 Y1.301
G1 X29.841 Y1.555
G1 X28.397 Y0.113
G1 X28.397 Y0.382
G1 X29.841 Y1.826
G1 X29.841 Y2.080
G1 X28.397 Y0.638
G1 X28.397 Y0.907
G1 X29.841 Y2.351
G1 X29.841 Y2.604
G1 X28.397 Y1.163
G1 X28.397 Y1.432
G1 X29.841 Y2.876
G1 X29.841 Y3.129
G1 X28.397 Y1.687
G1 X28.397 Y1.957
G1 X29.841 Y3.401
G1 X29.841 Y3.653
G1 X28.397 Y2.212
G1 X28.397 Y2.482
G1 X29.841 Y3.926
G1 X29.841 Y4.178
G1 X28.397 Y2.737
G1 X28.397 Y3.007
G1 X29.841 Y4.451
G1 X29.841 Y4.703
G1 X28.397 Y3.261
G1 X28.397 Y3.533
G1 X29.841 Y4.976
G1 X29.841 Y5.227
G1 X28.397 Y3.786
G1 X28.397 Y4.058
G1 X29.841 Y5.501
G1 X29.841 Y5.752
G1 X28.397 Y4.310
G1 X28.397 Y4.583
G1 X29.841 Y6.027
G1 X29.841 Y6.277
G1 X28.397 Y4.835
G1 X28.397 Y5.108
G1 X29.841 Y6.552
G1 X29.841 Y6.801
G1 X28.397 Y5.360
G1 X28.397 Y5.633
G1 X29.841 Y7.077
G1 X29.841 Y7.326
G1 X28.397 Y5.884
G1 X28.397 Y6.158
G1 X29.841 Y7.602
G1 X29.841 Y7.851
G1 X28.397 Y6.409
G1 X28.397 Y6.683
G1 X29.841 Y8.127
G1 X29.841 Y8.375
G1 X28.397 Y6.934
G1 X28.397 Y7.208
G1 X29.841 Y8.652
G1 X29.841 Y8.900
G1 X28.397 Y7.458
G1 X28.397 Y7.733
G1 X29.841 Y9.177
G1 X29.841 Y9.425
G1 X28.397 Y7.983
G1 X28.397 Y8.258
G1 X29.841 Y9.702
G1 X29.841 Y9.949
G1 X28.397 Y8.508
G1 X28.397 Y8.783
G1 X29.841 Y10.227
G1 X29.841 Y10.474
G1 X28.397 Y9.032
G1 X28.397 Y9.308
G1 X29.841 Y10.752
G1 X29.841 Y10.999
G1 X28.397 Y9.557
G1 X28.397 Y9.834
G1 X29.841 Y11.277
G1 X29.790 Y11.472
G1 X28.344 Y10.028
G1 X28.067 Y10.028
G1 X29.511 Y11.472
G1 X29.264 Y11.472
G1 X27.818 Y10.028
G1 X27.542 Y10.028
G1 X28.986 Y11.472
G1 X28.739 Y11.472
G1 X27.293 Y10.028
G1 X27.017 Y10.028
G1 X28.460 Y11.472
G1 X28.213 Y11.472
G1 X26.767 Y10.028
G1 X26.492 Y10.028
G1 X27.935 Y11.472
G1 X27.688 Y11.472
G1 X26.242 Y10.028
G1 X25.966 Y10.028
G1 X27.410 Y11.472
G1 X27.162 Y11.472
G1 X25.716 Y10.028
G1 X25.441 Y10.028
G1 X26.885 Y11.472
G1 X26.637 Y11.472
G1 X25.191 Y10.028
G1 X24.916 Y10.028
G1 X26.360 Y11.472
G1 X26.111 Y11.472
G1 X24.665 Y10.028
G1 X24.391 Y10.028
G1 X25.835 Y11.472
G1 X25.586 Y11.472
G1 X24.140 Y10.028
G1 X23.866 Y10.028
G1 X25.310 Y11.472
G1 X25.060 Y11.472
G1 X23.614 Y10.028
G1 X23.341 Y10.028
G1 X24.785 Y11.472
G1 X24.535 Y11.472
G1 X23.089 Y10.028
G1 X22.816 Y10.028
G1 X24.260 Y11.472
G1 X24.009 Y11.472
G1 X22.563 Y10.028
G1 X22.291 Y10.028
G1 X23.735 Y11.472
G1 X23.484 Y11.472
G1 X22.038 Y10.028
G1 X21.766 Y10.028
G1 X23.210 Y11.472
G1 X22.958 Y11.472
G1 X21.512 Y10.028
G1 X21.241 Y10.028
G1 X22.685 Y11.472
G1 X22.433 Y11.472
G1 X20.987 Y10.028
G1 X20.716 Y10.028
G1 X22.159 Y11.472
G1 X21.907 Y11.472
G1 X20.461 Y10.028
G1 X20.191 Y10.028
G1 X21.634 Y11.472
G1 X21.382 Y11.472
G1 X19.936 Y10.028
G1 X19.666 Y10.028
G1 X21.109 Y11.472
G1 X20.856 Y11.472
G1 X19.410 Y10.028
G1 X19.140 Y10.028
G1 X20.584 Y11.472
G1 X20.331 Y11.472
G1 X18.884 Y10.028
G1 X18.615 Y10.028
G1 X20.059 Y11.472
G1 X19.805 Y11.472
G1 X18.359 Y10.028
G1 X18.090 Y10.028
G1 X19.534 Y11.472
G1 X19.280 Y11.472
G1 X17.833 Y10.028
G1 X17.565 Y10.028
G1 X19.009 Y11.472
G1 X18.754 Y11.472
G1 X17.308 Y10.028
G1 X17.040 Y10.028
G1 X18.484 Y11.472
G1 X18.229 Y11.472
G1 X16.782 Y10.028
G1 X16.515 Y10.028
G1 X17.959 Y11.472
G1 X17.703 Y11.472
G1 X16.257 Y10.028
G1 X15.990 Y10.028
G1 X17.434 Y11.472
G1 X17.178 Y11.472
G1 X15.731 Y10.028
G1 X15.465 Y10.028
G1 X16.909 Y11.472
G1 X16.652 Y11.472
G1 X15.206 Y10.028
G1 X14.940 Y10.028
G1 X16.384 Y11.472
G1 X16.127 Y11.472
G1 X14.680 Y10.028
G1 X14.415 Y10.028
G1 X15.859 Y11.472
G1 X15.601 Y11.472
G1 X14.155 Y10.028
G1 X13.890 Y10.028
G1 X15.333 Y11.472
G1 X15.075 Y11.472
G1 X13.629 Y10.028
G1 X13.365 Y10.028
G1 X14.808 Y11.472
G1 X14.550 Y11.472
G1 X11.897 Y8.823
G1 X11.897 Y9.086
G1 X14.283 Y11.472
G1 X14.024 Y11.472
G1 X11.897 Y9.348
G1 X11.897 Y9.611
G1 X13.758 Y11.472
G1 X13.499 Y11.472
G1 X11.897 Y9.873
G1 X11.897 Y10.136
G1 X13.233 Y11.472
G1 X12.973 Y11.472
G1 X11.897 Y10.397
G1 X11.897 Y10.661
G1 X12.708 Y11.472
G1 X12.448 Y11.472
G1 X11.897 Y10.922
G1 X11.897 Y11.186
G1 X12.183 Y11.472
G1 X13.341 Y10.005 F7800.000
G1 X11.897 Y8.561 F3600.000
G1 X11.897 Y8.299
G1 X13.341 Y9.740
G1 X13.341 Y9.480
G1 X11.897 Y8.036
G1 X11.897 Y7.774
G1 X13.341 Y9.216
G1 X13.341 Y8.955
G1 X11.897 Y7.511
G1 X11.897 Y7.249
G1 X13.341 Y8.691
G1 X13.341 Y8.429
G1 X11.897 Y6.986
G1 X11.897 Y6.725
G1 X13.341 Y8.166
G1 X13.341 Y7.904
G1 X11.897 Y6.461
G1 X11.897 Y6.200
G1 X13.341 Y7.642
G1 X13.341 Y7.379
G1 X11.897 Y5.935
G1 X11.897 Y5.676
G1 X13.341 Y7.117
G1 X13.341 Y6.854
G1 X11.897 Y5.410
G1 X11.897 Y5.151
G1 X13.341 Y6.592
G1 X13.341 Y6.329
G1 X11.897 Y4.885
G1 X11.897 Y4.626
G1 X13.341 Y6.068
G1 X13.341 Y5.804
G1 X11.897 Y4.360
G1 X11.897 Y4.102
G1 X13.341 Y5.543
G1 X13.341 Y5.279
G1 X11.897 Y3.835
G1 X11.897 Y3.577
G1 X13.341 Y5.018
G1 X13.341 Y4.754
G1 X11.897 Y3.310
G1 X11.897 Y3.052
G1 X13.341 Y4.494
G1 X13.341 Y4.229
G1 X11.897 Y2.785
G1 X11.897 Y2.528
G1 X13.341 Y3.969
G1 X13.341 Y3.704
G1 X11.897 Y2.260
G1 X11.897 Y2.003
G1 X13.341 Y3.445
G1 X13.341 Y3.179
G1 X11.897 Y1.735
G1 X11.897 Y1.478
G1 X13.341 Y2.920
G1 X13.341 Y2.654
G1 X11.897 Y1.210
G1 X11.897 Y0.954
G1 X13.341 Y2.395
G1 X13.341 Y2.128
G1 X11.897 Y0.685
G1 X11.897 Y0.429
G1 X13.341 Y1.871
G1 X13.341 Y1.603
G1 X11.897 Y0.160
G1 X11.897 Y-0.096
G1 X13.341 Y1.346
G1 X13.341 Y1.078
G1 X11.897 Y-0.366
G1 X11.897 Y-0.620
G1 X13.341 Y0.821
G1 X13.341 Y0.553
G1 X11.897 Y-0.891
G1 X11.897 Y-1.145
G1 X13.341 Y0.297
G1 X13.341 Y0.028
G1 X11.897 Y-1.416
G1 X11.897 Y-1.670
G1 X13.341 Y-0.228
G1 X13.341 Y-0.497
G1 X11.897 Y-1.941
G1 X11.897 Y-2.194
G1 X13.341 Y-0.753
G1 X13.341 Y-1.022
G1 X11.897 Y-2.466
G1 X11.897 Y-2.719
G1 X13.341 Y-1.277
G1 X13.341 Y-1.547
G1 X11.897 Y-2.991
G1 X11.897 Y-3.244
G1 X13.341 Y-1.802
G1 X13.385 Y-2.028 F7800.000
G1 X11.941 Y-3.472 F3600.000
G1 X12.194 Y-3.472
G1 X13.640 Y-2.028
G1 X13.910 Y-2.028
G1 X12.466 Y-3.472
G1 X12.720 Y-3.472
G1 X14.166 Y-2.028
G1 X14.435 Y-2.028
G1 X12.992 Y-3.472
G1 X13.245 Y-3.472
G1 X14.691 Y-2.028
G1 X14.960 Y-2.028
G1 X13.517 Y-3.472
G1 X13.771 Y-3.472
G1 X15.217 Y-2.028
G1 X15.486 Y-2.028
G1 X14.042 Y-3.472
G1 X14.296 Y-3.472
G1 X15.742 Y-2.028
G1 X16.011 Y-2.028
G1 X14.567 Y-3.472
G1 X14.822 Y-3.472
G1 X16.268 Y-2.028
G1 X16.536 Y-2.028
G1 X15.092 Y-3.472
G1 X15.347 Y-3.472
G1 X16.793 Y-2.028
G1 X17.061 Y-2.028
G1 X15.617 Y-3.472
G1 X15.873 Y-3.472
G1 X17.319 Y-2.028
G1 X17.586 Y-2.028
G1 X16.142 Y-3.472
G1 X16.398 Y-3.472
G1 X17.844 Y-2.028
G1 X18.111 Y-2.028
G1 X16.667 Y-3.472
G1 X16.924 Y-3.472
G1 X18.370 Y-2.028
G1 X18.636 Y-2.028
G1 X17.192 Y-3.472
G1 X17.449 Y-3.472
G1 X18.895 Y-2.028
G1 X19.161 Y-2.028
G1 X17.717 Y-3.472
G1 X17.975 Y-3.472
G1 X19.421 Y-2.028
G1 X19.686 Y-2.028
G1 X18.242 Y-3.472
G1 X18.500 Y-3.472
G1 X19.946 Y-2.028
G1 X20.211 Y-2.028
G1 X18.767 Y-3.472
G1 X19.026 Y-3.472
G1 X20.472 Y-2.028
G1 X20.736 Y-2.028
G1 X19.293 Y-3.472
G1 X19.551 Y-3.472
G1 X20.997 Y-2.028
G1 X21.261 Y-2.028
G1 X19.818 Y-3.472
G1 X20.077 Y-3.472
G1 X21.523 Y-2.028
G1 X21.787 Y-2.028
G1 X20.343 Y-3.472
G1 X20.602 Y-3.472
G1 X22.048 Y-2.028
G1 X22.312 Y-2.028
G1 X20.868 Y-3.472
G1 X21.128 Y-3.472
G1 X22.574 Y-2.028
G1 X22.837 Y-2.028
G1 X21.393 Y-3.472
G1 X21.653 Y-3.472
G1 X23.099 Y-2.028
G1 X23.362 Y-2.028
G1 X21.918 Y-3.472
G1 X22.179 Y-3.472
G1 X23.625 Y-2.028
G1 X23.887 Y-2.028
G1 X22.443 Y-3.472
G1 X22.704 Y-3.472
G1 X24.150 Y-2.028
G1 X24.412 Y-2.028
G1 X22.968 Y-3.472
G1 X23.230 Y-3.472
G1 X24.676 Y-2.028
G1 X24.937 Y-2.028
G1 X23.493 Y-3.472
G1 X23.755 Y-3.472
G1 X25.201 Y-2.028
G1 X25.397 Y-2.093
G1 X26.841 Y-0.649
G1 X26.841 Y-0.391
G1 X25.397 Y-1.833
G1 X25.462 Y-2.028
G1 X24.018 Y-3.472
G1 X24.281 Y-3.472
G1 X26.841 Y-0.916
G1 X26.841 Y-1.174
G1 X24.543 Y-3.472
G1 X24.806 Y-3.472
G1 X26.841 Y-1.440
G1 X26.841 Y-1.699
G1 X25.068 Y-3.472
G1 X25.332 Y-3.472
G1 X26.841 Y-1.965
G1 X26.841 Y-2.224
G1 X25.593 Y-3.472
G1 X25.857 Y-3.472
G1 X26.841 Y-2.490
G1 X26.841 Y-2.749
G1 X26.119 Y-3.472
G1 X26.383 Y-3.472
G1 X26.841 Y-3.014
G1 X26.841 Y-3.274
G1 X26.644 Y-3.472
G1 X25.397 Y-1.568 F7800.000
G1 X26.841 Y-0.124 F3600.000
G1 X26.841 Y0.134
G1 X25.397 Y-1.308
G1 X25.397 Y-1.043
G1 X26.841 Y0.401
G1 X26.841 Y0.658
G1 X25.397 Y-0.783
G1 X25.397 Y-0.518
G1 X26.841 Y0.926
G1 X26.841 Y1.183
G1 X25.397 Y-0.259
G1 X25.397 Y0.007
G1 X26.841 Y1.451
G1 X26.841 Y1.708
G1 X25.397 Y0.266
G1 X25.397 Y0.533
G1 X26.841 Y1.976
G1 X26.841 Y2.232
G1 X25.397 Y0.791
G1 X25.397 Y1.058
G1 X26.841 Y2.501
G1 X26.841 Y2.757
G1 X25.397 Y1.315
G1 X25.397 Y1.583
G1 X26.841 Y3.027
G1 X26.841 Y3.282
G1 X25.397 Y1.840
G1 X25.397 Y2.108
G1 X26.841 Y3.552
G1 X26.841 Y3.806
G1 X25.397 Y2.365
G1 X25.397 Y2.633
G1 X26.841 Y4.077
G1 X26.841 Y4.331
G1 X25.397 Y2.889
G1 X25.397 Y3.158
G1 X26.841 Y4.602
G1 X26.841 Y4.856
G1 X25.397 Y3.414
G1 X25.397 Y3.683
G1 X26.841 Y5.127
G1 X26.841 Y5.380
G1 X25.397 Y3.939
G1 X25.397 Y4.208
G1 X26.841 Y5.652
G1 X26.841 Y5.905
G1 X25.397 Y4.463
G1 X25.397 Y4.733
G1 X26.841 Y6.177
G1 X26.841 Y6.430
G1 X25.397 Y4.988
G1 X25.397 Y5.258
G1 X26.841 Y6.702
G1 X26.841 Y6.954
G1 X25.397 Y5.513
G1 X25.397 Y5.783
G1 X26.841 Y7.227
G1 X26.841 Y7.479
G1 X25.397 Y6.037
G1 X25.397 Y6.308
G1 X26.841 Y7.752
G1 X26.841 Y8.004
G1 X25.397 Y6.562
G1 X25.397 Y6.834
G1 X26.841 Y8.277
G1 X26.785 Y8.472
G1 X25.339 Y7.028
G1 X25.067 Y7.028
G1 X26.511 Y8.472
G1 X26.259 Y8.472
G1 X24.813 Y7.028
G1 X24.542 Y7.028
G1 X25.986 Y8.472
G1 X25.734 Y8.472
G1 X24.288 Y7.028
G1 X24.017 Y7.028
G1 X25.460 Y8.472
G1 X25.208 Y8.472
G1 X23.762 Y7.028
G1 X23.492 Y7.028
G1 X24.935 Y8.472
G1 X24.683 Y8.472
G1 X23.237 Y7.028
G1 X22.966 Y7.028
G1 X24.410 Y8.472
G1 X24.157 Y8.472
G1 X22.711 Y7.028
G1 X22.441 Y7.028
G1 X23.885 Y8.472
G1 X23.632 Y8.472
G1 X22.186 Y7.028
G1 X21.916 Y7.028
G1 X23.360 Y8.472
G1 X23.106 Y8.472
G1 X21.660 Y7.028
G1 X21.391 Y7.028
G1 X22.835 Y8.472
G1 X22.581 Y8.472
G1 X21.135 Y7.028
G1 X20.866 Y7.028
G1 X22.310 Y8.472
G1 X22.055 Y8.472
G1 X20.609 Y7.028
G1 X20.341 Y7.028
G1 X21.785 Y8.472
G1 X21.530 Y8.472
G1 X20.084 Y7.028
G1 X19.816 Y7.028
G1 X21.260 Y8.472
G1 X21.004 Y8.472
G1 X19.558 Y7.028
G1 X19.291 Y7.028
G1 X20.735 Y8.472
G1 X20.479 Y8.472
G1 X19.033 Y7.028
G1 X18.766 Y7.028
G1 X20.210 Y8.472
G1 X19.953 Y8.472
G1 X18.507 Y7.028
G1 X18.241 Y7.028
G1 X19.685 Y8.472
G1 X19.428 Y8.472
G1 X17.982 Y7.028
G1 X17.716 Y7.028
G1 X19.159 Y8.472
G1 X18.902 Y8.472
G1 X17.456 Y7.028
G1 X17.191 Y7.028
G1 X18.634 Y8.472
G1 X18.377 Y8.472
G1 X16.931 Y7.028
G1 X16.666 Y7.028
G1 X18.109 Y8.472
G1 X17.851 Y8.472
G1 X16.405 Y7.028
G1 X14.897 Y8.146 F7800.000
G1 X15.224 Y8.472 F3600.000
G1 X15.484 Y8.472
G1 X14.897 Y7.885
G1 X14.897 Y7.621
G1 X15.749 Y8.472
G1 X16.009 Y8.472
G1 X14.897 Y7.360
G1 X14.897 Y7.097
G1 X16.275 Y8.472
G1 X16.534 Y8.472
G1 X14.897 Y6.835
G1 X14.897 Y6.572
G1 X16.800 Y8.472
G1 X17.059 Y8.472
G1 X14.897 Y6.310
G1 X14.897 Y6.047
G1 X17.326 Y8.472
G1 X17.584 Y8.472
G1 X14.897 Y5.785
G1 X14.897 Y5.523
G1 X16.341 Y6.964
G1 X16.341 Y6.704
G1 X14.897 Y5.260
G1 X14.897 Y4.998
G1 X16.341 Y6.440
G1 X16.341 Y6.179
G1 X14.897 Y4.735
G1 X14.897 Y4.473
G1 X16.341 Y5.915
G1 X16.341 Y5.654
G1 X14.897 Y4.210
G1 X14.897 Y3.949
G1 X16.341 Y5.390
G1 X16.341 Y5.128
G1 X14.897 Y3.685
G1 X14.897 Y3.424
G1 X16.341 Y4.866
G1 X16.341 Y4.603
G1 X14.897 Y3.160
G1 X14.897 Y2.899
G1 X16.341 Y4.341
G1 X16.341 Y4.078
G1 X14.897 Y2.634
G1 X14.897 Y2.375
G1 X16.341 Y3.816
G1 X16.341 Y3.553
G1 X14.897 Y2.109
G1 X14.897 Y1.850
G1 X16.341 Y3.292
G1 X16.341 Y3.028
G1 X14.897 Y1.584
G1 X14.897 Y1.325
G1 X16.341 Y2.767
G1 X16.341 Y2.503
G1 X14.897 Y1.059
G1 X14.897 Y0.801
G1 X16.341 Y2.242
G1 X16.341 Y1.978
G1 X14.897 Y0.534
G1 X14.897 Y0.276
G1 X16.341 Y1.718
G1 X16.341 Y1.453
G1 X14.897 Y0.009
G1 X14.897 Y-0.248
G1 X16.341 Y1.193
G1 X16.385 Y0.972 F7800.000
G1 X14.941 Y-0.472 F3600.000
G1 X15.199 Y-0.472 F7800.000
G1 X16.645 Y0.972 F3600.000
G1 X16.910 Y0.972
G1 X15.466 Y-0.472
G1 X15.725 Y-0.472
G1 X17.171 Y0.972
G1 X17.435 Y0.972
G1 X15.992 Y-0.472
G1 X16.250 Y-0.472
G1 X17.696 Y0.972
G1 X17.960 Y0.972
G1 X16.517 Y-0.472
G1 X16.776 Y-0.472
G1 X18.222 Y0.972
G1 X18.486 Y0.972
G1 X17.042 Y-0.472
G1 X17.301 Y-0.472
G1 X18.747 Y0.972
G1 X19.011 Y0.972
G1 X17.567 Y-0.472
G1 X17.827 Y-0.472
G1 X19.273 Y0.972
G1 X19.536 Y0.972
G1 X18.092 Y-0.472
G1 X18.352 Y-0.472
G1 X19.798 Y0.972
G1 X20.061 Y0.972
G1 X18.617 Y-0.472
G1 X18.878 Y-0.472
G1 X20.324 Y0.972
G1 X20.586 Y0.972
G1 X19.142 Y-0.472
G1 X19.403 Y-0.472
G1 X20.849 Y0.972
G1 X21.111 Y0.972
G1 X19.667 Y-0.472
G1 X19.929 Y-0.472
G1 X21.375 Y0.972
G1 X21.636 Y0.972
G1 X20.192 Y-0.472
G1 X20.454 Y-0.472
G1 X21.900 Y0.972
G1 X22.161 Y0.972
G1 X20.717 Y-0.472
G1 X20.980 Y-0.472
G1 X22.426 Y0.972
G1 X22.397 Y0.943 F7800.000
G1 X23.841 Y2.385 F3600.000
G1 X23.841 Y2.127
G1 X21.242 Y-0.472
G1 X21.505 Y-0.472
G1 X23.841 Y1.860
G1 X23.841 Y1.602
G1 X21.767 Y-0.472
G1 X22.031 Y-0.472
G1 X23.841 Y1.336
G1 X23.841 Y1.077
G1 X22.293 Y-0.472
G1 X22.556 Y-0.472
G1 X23.841 Y0.811
G1 X23.841 Y0.552
G1 X22.818 Y-0.472
G1 X23.082 Y-0.472
G1 X23.841 Y0.286
G1 X23.841 Y0.027
G1 X23.343 Y-0.472
G1 X23.607 Y-0.472
G1 X23.841 Y-0.238
G1 X22.397 Y1.208 F7800.000
G1 X23.841 Y2.652 F3600.000
G1 X23.841 Y2.910
G1 X22.397 Y1.468
G1 X22.397 Y1.733
G1 X23.841 Y3.177
G1 X23.841 Y3.434
G1 X22.397 Y1.993
G1 X22.397 Y2.258
G1 X23.841 Y3.702
G1 X23.841 Y3.959
G1 X22.397 Y2.517
G1 X22.397 Y2.783
G1 X23.841 Y4.227
G1 X23.841 Y4.484
G1 X22.397 Y3.042
G1 X22.397 Y3.308
G1 X23.841 Y4.752
G1 X23.841 Y5.008
G1 X22.397 Y3.567
G1 X22.397 Y3.834
G1 X23.841 Y5.277
G1 X23.780 Y5.472
G1 X22.334 Y4.028
G1 X22.067 Y4.028
G1 X23.511 Y5.472
G1 X23.254 Y5.472
G1 X21.808 Y4.028
G1 X21.542 Y4.028
G1 X22.986 Y5.472
G1 X22.729 Y5.472
G1 X21.283 Y4.028
G1 X21.017 Y4.028
G1 X22.460 Y5.472
G1 X22.203 Y5.472
G1 X20.757 Y4.028
G1 X20.492 Y4.028
G1 X21.935 Y5.472
G1 X21.678 Y5.472
G1 X20.232 Y4.028
G1 X19.966 Y4.028
G1 X21.410 Y5.472
G1 X21.152 Y5.472
G1 X19.706 Y4.028
G1 X19.441 Y4.028 F7800.000
G1 X20.885 Y5.472 F3600.000
G1 X20.627 Y5.472
G1 X17.897 Y2.747
G1 X17.897 Y3.009
G1 X20.360 Y5.472
G1 X20.101 Y5.472
G1 X17.897 Y3.271
G1 X17.897 Y3.534
G1 X19.835 Y5.472
G1 X19.576 Y5.472
G1 X17.897 Y3.796
G1 X17.897 Y4.059
G1 X19.310 Y5.472
G1 X19.050 Y5.472
G1 X17.897 Y4.321
G1 X17.897 Y4.584
G1 X18.785 Y5.472
G1 X18.525 Y5.472
G1 X17.897 Y4.845
G1 X17.897 Y5.109
G1 X18.260 Y5.472
G1 X17.999 Y5.472
G1 X17.897 Y5.370
G1 X19.341 Y3.928 F7800.000
G1 X17.941 Y2.528 F3600.000
G1 X19.255 Y2.528 F7800.000
G1 X19.341 Y2.614 F3600.000
G1 X19.341 Y2.878
G1 X18.992 Y2.528
G1 X18.729 Y2.528
G1 X19.341 Y3.139
G1 X19.341 Y3.403
G1 X18.466 Y2.528
G1 X18.204 Y2.528
G1 X19.341 Y3.664
G1 X34.297 Y-11.046 F7800.000
G1 X35.741 Y-9.602 F3600.000
G1 X35.741 Y-9.868
G1 X33.133 Y-12.472
G1 X33.396 Y-12.472
G1 X35.741 Y-10.127
G1 X35.741 Y-10.393
G1 X33.659 Y-12.472
G1 X33.921 Y-12.472
G1 X35.741 Y-10.652
G1 X35.741 Y-10.918
G1 X34.184 Y-12.472
G1 X34.446 Y-12.472
G1 X35.741 Y-11.177
G1 X35.741 Y-11.442
G1 X34.710 Y-12.472
G1 X34.971 Y-12.472
G1 X35.741 Y-11.702
G1 X35.741 Y-11.967
G1 X35.235 Y-12.472
G1 X35.496 Y-12.472
G1 X35.741 Y-12.227
G1 Z0.200
G1 X-5.797 Y-12.227 F7800.000
G1 X-6.042 Y-12.472 F3600.000
G1 X-6.303 Y-12.472
G1 X-5.797 Y-11.967
G1 X-5.797 Y-11.702
G1 X-6.567 Y-12.472
G1 X-6.828 Y-12.472
G1 X-5.797 Y-11.442
G1 X-5.797 Y-11.177
G1 X-7.092 Y-12.472
G1 X-7.354 Y-12.472
G1 X-5.797 Y-10.918
G1 X-5.797 Y-10.652
G1 X-7.617 Y-12.472
G1 X-7.879 Y-12.472
G1 X-5.797 Y-10.393
G1 X-5.797 Y-10.127
G1 X-8.142 Y-12.472
G1 X-8.405 Y-12.472
G1 X-5.797 Y-9.868
G1 X-5.797 Y-9.602
G1 X-7.241 Y-11.046
G1 X-7.224 Y-11.028 F7800.000
G1 X-8.667 Y-12.472 F3600.000
G1 X-8.931 Y-12.472
G1 X-7.484 Y-11.028
G1 X-7.749 Y-11.028
G1 X-9.193 Y-12.472
G1 X-9.456 Y-12.472
G1 X-8.010 Y-11.028
G1 X-8.274 Y-11.028
G1 X-9.718 Y-12.472
G1 X-9.982 Y-12.472
G1 X-8.535 Y-11.028
G1 X-8.799 Y-11.028
G1 X-10.243 Y-12.472
G1 X-10.507 Y-12.472
G1 X-9.061 Y-11.028
G1 X-9.324 Y-11.028
G1 X-10.768 Y-12.472
G1 X-11.033 Y-12.472
G1 X-9.586 Y-11.028
G1 X-9.849 Y-11.028
G1 X-11.293 Y-12.472
G1 X-11.558 Y-12.472
G1 X-10.112 Y-11.028
G1 X-10.374 Y-11.028
G1 X-11.818 Y-12.472
G1 X-12.084 Y-12.472
G1 X-10.637 Y-11.028
G1 X-10.899 Y-11.028
G1 X-12.343 Y-12.472
G1 X-12.609 Y-12.472
G1 X-11.163 Y-11.028
G1 X-11.424 Y-11.028
G1 X-12.868 Y-12.472
G1 X-13.135 Y-12.472
G1 X-11.689 Y-11.028
G1 X-11.949 Y-11.028
G1 X-13.393 Y-12.472
G1 X-13.660 Y-12.472
G1 X-12.214 Y-11.028
G1 X-12.474 Y-11.028
G1 X-13.918 Y-12.472
G1 X-14.186 Y-12.472
G1 X-12.740 Y-11.028
G1 X-13.000 Y-11.028
G1 X-14.443 Y-12.472
G1 X-14.711 Y-12.472
G1 X-13.265 Y-11.028
G1 X-13.525 Y-11.028
G1 X-14.968 Y-12.472
G1 X-15.237 Y-12.472
G1 X-13.791 Y-11.028
G1 X-14.050 Y-11.028
G1 X-15.494 Y-12.472
G1 X-15.762 Y-12.472
G1 X-14.316 Y-11.028
G1 X-14.575 Y-11.028
G1 X-16.019 Y-12.472
G1 X-16.288 Y-12.472
G1 X-14.842 Y-11.028
G1 X-15.100 Y-11.028
G1 X-16.544 Y-12.472
G1 X-16.813 Y-12.472
G1 X-15.367 Y-11.028
G1 X-15.625 Y-11.028
G1 X-17.069 Y-12.472
G1 X-17.339 Y-12.472
G1 X-15.893 Y-11.028
G1 X-16.150 Y-11.028
G1 X-17.594 Y-12.472
G1 X-17.864 Y-12.472
G1 X-16.418 Y-11.028
G1 X-16.675 Y-11.028
G1 X-18.119 Y-12.472
G1 X-18.390 Y-12.472
G1 X-16.944 Y-11.028
G1 X-17.200 Y-11.028
G1 X-18.644 Y-12.472
G1 X-18.915 Y-12.472
G1 X-17.469 Y-11.028
G1 X-17.725 Y-11.028
G1 X-19.169 Y-12.472
G1 X-19.441 Y-12.472
G1 X-17.995 Y-11.028
G1 X-18.250 Y-11.028
G1 X-19.694 Y-12.472
G1 X-19.966 Y-12.472
G1 X-18.520 Y-11.028
G1 X-18.775 Y-11.028
G1 X-20.219 Y-12.472
G1 X-20.492 Y-12.472
G1 X-19.046 Y-11.028
G1 X-19.301 Y-11.028
G1 X-20.744 Y-12.472
G1 X-21.017 Y-12.472
G1 X-19.571 Y-11.028
G1 X-19.826 Y-11.028
G1 X-21.269 Y-12.472
G1 X-21.543 Y-12.472
G1 X-20.097 Y-11.028
G1 X-20.351 Y-11.028
G1 X-21.794 Y-12.472
G1 X-22.068 Y-12.472
G1 X-20.622 Y-11.028
G1 X-20.876 Y-11.028
G1 X-22.320 Y-12.472
G1 X-22.594 Y-12.472
G1 X-21.148 Y-11.028
G1 X-21.401 Y-11.028
G1 X-22.845 Y-12.472
G1 X-23.119 Y-12.472
G1 X-21.673 Y-11.028
G1 X-21.926 Y-11.028
G1 X-23.370 Y-12.472
G1 X-23.645 Y-12.472
G1 X-22.199 Y-11.028
G1 X-22.451 Y-11.028
G1 X-23.895 Y-12.472
G1 X-24.170 Y-12.472
G1 X-22.724 Y-11.028
G1 X-22.976 Y-11.028
G1 X-24.420 Y-12.472
G1 X-24.696 Y-12.472
G1 X-23.250 Y-11.028
G1 X-23.501 Y-11.028
G1 X-24.945 Y-12.472
G1 X-25.221 Y-12.472
G1 X-23.775 Y-11.028
G1 X-24.026 Y-11.028
G1 X-25.470 Y-12.472
G1 X-25.747 Y-12.472
G1 X-24.301 Y-11.028
G1 X-24.551 Y-11.028
G1 X-25.995 Y-12.472
G1 X-26.272 Y-12.472
G1 X-24.826 Y-11.028
G1 X-25.076 Y-11.028
G1 X-26.520 Y-12.472
G1 X-26.798 Y-12.472
G1 X-25.352 Y-11.028
G1 X-25.601 Y-11.028
G1 X-27.045 Y-12.472
G1 X-27.323 Y-12.472
G1 X-25.877 Y-11.028
G1 X-26.127 Y-11.028
G1 X-27.570 Y-12.472
G1 X-27.849 Y-12.472
G1 X-26.403 Y-11.028
G1 X-26.652 Y-11.028
G1 X-28.095 Y-12.472
G1 X-28.374 Y-12.472
G1 X-26.928 Y-11.028
G1 X-27.177 Y-11.028
G1 X-28.621 Y-12.472
G1 X-28.900 Y-12.472
G1 X-27.454 Y-11.028
G1 X-27.702 Y-11.028
G1 X-29.146 Y-12.472
G1 X-29.425 Y-12.472
G1 X-27.979 Y-11.028
G1 X-28.227 Y-11.028
G1 X-29.671 Y-12.472
G1 X-29.951 Y-12.472
G1 X-28.505 Y-11.028
G1 X-28.752 Y-11.028
G1 X-30.196 Y-12.472
G1 X-30.476 Y-12.472
G1 X-29.030 Y-11.028
G1 X-29.277 Y-11.028
G1 X-30.721 Y-12.472
G1 X-31.002 Y-12.472
G1 X-29.556 Y-11.028
G1 X-29.802 Y-11.028
G1 X-31.246 Y-12.472
G1 X-31.527 Y-12.472
G1 X-30.081 Y-11.028
G1 X-30.327 Y-11.028
G1 X-31.771 Y-12.472
G1 X-32.053 Y-12.472
G1 X-30.607 Y-11.028
G1 X-30.852 Y-11.028
G1 X-32.296 Y-12.472
G1 X-32.578 Y-12.472
G1 X-31.132 Y-11.028
G1 X-31.377 Y-11.028
G1 X-32.821 Y-12.472
G1 X-33.104 Y-12.472
G1 X-31.658 Y-11.028
G1 X-31.902 Y-11.028
G1 X-33.346 Y-12.472
G1 X-33.629 Y-12.472
G1 X-32.183 Y-11.028
G1 X-32.428 Y-11.028
G1 X-33.871 Y-12.472
G1 X-34.155 Y-12.472
G1 X-32.709 Y-11.028
G1 X-32.953 Y-11.028
G1 X-35.741 Y-13.817
G1 X-35.741 Y-14.056
G1 X-34.297 Y-12.614
G1 X-34.297 Y-12.898
G1 X-35.741 Y-14.342
G1 X-35.741 Y-14.580
G1 X-34.297 Y-13.139
G1 X-34.297 Y-13.423
G1 X-35.741 Y-14.867
G1 X-35.741 Y-15.105
G1 X-34.297 Y-13.663
G1 X-34.297 Y-13.948
G1 X-35.741 Y-15.392
G1 X-35.741 Y-15.630
G1 X-34.297 Y-14.188
G1 X-34.297 Y-14.473
G1 X-35.741 Y-15.917
G1 X-35.741 Y-16.154
G1 X-34.297 Y-14.713
G1 X-34.297 Y-14.998
G1 X-35.741 Y-16.442
G1 X-35.741 Y-16.679
G1 X-34.297 Y-15.237
G1 X-34.297 Y-15.523
G1 X-35.741 Y-16.967
G1 X-35.741 Y-17.204
G1 X-34.297 Y-15.762
G1 X-34.297 Y-16.048
G1 X-35.711 Y-17.462
G1 X-35.484 Y-17.472
G1 X-34.297 Y-16.287
G1 X-34.297 Y-16.573
G1 X-35.196 Y-17.472
G1 X-34.959 Y-17.472
G1 X-34.297 Y-16.811
G1 X-34.297 Y-17.099
G1 X-34.671 Y-17.472
G1 X-34.433 Y-17.472
G1 X-34.297 Y-17.336
G1 X-35.741 Y-13.531 F7800.000
G1 X-33.234 Y-11.028 F3600.000
G1 X-33.478 Y-11.028
G1 X-35.741 Y-13.292
G1 X-35.741 Y-13.006
G1 X-33.760 Y-11.028
G1 X-34.003 Y-11.028
G1 X-35.741 Y-12.766
G1 X-35.741 Y-12.482
G1 X-34.285 Y-11.028
G1 X-34.528 Y-11.028
G1 X-35.741 Y-12.241
G1 X-35.741 Y-11.957
G1 X-34.811 Y-11.028
G1 X-35.053 Y-11.028
G1 X-35.741 Y-11.716
G1 X-35.741 Y-11.432
G1 X-35.336 Y-11.028
G1 X-35.578 Y-11.028
G1 X-35.741 Y-11.191
G1 X-35.597 Y-9.472 F7800.000
G1 X-34.153 Y-8.028 F3600.000
G1 X-34.297 Y-7.892 F7800.000
G1 X-35.741 Y-9.334 F3600.000
G1 X-35.741 Y-9.091
G1 X-34.297 Y-7.647
G1 X-34.297 Y-7.367
G1 X-35.741 Y-8.809
G1 X-35.741 Y-8.566
G1 X-34.297 Y-7.122
G1 X-34.297 Y-6.843
G1 X-35.741 Y-8.284
G1 X-35.741 Y-8.041
G1 X-34.297 Y-6.597
G1 X-34.297 Y-6.318
G1 X-35.741 Y-7.760
G1 X-35.741 Y-7.516
G1 X-34.297 Y-6.072
G1 X-34.297 Y-5.794
G1 X-35.741 Y-7.235
G1 X-35.741 Y-6.991
G1 X-34.297 Y-5.547
G1 X-34.297 Y-5.269
G1 X-35.741 Y-6.710
G1 X-35.741 Y-6.465
G1 X-34.297 Y-5.022
G1 X-34.297 Y-4.744
G1 X-35.741 Y-6.186
G1 X-35.741 Y-5.940
G1 X-34.297 Y-4.497
G1 X-34.297 Y-4.220
G1 X-35.741 Y-5.661
G1 X-35.741 Y-5.415
G1 X-34.297 Y-3.972
G1 X-34.297 Y-3.695
G1 X-35.741 Y-5.137
G1 X-35.741 Y-4.890
G1 X-34.297 Y-3.446
G1 X-34.297 Y-3.170
G1 X-35.741 Y-4.612
G1 X-35.741 Y-4.365
G1 X-34.297 Y-2.921
G1 X-34.297 Y-2.646
G1 X-35.741 Y-4.087
G1 X-35.741 Y-3.840
G1 X-34.297 Y-2.396
G1 X-34.297 Y-2.121
G1 X-35.741 Y-3.563
G1 X-35.741 Y-3.315
G1 X-34.297 Y-1.871
G1 X-34.297 Y-1.596
G1 X-35.741 Y-3.038
G1 X-35.741 Y-2.790
G1 X-34.297 Y-1.346
G1 X-34.297 Y-1.072
G1 X-35.741 Y-2.513
G1 X-35.741 Y-2.265
G1 X-34.297 Y-0.821
G1 X-34.297 Y-0.547
G1 X-35.741 Y-1.989
G1 X-35.741 Y-1.740
G1 X-34.297 Y-0.296
G1 X-34.297 Y-0.022
G1 X-35.741 Y-1.464
G1 X-35.741 Y-1.215
G1 X-34.297 Y0.229
G1 X-34.297 Y0.502
G1 X-35.741 Y-0.939
G1 X-35.741 Y-0.690
G1 X-34.297 Y0.754
G1 X-34.297 Y1.027
G1 X-35.741 Y-0.415
G1 X-35.741 Y-0.165
G1 X-34.297 Y1.279
G1 X-34.297 Y1.552
G1 X-35.741 Y0.110
G1 X-35.741 Y0.361
G1 X-34.297 Y1.804
G1 X-34.297 Y2.076
G1 X-35.741 Y0.635
G1 X-35.741 Y0.886
G1 X-34.297 Y2.329
G1 X-34.297 Y2.601
G1 X-35.741 Y1.159
G1 X-35.741 Y1.411
G1 X-34.297 Y2.855
G1 X-34.297 Y3.126
G1 X-35.741 Y1.684
G1 X-35.741 Y1.936
G1 X-34.297 Y3.380
G1 X-34.297 Y3.650
G1 X-35.741 Y2.209
G1 X-35.741 Y2.461
G1 X-34.297 Y3.905
G1 X-34.297 Y4.175
G1 X-35.741 Y2.733
G1 X-35.741 Y2.986
G1 X-34.297 Y4.430
G1 X-34.297 Y4.700
G1 X-35.741 Y3.258
G1 X-35.741 Y3.511
G1 X-34.297 Y4.955
G1 X-34.297 Y5.224
G1 X-35.741 Y3.783
G1 X-35.741 Y4.036
G1 X-34.297 Y5.480
G1 X-34.297 Y5.749
G1 X-35.741 Y4.307
G1 X-35.741 Y4.561
G1 X-34.297 Y6.005
G1 X-34.297 Y6.274
G1 X-35.741 Y4.832
G1 X-35.741 Y5.086
G1 X-34.297 Y6.530
G1 X-34.297 Y6.798
G1 X-35.741 Y5.357
G1 X-35.741 Y5.611
G1 X-34.297 Y7.055
G1 X-34.297 Y7.323
G1 X-35.741 Y5.881
G1 X-35.741 Y6.136
G1 X-34.297 Y7.580
G1 X-34.297 Y7.848
G1 X-35.741 Y6.406
G1 X-35.741 Y6.662
G1 X-34.297 Y8.105
G1 X-34.297 Y8.372
G1 X-35.741 Y6.931
G1 X-35.741 Y7.187
G1 X-34.297 Y8.630
G1 X-34.297 Y8.897
G1 X-35.741 Y7.455
G1 X-35.741 Y7.712
G1 X-34.297 Y9.156
G1 X-34.297 Y9.421
G1 X-35.741 Y7.980
G1 X-35.741 Y8.237
G1 X-34.297 Y9.681
G1 X-34.297 Y9.946
G1 X-35.741 Y8.505
G1 X-35.741 Y8.762
G1 X-34.297 Y10.206
G1 X-34.297 Y10.471
G1 X-35.741 Y9.029
G1 X-35.741 Y9.287
G1 X-34.297 Y10.731
G1 X-34.297 Y10.995
G1 X-35.741 Y9.554
G1 X-35.741 Y9.812
G1 X-34.297 Y11.256
G1 X-34.297 Y11.520
G1 X-35.741 Y10.078
G1 X-35.741 Y10.337
G1 X-34.297 Y11.781
G1 X-34.297 Y12.045
G1 X-35.741 Y10.603
G1 X-35.741 Y10.862
G1 X-34.297 Y12.306
G1 X-34.297 Y12.569
G1 X-35.741 Y11.128
G1 X-35.741 Y11.387
G1 X-34.297 Y12.831
G1 X-34.297 Y13.094
G1 X-35.741 Y11.652
G1 X-35.741 Y11.912
G1 X-34.297 Y13.356
G1 X-34.297 Y13.619
G1 X-35.741 Y12.177
G1 X-35.741 Y12.437
G1 X-34.297 Y13.881
G1 X-34.297 Y14.143
G1 X-35.741 Y12.702
G1 X-35.741 Y12.962
G1 X-34.297 Y14.406
G1 X-34.297 Y14.668
G1 X-35.741 Y13.226
G1 X-35.741 Y13.488
G1 X-34.297 Y14.931
G1 X-34.297 Y15.193
G1 X-35.741 Y13.751
G1 X-35.741 Y14.013
G1 X-34.297 Y15.456
G1 X-34.297 Y15.717
G1 X-35.741 Y14.276
G1 X-35.741 Y14.538
G1 X-34.297 Y15.982
G1 X-34.251 Y16.028 F7800.000
G1 X-32.807 Y17.472 F3600.000
G1 X-33.065 Y17.472
G1 X-35.741 Y14.800
G1 X-35.741 Y15.063
G1 X-33.332 Y17.472
G1 X-33.591 Y17.472
G1 X-35.741 Y15.325
G1 X-35.741 Y15.588
G1 X-33.857 Y17.472
G1 X-34.116 Y17.472
G1 X-35.741 Y15.850
G1 X-35.741 Y16.113
G1 X-34.382 Y17.472
G1 X-34.642 Y17.472
G1 X-35.741 Y16.374
G1 X-35.741 Y16.638
G1 X-34.907 Y17.472
G1 X-35.167 Y17.472
G1 X-35.741 Y16.899
G1 X-35.741 Y17.163
G1 X-35.432 Y17.472
G1 X-33.986 Y16.028 F7800.000
G1 X-32.540 Y17.472 F3600.000
G1 X-32.282 Y17.472
G1 X-33.726 Y16.028
G1 X-33.460 Y16.028
G1 X-32.014 Y17.472
G1 X-31.757 Y17.472
G1 X-33.201 Y16.028
G1 X-32.935 Y16.028
G1 X-31.489 Y17.472
G1 X-31.232 Y17.472
G1 X-32.676 Y16.028
G1 X-32.409 Y16.028
G1 X-30.963 Y17.472
G1 X-30.707 Y17.472
G1 X-32.150 Y16.028
G1 X-31.884 Y16.028
G1 X-30.438 Y17.472
G1 X-30.182 Y17.472
G1 X-31.625 Y16.028
G1 X-31.358 Y16.028
G1 X-29.912 Y17.472
G1 X-29.656 Y17.472
G1 X-31.100 Y16.028
G1 X-30.833 Y16.028
G1 X-29.387 Y17.472
G1 X-29.131 Y17.472
G1 X-30.575 Y16.028
G1 X-30.307 Y16.028
G1 X-28.861 Y17.472
G1 X-28.606 Y17.472
G1 X-30.050 Y16.028
G1 X-29.782 Y16.028
G1 X-28.336 Y17.472
G1 X-28.081 Y17.472
G1 X-29.525 Y16.028
G1 X-29.256 Y16.028
G1 X-27.810 Y17.472
G1 X-27.556 Y17.472
G1 X-29.000 Y16.028
G1 X-28.731 Y16.028
G1 X-27.285 Y17.472
G1 X-27.031 Y17.472
G1 X-28.475 Y16.028
G1 X-28.205 Y16.028
G1 X-26.759 Y17.472
G1 X-26.506 Y17.472
G1 X-27.950 Y16.028
G1 X-27.680 Y16.028
G1 X-26.234 Y17.472
G1 X-25.981 Y17.472
G1 X-27.425 Y16.028
G1 X-27.154 Y16.028
G1 X-25.708 Y17.472
G1 X-25.456 Y17.472
G1 X-26.900 Y16.028
G1 X-26.629 Y16.028
G1 X-25.183 Y17.472
G1 X-24.931 Y17.472
G1 X-26.375 Y16.028
G1 X-26.103 Y16.028
G1 X-24.657 Y17.472
G1 X-24.406 Y17.472
G1 X-25.849 Y16.028
G1 X-25.578 Y16.028
G1 X-24.132 Y17.472
G1 X-23.881 Y17.472
G1 X-25.324 Y16.028
G1 X-25.052 Y16.028
G1 X-23.606 Y17.472
G1 X-23.356 Y17.472
G1 X-24.799 Y16.028
G1 X-24.527 Y16.028
G1 X-23.081 Y17.472
G1 X-22.830 Y17.472
G1 X-24.274 Y16.028
G1 X-24.001 Y16.028
G1 X-22.555 Y17.472
G1 X-22.305 Y17.472
G1 X-23.749 Y16.028
G1 X-23.476 Y16.028
G1 X-22.030 Y17.472
G1 X-21.780 Y17.472
G1 X-23.224 Y16.028
G1 X-22.950 Y16.028
G1 X-21.504 Y17.472
G1 X-21.255 Y17.472
G1 X-22.699 Y16.028
G1 X-22.425 Y16.028
G1 X-20.979 Y17.472
G1 X-20.730 Y17.472
G1 X-22.174 Y16.028
G1 X-21.899 Y16.028
G1 X-20.453 Y17.472
G1 X-20.205 Y17.472
G1 X-21.649 Y16.028
G1 X-21.374 Y16.028
G1 X-19.928 Y17.472
G1 X-19.680 Y17.472
G1 X-21.124 Y16.028
G1 X-20.848 Y16.028
G1 X-19.402 Y17.472
G1 X-19.155 Y17.472
G1 X-20.599 Y16.028
G1 X-20.323 Y16.028
G1 X-18.877 Y17.472
G1 X-18.630 Y17.472
G1 X-20.074 Y16.028
G1 X-19.797 Y16.028
G1 X-18.351 Y17.472
G1 X-18.105 Y17.472
G1 X-19.549 Y16.028
G1 X-19.272 Y16.028
G1 X-17.826 Y17.472
G1 X-17.580 Y17.472
G1 X-19.023 Y16.028
G1 X-18.746 Y16.028
G1 X-17.300 Y17.472
G1 X-17.055 Y17.472
G1 X-18.498 Y16.028
G1 X-18.221 Y16.028
G1 X-16.775 Y17.472
G1 X-16.529 Y17.472
G1 X-17.973 Y16.028
G1 X-17.695 Y16.028
G1 X-16.249 Y17.472
G1 X-16.004 Y17.472
G1 X-17.448 Y16.028
G1 X-17.170 Y16.028
G1 X-15.724 Y17.472
G1 X-15.479 Y17.472
G1 X-16.923 Y16.028
G1 X-16.644 Y16.028
G1 X-15.198 Y17.472
G1 X-14.954 Y17.472
G1 X-16.398 Y16.028
G1 X-16.119 Y16.028
G1 X-14.673 Y17.472
G1 X-14.429 Y17.472
G1 X-15.873 Y16.028
G1 X-15.593 Y16.028
G1 X-14.147 Y17.472
G1 X-13.904 Y17.472
G1 X-15.348 Y16.028
G1 X-15.068 Y16.028
G1 X-13.622 Y17.472
G1 X-13.379 Y17.472
G1 X-14.823 Y16.028
G1 X-14.542 Y16.028
G1 X-13.096 Y17.472
G1 X-12.854 Y17.472
G1 X-14.298 Y16.028
G1 X-14.017 Y16.028
G1 X-12.571 Y17.472
G1 X-12.329 Y17.472
G1 X-13.773 Y16.028
G1 X-13.491 Y16.028
G1 X-12.045 Y17.472
G1 X-11.804 Y17.472
G1 X-13.248 Y16.028
G1 X-12.966 Y16.028
G1 X-11.520 Y17.472
G1 X-11.279 Y17.472
G1 X-12.722 Y16.028
G1 X-12.440 Y16.028
G1 X-10.994 Y17.472
G1 X-10.754 Y17.472
G1 X-12.197 Y16.028
G1 X-11.915 Y16.028
G1 X-10.469 Y17.472
G1 X-10.228 Y17.472
G1 X-11.672 Y16.028
G1 X-11.389 Y16.028
G1 X-9.943 Y17.472
G1 X-9.703 Y17.472
G1 X-11.147 Y16.028
G1 X-10.864 Y16.028
G1 X-9.418 Y17.472
G1 X-9.178 Y17.472
G1 X-10.622 Y16.028
G1 X-10.338 Y16.028
G1 X-8.892 Y17.472
G1 X-8.653 Y17.472
G1 X-10.097 Y16.028
G1 X-9.813 Y16.028
G1 X-8.367 Y17.472
G1 X-8.128 Y17.472
G1 X-9.572 Y16.028
G1 X-9.287 Y16.028
G1 X-7.841 Y17.472
G1 X-7.603 Y17.472
G1 X-9.047 Y16.028
G1 X-8.762 Y16.028
G1 X-7.316 Y17.472
G1 X-7.078 Y17.472
G1 X-8.522 Y16.028
G1 X-8.236 Y16.028
G1 X-6.790 Y17.472
G1 X-6.553 Y17.472
G1 X-7.997 Y16.028
G1 X-7.711 Y16.028
G1 X-6.265 Y17.472
G1 X-6.028 Y17.472
G1 X-7.472 Y16.028
G1 X-7.241 Y15.972 F7800.000
G1 X-5.797 Y17.414 F3600.000
G1 X-5.797 Y17.177
G1 X-7.241 Y15.734
G1 X-7.241 Y15.447
G1 X-5.797 Y16.889
G1 X-5.797 Y16.652
G1 X-7.241 Y15.208
G1 X-7.241 Y14.923
G1 X-5.797 Y16.364
G1 X-5.797 Y16.127
G1 X-7.241 Y14.683
G1 X-7.241 Y14.398
G1 X-5.797 Y15.840
G1 X-5.797 Y15.602
G1 X-7.241 Y14.158
G1 X-7.241 Y13.874
G1 X-5.797 Y15.315
G1 X-5.797 Y15.077
G1 X-7.241 Y13.633
G1 X-7.241 Y13.349
G1 X-5.797 Y14.790
G1 X-5.797 Y14.552
G1 X-7.241 Y13.108
G1 X-7.241 Y12.824
G1 X-5.797 Y14.266
G1 X-5.797 Y14.027
G1 X-7.241 Y12.583
G1 X-7.241 Y12.300
G1 X-5.797 Y13.741
G1 X-5.797 Y13.502
G1 X-7.241 Y12.058
G1 X-7.241 Y11.775
G1 X-5.797 Y13.216
G1 X-5.797 Y12.977
G1 X-7.241 Y11.533
G1 X-7.241 Y11.250
G1 X-5.797 Y12.692
G1 X-5.797 Y12.452
G1 X-7.241 Y11.008
G1 X-7.241 Y10.726
G1 X-5.797 Y12.167
G1 X-5.797 Y11.927
G1 X-7.241 Y10.483
G1 X-7.241 Y10.201
G1 X-5.797 Y11.643
G1 X-5.797 Y11.401
G1 X-7.241 Y9.958
G1 X-7.241 Y9.676
G1 X-5.797 Y11.118
G1 X-5.797 Y10.876
G1 X-7.241 Y9.433
G1 X-7.241 Y9.152
G1 X-5.797 Y10.593
G1 X-5.797 Y10.351
G1 X-7.241 Y8.907
G1 X-7.241 Y8.627
G1 X-5.797 Y10.069
G1 X-5.797 Y9.826
G1 X-7.241 Y8.382
G1 X-7.241 Y8.102
G1 X-5.797 Y9.544
G1 X-5.797 Y9.301
G1 X-7.241 Y7.857
G1 X-7.241 Y7.578
G1 X-5.797 Y9.019
G1 X-5.797 Y8.776
G1 X-7.241 Y7.332
G1 X-7.241 Y7.053
G1 X-5.797 Y8.495
G1 X-5.797 Y8.251
G1 X-7.241 Y6.807
G1 X-7.241 Y6.528
G1 X-5.797 Y7.970
G1 X-5.797 Y7.726
G1 X-7.241 Y6.282
G1 X-7.241 Y6.004
G1 X-5.797 Y7.445
G1 X-5.797 Y7.201
G1 X-7.241 Y5.757
G1 X-7.241 Y5.479
G1 X-5.797 Y6.921
G1 X-5.797 Y6.676
G1 X-7.241 Y5.232
G1 X-7.241 Y4.954
G1 X-5.797 Y6.396
G1 X-5.797 Y6.151
G1 X-7.241 Y4.707
G1 X-7.241 Y4.430
G1 X-5.797 Y5.871
G1 X-5.797 Y5.626
G1 X-7.241 Y4.182
G1 X-7.241 Y3.905
G1 X-5.797 Y5.347
G1 X-5.797 Y5.101
G1 X-7.241 Y3.657
G1 X-7.241 Y3.380
G1 X-5.797 Y4.822
G1 X-5.797 Y4.575
G1 X-7.241 Y3.132
G1 X-7.241 Y2.856
G1 X-5.797 Y4.297
G1 X-5.797 Y4.050
G1 X-7.241 Y2.607
G1 X-7.241 Y2.331
G1 X-5.797 Y3.773
G1 X-5.797 Y3.525
G1 X-7.241 Y2.081
G1 X-7.241 Y1.806
G1 X-5.797 Y3.248
G1 X-5.797 Y3.000
G1 X-7.241 Y1.556
G1 X-7.241 Y1.282
G1 X-5.797 Y2.723
G1 X-5.797 Y2.475
G1 X-7.241 Y1.031
G1 X-7.241 Y0.757
G1 X-5.797 Y2.199
G1 X-5.797 Y1.950
G1 X-7.241 Y0.506
G1 X-7.241 Y0.232
G1 X-5.797 Y1.674
G1 X-5.797 Y1.425
G1 X-7.241 Y-0.019
G1 X-7.241 Y-0.292
G1 X-5.797 Y1.149
G1 X-5.797 Y0.900
G1 X-7.241 Y-0.544
G1 X-7.241 Y-0.817
G1 X-5.797 Y0.625
G1 X-5.797 Y0.375
G1 X-7.241 Y-1.069
G1 X-7.241 Y-1.341
G1 X-5.797 Y0.100
G1 X-5.797 Y-0.150
G1 X-7.241 Y-1.594
G1 X-7.241 Y-1.866
G1 X-5.797 Y-0.425
G1 X-5.797 Y-0.675
G1 X-7.241 Y-2.119
G1 X-7.241 Y-2.391
G1 X-5.797 Y-0.949
G1 X-5.797 Y-1.200
G1 X-7.241 Y-2.644
G1 X-7.241 Y-2.915
G1 X-5.797 Y-1.474
G1 X-5.797 Y-1.726
G1 X-7.241 Y-3.169
G1 X-7.241 Y-3.440
G1 X-5.797 Y-1.999
G1 X-5.797 Y-2.251
G1 X-7.241 Y-3.694
G1 X-7.241 Y-3.965
G1 X-5.797 Y-2.523
G1 X-5.797 Y-2.776
G1 X-7.241 Y-4.220
G1 X-7.241 Y-4.489
G1 X-5.797 Y-3.048
G1 X-5.797 Y-3.301
G1 X-7.241 Y-4.745
G1 X-7.241 Y-5.014
G1 X-5.797 Y-3.572
G1 X-5.797 Y-3.826
G1 X-7.241 Y-5.270
G1 X-7.241 Y-5.539
G1 X-5.797 Y-4.097
G1 X-5.797 Y-4.351
G1 X-7.241 Y-5.795
G1 X-7.241 Y-6.063
G1 X-5.797 Y-4.622
G1 X-5.797 Y-4.876
G1 X-7.241 Y-6.320
G1 X-7.241 Y-6.588
G1 X-5.797 Y-5.146
G1 X-5.797 Y-5.401
G1 X-7.241 Y-6.845
G1 X-7.241 Y-7.113
G1 X-5.797 Y-5.671
G1 X-5.797 Y-5.926
G1 X-7.241 Y-7.370
G1 X-7.241 Y-7.637
G1 X-5.797 Y-6.196
G1 X-5.797 Y-6.451
G1 X-7.241 Y-7.895
G1 X-7.241 Y-8.162
G1 X-5.797 Y-6.720
G1 X-5.797 Y-6.976
G1 X-7.241 Y-8.420
G1 X-7.241 Y-8.687
G1 X-5.797 Y-7.245
G1 X-5.797 Y-7.501
G1 X-7.241 Y-8.945
G1 X-7.241 Y-9.211
G1 X-5.797 Y-7.770
G1 X-5.797 Y-8.027
G1 X-7.241 Y-9.470
G1 X-7.241 Y-9.736
G1 X-5.797 Y-8.294
G1 X-5.797 Y-8.552
G1 X-7.241 Y-9.995
G1 X-7.241 Y-10.261
G1 X-5.797 Y-8.819
G1 X-5.797 Y-9.077
G1 X-7.241 Y-10.520
G1 X-7.241 Y-10.785
G1 X-5.797 Y-9.344
G1 X-8.797 Y-9.191 F7800.000
G1 X-9.079 Y-9.472 F3600.000
G1 X-9.343 Y-9.472
G1 X-8.797 Y-8.926
G1 X-8.797 Y-8.666
G1 X-9.604 Y-9.472
G1 X-9.868 Y-9.472
G1 X-8.797 Y-8.401
G1 X-8.797 Y-8.142
G1 X-10.130 Y-9.472
G1 X-10.393 Y-9.472
G1 X-8.797 Y-7.876
G1 X-8.797 Y-7.617
G1 X-10.655 Y-9.472
G1 X-10.918 Y-9.472
G1 X-8.797 Y-7.351
G1 X-8.797 Y-7.092
G1 X-11.181 Y-9.472
G1 X-11.443 Y-9.472
G1 X-8.797 Y-6.826
G1 X-8.797 Y-6.568
G1 X-10.241 Y-8.009
G1 X-10.260 Y-8.028 F7800.000
G1 X-11.706 Y-9.472 F3600.000
G1 X-11.968 Y-9.472
G1 X-10.525 Y-8.028
G1 X-10.786 Y-8.028
G1 X-12.232 Y-9.472
G1 X-12.494 Y-9.472
G1 X-11.050 Y-8.028
G1 X-11.311 Y-8.028
G1 X-12.757 Y-9.472
G1 X-13.019 Y-9.472
G1 X-11.575 Y-8.028
G1 X-11.837 Y-8.028
G1 X-13.283 Y-9.472
G1 X-13.544 Y-9.472
G1 X-12.100 Y-8.028
G1 X-12.362 Y-8.028
G1 X-13.808 Y-9.472
G1 X-14.069 Y-9.472
G1 X-12.625 Y-8.028
G1 X-12.888 Y-8.028
G1 X-14.334 Y-9.472
G1 X-14.594 Y-9.472
G1 X-13.150 Y-8.028
G1 X-13.413 Y-8.028
G1 X-14.859 Y-9.472
G1 X-15.119 Y-9.472
G1 X-13.675 Y-8.028
G1 X-13.939 Y-8.028
G1 X-15.385 Y-9.472
G1 X-15.644 Y-9.472
G1 X-14.200 Y-8.028
G1 X-14.464 Y-8.028
G1 X-15.910 Y-9.472
G1 X-16.169 Y-9.472
G1 X-14.725 Y-8.028
G1 X-14.990 Y-8.028
G1 X-16.436 Y-9.472
G1 X-16.694 Y-9.472
G1 X-15.250 Y-8.028
G1 X-15.515 Y-8.028
G1 X-16.961 Y-9.472
G1 X-17.219 Y-9.472
G1 X-15.775 Y-8.028
G1 X-16.041 Y-8.028
G1 X-17.487 Y-9.472
G1 X-17.744 Y-9.472
G1 X-16.301 Y-8.028
G1 X-16.566 Y-8.028
G1 X-18.012 Y-9.472
G1 X-18.269 Y-9.472
G1 X-16.826 Y-8.028
G1 X-17.092 Y-8.028
G1 X-18.538 Y-9.472
G1 X-18.794 Y-9.472
G1 X-17.351 Y-8.028
G1 X-17.617 Y-8.028
G1 X-19.063 Y-9.472
G1 X-19.320 Y-9.472
G1 X-17.876 Y-8.028
G1 X-18.143 Y-8.028
G1 X-19.589 Y-9.472
G1 X-19.845 Y-9.472
G1 X-18.401 Y-8.028
G1 X-18.668 Y-8.028
G1 X-20.114 Y-9.472
G1 X-20.370 Y-9.472
G1 X-18.926 Y-8.028
G1 X-19.194 Y-8.028
G1 X-20.640 Y-9.472
G1 X-20.895 Y-9.472
G1 X-19.451 Y-8.028
G1 X-19.719 Y-8.028
G1 X-21.165 Y-9.472
G1 X-21.420 Y-9.472
G1 X-19.976 Y-8.028
G1 X-20.245 Y-8.028
G1 X-21.691 Y-9.472
G1 X-21.945 Y-9.472
G1 X-20.501 Y-8.028
G1 X-20.770 Y-8.028
G1 X-22.216 Y-9.472
G1 X-22.470 Y-9.472
G1 X-21.026 Y-8.028
G1 X-21.296 Y-8.028
G1 X-22.742 Y-9.472
G1 X-22.995 Y-9.472
G1 X-21.551 Y-8.028
G1 X-21.821 Y-8.028
G1 X-23.267 Y-9.472
G1 X-23.520 Y-9.472
G1 X-22.076 Y-8.028
G1 X-22.347 Y-8.028
G1 X-23.793 Y-9.472
G1 X-24.045 Y-9.472
G1 X-22.601 Y-8.028
G1 X-22.872 Y-8.028
G1 X-24.318 Y-9.472
G1 X-24.570 Y-9.472
G1 X-23.127 Y-8.028
G1 X-23.398 Y-8.028
G1 X-24.844 Y-9.472
G1 X-25.095 Y-9.472
G1 X-23.652 Y-8.028
G1 X-23.923 Y-8.028
G1 X-25.369 Y-9.472
G1 X-25.621 Y-9.472
G1 X-24.177 Y-8.028
G1 X-24.449 Y-8.028
G1 X-25.895 Y-9.472
G1 X-26.146 Y-9.472
G1 X-24.702 Y-8.028
G1 X-24.974 Y-8.028
G1 X-26.420 Y-9.472
G1 X-26.671 Y-9.472
G1 X-25.227 Y-8.028
G1 X-25.500 Y-8.028
G1 X-26.946 Y-9.472
G1 X-27.196 Y-9.472
G1 X-25.752 Y-8.028
G1 X-26.025 Y-8.028
G1 X-27.471 Y-9.472
G1 X-27.721 Y-9.472
G1 X-26.277 Y-8.028
G1 X-26.551 Y-8.028
G1 X-27.997 Y-9.472
G1 X-28.246 Y-9.472
G1 X-26.802 Y-8.028
G1 X-27.076 Y-8.028
G1 X-28.522 Y-9.472
G1 X-28.771 Y-9.472
G1 X-27.327 Y-8.028
G1 X-27.602 Y-8.028
G1 X-29.048 Y-9.472
G1 X-29.296 Y-9.472
G1 X-27.852 Y-8.028
G1 X-28.127 Y-8.028
G1 X-29.573 Y-9.472
G1 X-29.821 Y-9.472
G1 X-28.377 Y-8.028
G1 X-28.653 Y-8.028
G1 X-30.099 Y-9.472
G1 X-30.346 Y-9.472
G1 X-28.902 Y-8.028
G1 X-29.178 Y-8.028
G1 X-30.624 Y-9.472
G1 X-30.871 Y-9.472
G1 X-29.428 Y-8.028
G1 X-29.704 Y-8.028
G1 X-31.150 Y-9.472
G1 X-31.396 Y-9.472
G1 X-29.953 Y-8.028
G1 X-30.229 Y-8.028
G1 X-31.675 Y-9.472
G1 X-31.922 Y-9.472
G1 X-30.478 Y-8.028
G1 X-30.755 Y-8.028
G1 X-32.201 Y-9.472
G1 X-32.447 Y-9.472
G1 X-31.003 Y-8.028
G1 X-31.280 Y-8.028
G1 X-32.726 Y-9.472
G1 X-32.972 Y-9.472
G1 X-31.528 Y-8.028
G1 X-31.806 Y-8.028
G1 X-33.252 Y-9.472
G1 X-33.497 Y-9.472
G1 X-32.053 Y-8.028
G1 X-32.331 Y-8.028
G1 X-33.777 Y-9.472
G1 X-34.022 Y-9.472
G1 X-32.578 Y-8.028
G1 X-32.857 Y-8.028
G1 X-34.303 Y-9.472
G1 X-34.547 Y-9.472
G1 X-33.103 Y-8.028
G1 X-33.382 Y-8.028
G1 X-34.829 Y-9.472
G1 X-35.072 Y-9.472
G1 X-33.628 Y-8.028
G1 X-33.908 Y-8.028
G1 X-35.354 Y-9.472
G1 X-32.597 Y-6.472 F7800.000
G1 X-31.134 Y-5.009 F3600.000
G1 X-31.297 Y-4.897 F7800.000
G1 X-32.741 Y-6.339 F3600.000
G1 X-32.741 Y-6.091
G1 X-31.297 Y-4.647
G1 X-31.297 Y-4.372
G1 X-32.741 Y-5.814
G1 X-32.741 Y-5.566
G1 X-31.297 Y-4.122
G1 X-31.297 Y-3.848
G1 X-32.741 Y-5.289
G1 X-32.741 Y-5.041
G1 X-31.297 Y-3.597
G1 X-31.297 Y-3.323
G1 X-32.741 Y-4.765
G1 X-32.741 Y-4.516
G1 X-31.297 Y-3.072
G1 X-31.297 Y-2.798
G1 X-32.741 Y-4.240
G1 X-32.741 Y-3.991
G1 X-31.297 Y-2.547
G1 X-31.297 Y-2.274
G1 X-32.741 Y-3.715
G1 X-32.741 Y-3.466
G1 X-31.297 Y-2.022
G1 X-31.297 Y-1.749
G1 X-32.741 Y-3.191
G1 X-32.741 Y-2.940
G1 X-31.297 Y-1.497
G1 X-31.297 Y-1.224
G1 X-32.741 Y-2.666
G1 X-32.741 Y-2.415
G1 X-31.297 Y-0.972
G1 X-31.297 Y-0.700
G1 X-32.741 Y-2.141
G1 X-32.741 Y-1.890
G1 X-31.297 Y-0.446
G1 X-31.297 Y-0.175
G1 X-32.741 Y-1.617
G1 X-32.741 Y-1.365
G1 X-31.297 Y0.079
G1 X-31.297 Y0.350
G1 X-32.741 Y-1.092
G1 X-32.741 Y-0.840
G1 X-31.297 Y0.604
G1 X-31.297 Y0.874
G1 X-32.741 Y-0.567
G1 X-32.741 Y-0.315
G1 X-31.297 Y1.129
G1 X-31.297 Y1.399
G1 X-32.741 Y-0.043
G1 X-32.741 Y0.210
G1 X-31.297 Y1.654
G1 X-31.297 Y1.924
G1 X-32.741 Y0.482
G1 X-32.741 Y0.735
G1 X-31.297 Y2.179
G1 X-31.297 Y2.448
G1 X-32.741 Y1.007
G1 X-32.741 Y1.260
G1 X-31.297 Y2.704
G1 X-31.297 Y2.973
G1 X-32.741 Y1.531
G1 X-32.741 Y1.785
G1 X-31.297 Y3.229
G1 X-31.297 Y3.497
G1 X-32.741 Y2.056
G1 X-32.741 Y2.310
G1 X-31.297 Y3.754
G1 X-31.297 Y4.022
G1 X-32.741 Y2.581
G1 X-32.741 Y2.835
G1 X-31.297 Y4.279
G1 X-31.297 Y4.547
G1 X-32.741 Y3.105
G1 X-32.741 Y3.361
G1 X-31.297 Y4.804
G1 X-31.297 Y5.071
G1 X-32.741 Y3.630
G1 X-32.741 Y3.886
G1 X-31.297 Y5.329
G1 X-31.297 Y5.596
G1 X-32.741 Y4.154
G1 X-32.741 Y4.411
G1 X-31.297 Y5.855
G1 X-31.297 Y6.121
G1 X-32.741 Y4.679
G1 X-32.741 Y4.936
G1 X-31.297 Y6.380
G1 X-31.297 Y6.645
G1 X-32.741 Y5.204
G1 X-32.741 Y5.461
G1 X-31.297 Y6.905
G1 X-31.297 Y7.170
G1 X-32.741 Y5.728
G1 X-32.741 Y5.986
G1 X-31.297 Y7.430
G1 X-31.297 Y7.695
G1 X-32.741 Y6.253
G1 X-32.741 Y6.511
G1 X-31.297 Y7.955
G1 X-31.297 Y8.219
G1 X-32.741 Y6.778
G1 X-32.741 Y7.036
G1 X-31.297 Y8.480
G1 X-31.297 Y8.744
G1 X-32.741 Y7.302
G1 X-32.741 Y7.561
G1 X-31.297 Y9.005
G1 X-31.297 Y9.269
G1 X-32.741 Y7.827
G1 X-32.741 Y8.086
G1 X-31.297 Y9.530
G1 X-31.297 Y9.793
G1 X-32.741 Y8.352
G1 X-32.741 Y8.611
G1 X-31.297 Y10.055
G1 X-31.297 Y10.318
G1 X-32.741 Y8.876
G1 X-32.741 Y9.136
G1 X-31.297 Y10.580
G1 X-31.297 Y10.843
G1 X-32.741 Y9.401
G1 X-32.741 Y9.662
G1 X-31.297 Y11.105
G1 X-31.297 Y11.367
G1 X-32.741 Y9.926
G1 X-32.741 Y10.187
G1 X-31.297 Y11.630
G1 X-31.297 Y11.892
G1 X-32.741 Y10.450
G1 X-32.741 Y10.712
G1 X-31.297 Y12.156
G1 X-31.297 Y12.417
G1 X-32.741 Y10.975
G1 X-32.741 Y11.237
G1 X-31.297 Y12.681
G1 X-31.297 Y12.941
G1 X-32.741 Y11.500
G1 X-32.741 Y11.762
G1 X-30.031 Y14.472
G1 X-30.290 Y14.472
G1 X-32.741 Y12.024
G1 X-32.741 Y12.287
G1 X-30.556 Y14.472
G1 X-30.815 Y14.472
G1 X-32.741 Y12.549
G1 X-32.741 Y12.812
G1 X-31.081 Y14.472
G1 X-31.341 Y14.472
G1 X-32.741 Y13.074
G1 X-32.741 Y13.337
G1 X-31.606 Y14.472
G1 X-31.866 Y14.472
G1 X-32.741 Y13.598
G1 X-32.741 Y13.862
G1 X-32.131 Y14.472
G1 X-32.392 Y14.472
G1 X-32.741 Y14.123
G1 X-32.741 Y14.387
G1 X-32.656 Y14.472
G1 X-31.210 Y13.028 F7800.000
G1 X-29.764 Y14.472 F3600.000
G1 X-29.506 Y14.472
G1 X-30.950 Y13.028
G1 X-30.685 Y13.028
G1 X-29.239 Y14.472
G1 X-28.981 Y14.472
G1 X-30.425 Y13.028
G1 X-30.159 Y13.028
G1 X-28.713 Y14.472
G1 X-28.456 Y14.472
G1 X-29.900 Y13.028
G1 X-29.634 Y13.028
G1 X-28.188 Y14.472
G1 X-27.931 Y14.472
G1 X-29.375 Y13.028
G1 X-29.108 Y13.028
G1 X-27.662 Y14.472
G1 X-27.406 Y14.472
G1 X-28.849 Y13.028
G1 X-28.583 Y13.028
G1 X-27.137 Y14.472
G1 X-26.881 Y14.472
G1 X-28.324 Y13.028
G1 X-28.057 Y13.028
G1 X-26.611 Y14.472
G1 X-26.356 Y14.472
G1 X-27.799 Y13.028
G1 X-27.532 Y13.028
G1 X-26.086 Y14.472
G1 X-25.830 Y14.472
G1 X-27.274 Y13.028
G1 X-27.006 Y13.028
G1 X-25.560 Y14.472
G1 X-25.305 Y14.472
G1 X-26.749 Y13.028
G1 X-26.481 Y13.028
G1 X-25.035 Y14.472
G1 X-24.780 Y14.472
G1 X-26.224 Y13.028
G1 X-25.955 Y13.028
G1 X-24.509 Y14.472
G1 X-24.255 Y14.472
G1 X-25.699 Y13.028
G1 X-25.430 Y13.028
G1 X-23.984 Y14.472
G1 X-23.730 Y14.472
G1 X-25.174 Y13.028
G1 X-24.904 Y13.028
G1 X-23.458 Y14.472
G1 X-23.205 Y14.472
G1 X-24.649 Y13.028
G1 X-24.379 Y13.028
G1 X-22.933 Y14.472
G1 X-22.680 Y14.472
G1 X-24.124 Y13.028
G1 X-23.853 Y13.028
G1 X-22.407 Y14.472
G1 X-22.155 Y14.472
G1 X-23.599 Y13.028
G1 X-23.328 Y13.028
G1 X-21.882 Y14.472
G1 X-21.630 Y14.472
G1 X-23.074 Y13.028
G1 X-22.802 Y13.028
G1 X-21.356 Y14.472
G1 X-21.105 Y14.472
G1 X-22.549 Y13.028
G1 X-22.277 Y13.028
G1 X-20.831 Y14.472
G1 X-20.580 Y14.472
G1 X-22.023 Y13.028
G1 X-21.751 Y13.028
G1 X-20.305 Y14.472
G1 X-20.055 Y14.472
G1 X-21.498 Y13.028
G1 X-21.226 Y13.028
G1 X-19.780 Y14.472
G1 X-19.529 Y14.472
G1 X-20.973 Y13.028
G1 X-20.700 Y13.028
G1 X-19.254 Y14.472
G1 X-19.004 Y14.472
G1 X-20.448 Y13.028
G1 X-20.175 Y13.028
G1 X-18.729 Y14.472
G1 X-18.479 Y14.472
G1 X-19.923 Y13.028
G1 X-19.649 Y13.028
G1 X-18.203 Y14.472
G1 X-17.954 Y14.472
G1 X-19.398 Y13.028
G1 X-19.124 Y13.028
G1 X-17.678 Y14.472
G1 X-17.429 Y14.472
G1 X-18.873 Y13.028
G1 X-18.598 Y13.028
G1 X-17.152 Y14.472
G1 X-16.904 Y14.472
G1 X-18.348 Y13.028
G1 X-18.073 Y13.028
G1 X-16.627 Y14.472
G1 X-16.379 Y14.472
G1 X-17.823 Y13.028
G1 X-17.547 Y13.028
G1 X-16.101 Y14.472
G1 X-15.854 Y14.472
G1 X-17.298 Y13.028
G1 X-17.022 Y13.028
G1 X-15.576 Y14.472
G1 X-15.329 Y14.472
G1 X-16.773 Y13.028
G1 X-16.496 Y13.028
G1 X-15.050 Y14.472
G1 X-14.804 Y14.472
G1 X-16.248 Y13.028
G1 X-15.971 Y13.028
G1 X-14.524 Y14.472
G1 X-14.279 Y14.472
G1 X-15.722 Y13.028
G1 X-15.445 Y13.028
G1 X-13.999 Y14.472
G1 X-13.754 Y14.472
G1 X-15.197 Y13.028
G1 X-14.920 Y13.028
G1 X-13.473 Y14.472
G1 X-13.228 Y14.472
G1 X-14.672 Y13.028
G1 X-14.394 Y13.028
G1 X-12.948 Y14.472
G1 X-12.703 Y14.472
G1 X-14.147 Y13.028
G1 X-13.869 Y13.028
G1 X-12.422 Y14.472
G1 X-12.178 Y14.472
G1 X-13.622 Y13.028
G1 X-13.343 Y13.028
G1 X-11.897 Y14.472
G1 X-11.653 Y14.472
G1 X-13.097 Y13.028
G1 X-12.818 Y13.028
G1 X-11.371 Y14.472
G1 X-11.128 Y14.472
G1 X-12.572 Y13.028
G1 X-12.292 Y13.028
G1 X-10.846 Y14.472
G1 X-10.603 Y14.472
G1 X-12.047 Y13.028
G1 X-11.766 Y13.028
G1 X-10.320 Y14.472
G1 X-10.078 Y14.472
G1 X-11.522 Y13.028
G1 X-11.241 Y13.028
G1 X-9.795 Y14.472
G1 X-9.553 Y14.472
G1 X-10.997 Y13.028
G1 X-10.715 Y13.028
G1 X-9.269 Y14.472
G1 X-9.028 Y14.472
G1 X-10.472 Y13.028
G1 X-10.241 Y12.977 F7800.000
G1 X-8.797 Y14.419 F3600.000
G1 X-8.797 Y14.177
G1 X-10.241 Y12.734
G1 X-10.241 Y12.452
G1 X-8.797 Y13.894
G1 X-8.797 Y13.652
G1 X-10.241 Y12.208
G1 X-10.241 Y11.928
G1 X-8.797 Y13.369
G1 X-8.797 Y13.127
G1 X-10.241 Y11.683
G1 X-10.241 Y11.403
G1 X-8.797 Y12.845
G1 X-8.797 Y12.602
G1 X-10.241 Y11.158
G1 X-10.241 Y10.878
G1 X-8.797 Y12.320
G1 X-8.797 Y12.077
G1 X-10.241 Y10.633
G1 X-10.241 Y10.354
G1 X-8.797 Y11.795
G1 X-8.797 Y11.552
G1 X-10.241 Y10.108
G1 X-10.241 Y9.829
G1 X-8.797 Y11.271
G1 X-8.797 Y11.027
G1 X-10.241 Y9.583
G1 X-10.241 Y9.304
G1 X-8.797 Y10.746
G1 X-8.797 Y10.502
G1 X-10.241 Y9.058
G1 X-10.241 Y8.780
G1 X-8.797 Y10.221
G1 X-8.797 Y9.977
G1 X-10.241 Y8.533
G1 X-10.241 Y8.255
G1 X-8.797 Y9.697
G1 X-8.797 Y9.452
G1 X-10.241 Y8.008
G1 X-10.241 Y7.730
G1 X-8.797 Y9.172
G1 X-8.797 Y8.927
G1 X-10.241 Y7.483
G1 X-10.241 Y7.206
G1 X-8.797 Y8.647
G1 X-8.797 Y8.401
G1 X-10.241 Y6.958
G1 X-10.241 Y6.681
G1 X-8.797 Y8.123
G1 X-8.797 Y7.876
G1 X-10.241 Y6.433
G1 X-10.241 Y6.156
G1 X-8.797 Y7.598
G1 X-8.797 Y7.351
G1 X-10.241 Y5.907
G1 X-10.241 Y5.632
G1 X-8.797 Y7.073
G1 X-8.797 Y6.826
G1 X-10.241 Y5.382
G1 X-10.241 Y5.107
G1 X-8.797 Y6.549
G1 X-8.797 Y6.301
G1 X-10.241 Y4.857
G1 X-10.241 Y4.583
G1 X-8.797 Y6.024
G1 X-8.797 Y5.776
G1 X-10.241 Y4.332
G1 X-10.241 Y4.058
G1 X-8.797 Y5.499
G1 X-8.797 Y5.251
G1 X-10.241 Y3.807
G1 X-10.241 Y3.533
G1 X-8.797 Y4.975
G1 X-8.797 Y4.726
G1 X-10.241 Y3.282
G1 X-10.241 Y3.009
G1 X-8.797 Y4.450
G1 X-8.797 Y4.201
G1 X-10.241 Y2.757
G1 X-10.241 Y2.484
G1 X-8.797 Y3.925
G1 X-8.797 Y3.676
G1 X-10.241 Y2.232
G1 X-10.241 Y1.959
G1 X-8.797 Y3.401
G1 X-8.797 Y3.151
G1 X-10.241 Y1.707
G1 X-10.241 Y1.435
G1 X-8.797 Y2.876
G1 X-8.797 Y2.626
G1 X-10.241 Y1.182
G1 X-10.241 Y0.910
G1 X-8.797 Y2.352
G1 X-8.797 Y2.101
G1 X-10.241 Y0.657
G1 X-10.241 Y0.385
G1 X-8.797 Y1.827
G1 X-8.797 Y1.575
G1 X-10.241 Y0.132
G1 X-10.241 Y-0.139
G1 X-8.797 Y1.302
G1 X-8.797 Y1.050
G1 X-10.241 Y-0.393
G1 X-10.241 Y-0.664
G1 X-8.797 Y0.778
G1 X-8.797 Y0.525
G1 X-10.241 Y-0.919
G1 X-10.241 Y-1.189
G1 X-8.797 Y0.253
G1 X-8.797 Y0.000
G1 X-10.241 Y-1.444
G1 X-10.241 Y-1.713
G1 X-8.797 Y-0.272
G1 X-8.797 Y-0.525
G1 X-10.241 Y-1.969
G1 X-10.241 Y-2.238
G1 X-8.797 Y-0.796
G1 X-8.797 Y-1.050
G1 X-10.241 Y-2.494
G1 X-10.241 Y-2.763
G1 X-8.797 Y-1.321
G1 X-8.797 Y-1.575
G1 X-10.241 Y-3.019
G1 X-10.241 Y-3.287
G1 X-8.797 Y-1.846
G1 X-8.797 Y-2.100
G1 X-10.241 Y-3.544
G1 X-10.241 Y-3.812
G1 X-8.797 Y-2.370
G1 X-8.797 Y-2.625
G1 X-10.241 Y-4.069
G1 X-10.241 Y-4.337
G1 X-8.797 Y-2.895
G1 X-8.797 Y-3.150
G1 X-10.241 Y-4.594
G1 X-10.241 Y-4.861
G1 X-8.797 Y-3.420
G1 X-8.797 Y-3.675
G1 X-10.241 Y-5.119
G1 X-10.241 Y-5.386
G1 X-8.797 Y-3.944
G1 X-8.797 Y-4.200
G1 X-10.241 Y-5.644
G1 X-10.241 Y-5.911
G1 X-8.797 Y-4.469
G1 X-8.797 Y-4.726
G1 X-10.241 Y-6.169
G1 X-10.241 Y-6.435
G1 X-8.797 Y-4.994
G1 X-8.797 Y-5.251
G1 X-10.241 Y-6.694
G1 X-10.241 Y-6.960
G1 X-8.797 Y-5.518
G1 X-8.797 Y-5.776
G1 X-10.241 Y-7.220
G1 X-10.241 Y-7.485
G1 X-8.797 Y-6.043
G1 X-8.797 Y-6.301
G1 X-10.241 Y-7.745
G1 X-11.697 Y-6.315 F7800.000
G1 X-11.854 Y-6.472 F3600.000
G1 X-12.119 Y-6.472
G1 X-11.697 Y-6.050
G1 X-11.697 Y-5.790
G1 X-12.380 Y-6.472
G1 X-12.644 Y-6.472
G1 X-11.697 Y-5.525
G1 X-11.697 Y-5.266
G1 X-12.905 Y-6.472
G1 X-13.169 Y-6.472
G1 X-11.697 Y-5.000
G1 X-11.697 Y-4.741
G1 X-13.431 Y-6.472
G1 X-13.694 Y-6.472
G1 X-11.697 Y-4.475
G1 X-11.697 Y-4.216
G1 X-13.956 Y-6.472
G1 X-14.219 Y-6.472
G1 X-11.697 Y-3.950
G1 X-11.697 Y-3.692
G1 X-14.482 Y-6.472
G1 X-14.744 Y-6.472
G1 X-13.281 Y-5.009
G1 X-13.141 Y-4.869 F7800.000
G1 X-11.697 Y-3.425 F3600.000
G1 X-11.697 Y-3.167
G1 X-13.141 Y-4.609
G1 X-13.141 Y-4.344
G1 X-11.697 Y-2.900
G1 X-11.697 Y-2.642
G1 X-13.141 Y-4.084
G1 X-13.141 Y-3.819
G1 X-11.697 Y-2.375
G1 X-11.697 Y-2.118
G1 X-13.141 Y-3.559
G1 X-13.141 Y-3.293
G1 X-11.697 Y-1.850
G1 X-11.697 Y-1.593
G1 X-13.141 Y-3.035
G1 X-13.141 Y-2.768
G1 X-11.697 Y-1.325
G1 X-11.697 Y-1.068
G1 X-13.141 Y-2.510
G1 X-13.141 Y-2.243
G1 X-11.697 Y-0.799
G1 X-11.697 Y-0.544
G1 X-13.141 Y-1.985
G1 X-13.141 Y-1.718
G1 X-11.697 Y-0.274
G1 X-11.697 Y-0.019
G1 X-13.141 Y-1.461
G1 X-13.141 Y-1.193
G1 X-11.697 Y0.251
G1 X-11.697 Y0.506
G1 X-13.141 Y-0.936
G1 X-13.141 Y-0.668
G1 X-11.697 Y0.776
G1 X-11.697 Y1.030
G1 X-13.141 Y-0.411
G1 X-13.141 Y-0.143
G1 X-11.697 Y1.301
G1 X-11.697 Y1.555
G1 X-13.141 Y0.113
G1 X-13.141 Y0.382
G1 X-11.697 Y1.826
G1 X-11.697 Y2.080
G1 X-13.141 Y0.638
G1 X-13.141 Y0.907
G1 X-11.697 Y2.351
G1 X-11.697 Y2.604
G1 X-13.141 Y1.163
G1 X-13.141 Y1.432
G1 X-11.697 Y2.876
G1 X-11.697 Y3.129
G1 X-13.141 Y1.687
G1 X-13.141 Y1.957
G1 X-11.697 Y3.401
G1 X-11.697 Y3.653
G1 X-13.141 Y2.212
G1 X-13.141 Y2.482
G1 X-11.697 Y3.926
G1 X-11.697 Y4.178
G1 X-13.141 Y2.737
G1 X-13.141 Y3.007
G1 X-11.697 Y4.451
G1 X-11.697 Y4.703
G1 X-13.141 Y3.261
G1 X-13.141 Y3.533
G1 X-11.697 Y4.976
G1 X-11.697 Y5.227
G1 X-13.141 Y3.786
G1 X-13.141 Y4.058
G1 X-11.697 Y5.501
G1 X-11.697 Y5.752
G1 X-13.141 Y4.310
G1 X-13.141 Y4.583
G1 X-11.697 Y6.027
G1 X-11.697 Y6.277
G1 X-13.141 Y4.835
G1 X-13.141 Y5.108
G1 X-11.697 Y6.552
G1 X-11.697 Y6.801
G1 X-13.141 Y5.360
G1 X-13.141 Y5.633
G1 X-11.697 Y7.077
G1 X-11.697 Y7.326
G1 X-13.141 Y5.884
G1 X-13.141 Y6.158
G1 X-11.697 Y7.602
G1 X-11.697 Y7.851
G1 X-13.141 Y6.409
G1 X-13.141 Y6.683
G1 X-11.697 Y8.127
G1 X-11.697 Y8.375
G1 X-13.141 Y6.934
G1 X-13.141 Y7.208
G1 X-11.697 Y8.652
G1 X-11.697 Y8.900
G1 X-13.141 Y7.458
G1 X-13.141 Y7.733
G1 X-11.697 Y9.177
G1 X-11.697 Y9.425
G1 X-13.141 Y7.983
G1 X-13.141 Y8.258
G1 X-11.697 Y9.702
G1 X-11.697 Y9.949
G1 X-13.141 Y8.508
G1 X-13.141 Y8.783
G1 X-11.697 Y10.227
G1 X-11.697 Y10.474
G1 X-13.141 Y9.032
G1 X-13.141 Y9.308
G1 X-11.697 Y10.752
G1 X-11.697 Y10.999
G1 X-13.141 Y9.557
G1 X-13.141 Y9.834
G1 X-11.697 Y11.277
G1 X-11.749 Y11.472
G1 X-13.195 Y10.028
G1 X-13.472 Y10.028
G1 X-12.028 Y11.472
G1 X-12.274 Y11.472
G1 X-13.720 Y10.028
G1 X-13.997 Y10.028
G1 X-12.553 Y11.472
G1 X-12.800 Y11.472
G1 X-14.246 Y10.028
G1 X-14.522 Y10.028
G1 X-13.078 Y11.472
G1 X-13.325 Y11.472
G1 X-14.771 Y10.028
G1 X-15.047 Y10.028
G1 X-13.603 Y11.472
G1 X-13.851 Y11.472
G1 X-15.297 Y10.028
G1 X-15.572 Y10.028
G1 X-14.128 Y11.472
G1 X-14.376 Y11.472
G1 X-15.822 Y10.028
G1 X-16.097 Y10.028
G1 X-14.653 Y11.472
G1 X-14.902 Y11.472
G1 X-16.348 Y10.028
G1 X-16.622 Y10.028
G1 X-15.178 Y11.472
G1 X-15.427 Y11.472
G1 X-16.873 Y10.028
G1 X-17.147 Y10.028
G1 X-15.703 Y11.472
G1 X-15.953 Y11.472
G1 X-17.399 Y10.028
G1 X-17.672 Y10.028
G1 X-16.228 Y11.472
G1 X-16.478 Y11.472
G1 X-17.924 Y10.028
G1 X-18.197 Y10.028
G1 X-16.754 Y11.472
G1 X-17.004 Y11.472
G1 X-18.450 Y10.028
G1 X-18.722 Y10.028
G1 X-17.279 Y11.472
G1 X-17.529 Y11.472
G1 X-18.975 Y10.028
G1 X-19.248 Y10.028
G1 X-17.804 Y11.472
G1 X-18.055 Y11.472
G1 X-19.501 Y10.028
G1 X-19.773 Y10.028
G1 X-18.329 Y11.472
G1 X-18.580 Y11.472
G1 X-20.026 Y10.028
G1 X-20.298 Y10.028
G1 X-18.854 Y11.472
G1 X-19.106 Y11.472
G1 X-20.552 Y10.028
G1 X-20.823 Y10.028
G1 X-19.379 Y11.472
G1 X-19.631 Y11.472
G1 X-21.077 Y10.028
G1 X-21.348 Y10.028
G1 X-19.904 Y11.472
G1 X-20.157 Y11.472
G1 X-21.603 Y10.028
G1 X-21.873 Y10.028
G1 X-20.429 Y11.472
G1 X-20.682 Y11.472
G1 X-22.128 Y10.028
G1 X-22.398 Y10.028
G1 X-20.954 Y11.472
G1 X-21.208 Y11.472
G1 X-22.654 Y10.028
G1 X-22.923 Y10.028
G1 X-21.479 Y11.472
G1 X-21.733 Y11.472
G1 X-23.179 Y10.028
G1 X-23.448 Y10.028
G1 X-22.004 Y11.472
G1 X-22.259 Y11.472
G1 X-23.705 Y10.028
G1 X-23.973 Y10.028
G1 X-22.529 Y11.472
G1 X-22.784 Y11.472
G1 X-24.230 Y10.028
G1 X-24.498 Y10.028
G1 X-23.055 Y11.472
G1 X-23.310 Y11.472
G1 X-24.756 Y10.028
G1 X-25.023 Y10.028
G1 X-23.580 Y11.472
G1 X-23.835 Y11.472
G1 X-25.281 Y10.028
G1 X-25.549 Y10.028
G1 X-24.105 Y11.472
G1 X-24.361 Y11.472
G1 X-25.807 Y10.028
G1 X-26.074 Y10.028
G1 X-24.630 Y11.472
G1 X-24.886 Y11.472
G1 X-26.333 Y10.028
G1 X-26.599 Y10.028
G1 X-25.155 Y11.472
G1 X-25.412 Y11.472
G1 X-26.858 Y10.028
G1 X-27.124 Y10.028
G1 X-25.680 Y11.472
G1 X-25.937 Y11.472
G1 X-27.384 Y10.028
G1 X-27.649 Y10.028
G1 X-26.205 Y11.472
G1 X-26.463 Y11.472
G1 X-27.909 Y10.028
G1 X-28.174 Y10.028
G1 X-26.730 Y11.472
G1 X-26.988 Y11.472
G1 X-29.641 Y8.823
G1 X-29.641 Y9.086
G1 X-27.255 Y11.472
G1 X-27.514 Y11.472
G1 X-29.641 Y9.348
G1 X-29.641 Y9.611
G1 X-27.780 Y11.472
G1 X-28.039 Y11.472
G1 X-29.641 Y9.873
G1 X-29.641 Y10.136
G1 X-28.305 Y11.472
G1 X-28.565 Y11.472
G1 X-29.641 Y10.397
G1 X-29.641 Y10.661
G1 X-28.830 Y11.472
G1 X-29.091 Y11.472
G1 X-29.641 Y10.922
G1 X-29.641 Y11.186
G1 X-29.356 Y11.472
G1 X-28.197 Y10.005 F7800.000
G1 X-29.641 Y8.561 F3600.000
G1 X-29.641 Y8.299
G1 X-28.197 Y9.740
G1 X-28.197 Y9.480
G1 X-29.641 Y8.036
G1 X-29.641 Y7.774
G1 X-28.197 Y9.216
G1 X-28.197 Y8.955
G1 X-29.641 Y7.511
G1 X-29.641 Y7.249
G1 X-28.197 Y8.691
G1 X-28.197 Y8.429
G1 X-29.641 Y6.986
G1 X-29.641 Y6.725
G1 X-28.197 Y8.166
G1 X-28.197 Y7.904
G1 X-29.641 Y6.461
G1 X-29.641 Y6.200
G1 X-28.197 Y7.642
G1 X-28.197 Y7.379
G1 X-29.641 Y5.935
G1 X-29.641 Y5.676
G1 X-28.197 Y7.117
G1 X-28.197 Y6.854
G1 X-29.641 Y5.410
G1 X-29.641 Y5.151
G1 X-28.197 Y6.592
G1 X-28.197 Y6.329
G1 X-29.641 Y4.885
G1 X-29.641 Y4.626
G1 X-28.197 Y6.068
G1 X-28.197 Y5.804
G1 X-29.641 Y4.360
G1 X-29.641 Y4.102
G1 X-28.197 Y5.543
G1 X-28.197 Y5.279
G1 X-29.641 Y3.835
G1 X-29.641 Y3.577
G1 X-28.197 Y5.018
G1 X-28.197 Y4.754
G1 X-29.641 Y3.310
G1 X-29.641 Y3.052
G1 X-28.197 Y4.494
G1 X-28.197 Y4.229
G1 X-29.641 Y2.785
G1 X-29.641 Y2.528
G1 X-28.197 Y3.969
G1 X-28.197 Y3.704
G1 X-29.641 Y2.260
G1 X-29.641 Y2.003
G1 X-28.197 Y3.445
G1 X-28.197 Y3.179
G1 X-29.641 Y1.735
G1 X-29.641 Y1.478
G1 X-28.197 Y2.920
G1 X-28.197 Y2.654
G1 X-29.641 Y1.210
G1 X-29.641 Y0.954
G1 X-28.197 Y2.395
G1 X-28.197 Y2.128
G1 X-29.641 Y0.685
G1 X-29.641 Y0.429
G1 X-28.197 Y1.871
G1 X-28.197 Y1.603
G1 X-29.641 Y0.160
G1 X-29.641 Y-0.096
G1 X-28.197 Y1.346
G1 X-28.197 Y1.078
G1 X-29.641 Y-0.366
G1 X-29.641 Y-0.620
G1 X-28.197 Y0.821
G1 X-28.197 Y0.553
G1 X-29.641 Y-0.891
G1 X-29.641 Y-1.145
G1 X-28.197 Y0.297
G1 X-28.197 Y0.028
G1 X-29.641 Y-1.416
G1 X-29.641 Y-1.670
G1 X-28.197 Y-0.228
G1 X-28.197 Y-0.497
G1 X-29.641 Y-1.941
G1 X-29.641 Y-2.194
G1 X-28.197 Y-0.753
G1 X-28.197 Y-1.022
G1 X-29.641 Y-2.466
G1 X-29.641 Y-2.719
G1 X-28.197 Y-1.277
G1 X-28.197 Y-1.547
G1 X-29.641 Y-2.991
G1 X-29.641 Y-3.244
G1 X-28.197 Y-1.802
G1 X-28.153 Y-2.028 F7800.000
G1 X-29.597 Y-3.472 F3600.000
G1 X-29.344 Y-3.472
G1 X-27.898 Y-2.028
G1 X-27.628 Y-2.028
G1 X-29.072 Y-3.472
G1 X-28.819 Y-3.472
G1 X-27.373 Y-2.028
G1 X-27.103 Y-2.028
G1 X-28.547 Y-3.472
G1 X-28.293 Y-3.472
G1 X-26.847 Y-2.028
G1 X-26.578 Y-2.028
G1 X-28.022 Y-3.472
G1 X-27.768 Y-3.472
G1 X-26.322 Y-2.028
G1 X-26.053 Y-2.028
G1 X-27.497 Y-3.472
G1 X-27.242 Y-3.472
G1 X-25.796 Y-2.028
G1 X-25.528 Y-2.028
G1 X-26.972 Y-3.472
G1 X-26.717 Y-3.472
G1 X-25.271 Y-2.028
G1 X-25.003 Y-2.028
G1 X-26.447 Y-3.472
G1 X-26.191 Y-3.472
G1 X-24.745 Y-2.028
G1 X-24.478 Y-2.028
G1 X-25.922 Y-3.472
G1 X-25.666 Y-3.472
G1 X-24.220 Y-2.028
G1 X-23.953 Y-2.028
G1 X-25.396 Y-3.472
G1 X-25.140 Y-3.472
G1 X-23.694 Y-2.028
G1 X-23.428 Y-2.028
G1 X-24.871 Y-3.472
G1 X-24.615 Y-3.472
G1 X-23.169 Y-2.028
G1 X-22.902 Y-2.028
G1 X-24.346 Y-3.472
G1 X-24.089 Y-3.472
G1 X-22.643 Y-2.028
G1 X-22.377 Y-2.028
G1 X-23.821 Y-3.472
G1 X-23.564 Y-3.472
G1 X-22.118 Y-2.028
G1 X-21.852 Y-2.028
G1 X-23.296 Y-3.472
G1 X-23.038 Y-3.472
G1 X-21.592 Y-2.028
G1 X-21.327 Y-2.028
G1 X-22.771 Y-3.472
G1 X-22.513 Y-3.472
G1 X-21.067 Y-2.028
G1 X-20.802 Y-2.028
G1 X-22.246 Y-3.472
G1 X-21.987 Y-3.472
G1 X-20.541 Y-2.028
G1 X-20.277 Y-2.028
G1 X-21.721 Y-3.472
G1 X-21.462 Y-3.472
G1 X-20.016 Y-2.028
G1 X-19.752 Y-2.028
G1 X-21.196 Y-3.472
G1 X-20.936 Y-3.472
G1 X-19.490 Y-2.028
G1 X-19.227 Y-2.028
G1 X-20.671 Y-3.472
G1 X-20.411 Y-3.472
G1 X-18.965 Y-2.028
G1 X-18.702 Y-2.028
G1 X-20.146 Y-3.472
G1 X-19.885 Y-3.472
G1 X-18.439 Y-2.028
G1 X-18.177 Y-2.028
G1 X-19.621 Y-3.472
G1 X-19.360 Y-3.472
G1 X-17.914 Y-2.028
G1 X-17.652 Y-2.028
G1 X-19.095 Y-3.472
G1 X-18.834 Y-3.472
G1 X-17.388 Y-2.028
G1 X-17.127 Y-2.028
G1 X-18.570 Y-3.472
G1 X-18.309 Y-3.472
G1 X-16.863 Y-2.028
G1 X-16.601 Y-2.028
G1 X-18.045 Y-3.472
G1 X-17.783 Y-3.472
G1 X-16.337 Y-2.028
G1 X-16.141 Y-2.093
G1 X-14.697 Y-0.649
G1 X-14.697 Y-0.391
G1 X-16.141 Y-1.833
G1 X-16.076 Y-2.028
G1 X-17.520 Y-3.472
G1 X-17.258 Y-3.472
G1 X-14.697 Y-0.916
G1 X-14.697 Y-1.174
G1 X-16.995 Y-3.472
G1 X-16.732 Y-3.472
G1 X-14.697 Y-1.440
G1 X-14.697 Y-1.699
G1 X-16.470 Y-3.472
G1 X-16.207 Y-3.472
G1 X-14.697 Y-1.965
G1 X-14.697 Y-2.224
G1 X-15.945 Y-3.472
G1 X-15.681 Y-3.472
G1 X-14.697 Y-2.490
G1 X-14.697 Y-2.749
G1 X-15.420 Y-3.472
G1 X-15.156 Y-3.472
G1 X-14.697 Y-3.014
G1 X-14.697 Y-3.274
G1 X-14.895 Y-3.472
G1 X-14.857 Y-5.009 F7800.000
G1 X-16.320 Y-6.472 F3600.000
G1 X-16.058 Y-6.472
G1 X-14.593 Y-5.009
G1 X-14.332 Y-5.009
G1 X-15.794 Y-6.472
G1 X-15.533 Y-6.472
G1 X-14.068 Y-5.009
G1 X-13.806 Y-5.009
G1 X-15.269 Y-6.472
G1 X-15.007 Y-6.472
G1 X-13.542 Y-5.009
G1 X-15.119 Y-5.009 F7800.000
G1 X-16.584 Y-6.472 F3600.000
G1 X-16.845 Y-6.472
G1 X-15.382 Y-5.009
G1 X-15.644 Y-5.009
G1 X-17.109 Y-6.472
G1 X-17.370 Y-6.472
G1 X-15.907 Y-5.009
G1 X-16.170 Y-5.009
G1 X-17.635 Y-6.472
G1 X-17.895 Y-6.472
G1 X-16.432 Y-5.009
G1 X-16.695 Y-5.009
G1 X-18.160 Y-6.472
G1 X-18.420 Y-6.472
G1 X-16.957 Y-5.009
G1 X-17.221 Y-5.009
G1 X-18.686 Y-6.472
G1 X-18.945 Y-6.472
G1 X-17.482 Y-5.009
G1 X-17.746 Y-5.009
G1 X-19.211 Y-6.472
G1 X-19.470 Y-6.472
G1 X-18.007 Y-5.009
G1 X-18.272 Y-5.009
G1 X-19.737 Y-6.472
G1 X-19.995 Y-6.472
G1 X-18.532 Y-5.009
G1 X-18.797 Y-5.009
G1 X-20.262 Y-6.472
G1 X-20.520 Y-6.472
G1 X-19.057 Y-5.009
G1 X-19.323 Y-5.009
G1 X-20.788 Y-6.472
G1 X-21.045 Y-6.472
G1 X-19.582 Y-5.009
G1 X-19.848 Y-5.009
G1 X-21.314 Y-6.472
G1 X-21.570 Y-6.472
G1 X-20.107 Y-5.009
G1 X-20.374 Y-5.009
G1 X-21.839 Y-6.472
G1 X-22.095 Y-6.472
G1 X-20.632 Y-5.009
G1 X-20.899 Y-5.009
G1 X-22.365 Y-6.472
G1 X-22.621 Y-6.472
G1 X-21.158 Y-5.009
G1 X-21.425 Y-5.009
G1 X-22.890 Y-6.472
G1 X-23.146 Y-6.472
G1 X-21.683 Y-5.009
G1 X-21.950 Y-5.009
G1 X-23.416 Y-6.472
G1 X-23.671 Y-6.472
G1 X-22.208 Y-5.009
G1 X-22.476 Y-5.009
G1 X-23.941 Y-6.472
G1 X-24.196 Y-6.472
G1 X-22.733 Y-5.009
G1 X-23.001 Y-5.009
G1 X-24.467 Y-6.472
G1 X-24.721 Y-6.472
G1 X-23.258 Y-5.009
G1 X-23.527 Y-5.009
G1 X-24.992 Y-6.472
G1 X-25.246 Y-6.472
G1 X-23.783 Y-5.009
G1 X-24.052 Y-5.009
G1 X-25.518 Y-6.472
G1 X-25.771 Y-6.472
G1 X-24.308 Y-5.009
G1 X-24.578 Y-5.009
G1 X-26.043 Y-6.472
G1 X-26.296 Y-6.472
G1 X-24.833 Y-5.009
G1 X-25.103 Y-5.009
G1 X-26.569 Y-6.472
G1 X-26.821 Y-6.472
G1 X-25.358 Y-5.009
G1 X-25.629 Y-5.009
G1 X-27.094 Y-6.472
G1 X-27.346 Y-6.472
G1 X-25.883 Y-5.009
G1 X-26.154 Y-5.009
G1 X-27.620 Y-6.472
G1 X-27.871 Y-6.472
G1 X-26.408 Y-5.009
G1 X-26.680 Y-5.009
G1 X-28.145 Y-6.472
G1 X-28.396 Y-6.472
G1 X-26.933 Y-5.009
G1 X-27.205 Y-5.009
G1 X-28.671 Y-6.472
G1 X-28.922 Y-6.472
G1 X-27.459 Y-5.009
G1 X-27.731 Y-5.009
G1 X-29.196 Y-6.472
G1 X-29.447 Y-6.472
G1 X-27.984 Y-5.009
G1 X-28.256 Y-5.009
G1 X-29.722 Y-6.472
G1 X-29.972 Y-6.472
G1 X-28.509 Y-5.009
G1 X-28.782 Y-5.009
G1 X-30.247 Y-6.472
G1 X-30.497 Y-6.472
G1 X-29.034 Y-5.009
G1 X-29.307 Y-5.009
G1 X-30.773 Y-6.472
G1 X-31.022 Y-6.472
G1 X-29.559 Y-5.009
G1 X-29.833 Y-5.009
G1 X-31.298 Y-6.472
G1 X-31.547 Y-6.472
G1 X-30.084 Y-5.009
G1 X-30.358 Y-5.009
G1 X-31.824 Y-6.472
G1 X-32.072 Y-6.472
G1 X-30.609 Y-5.009
G1 X-30.884 Y-5.009
G1 X-32.349 Y-6.472
G1 X-26.597 Y-0.472 F7800.000
G1 X-25.153 Y0.972 F3600.000
G1 X-25.197 Y1.193 F7800.000
G1 X-26.641 Y-0.248 F3600.000
G1 X-26.641 Y0.009
G1 X-25.197 Y1.453
G1 X-25.197 Y1.718
G1 X-26.641 Y0.276
G1 X-26.641 Y0.534
G1 X-25.197 Y1.978
G1 X-25.197 Y2.242
G1 X-26.641 Y0.801
G1 X-26.641 Y1.059
G1 X-25.197 Y2.503
G1 X-25.197 Y2.767
G1 X-26.641 Y1.325
G1 X-26.641 Y1.584
G1 X-25.197 Y3.028
G1 X-25.197 Y3.292
G1 X-26.641 Y1.850
G1 X-26.641 Y2.109
G1 X-25.197 Y3.553
G1 X-25.197 Y3.816
G1 X-26.641 Y2.375
G1 X-26.641 Y2.634
G1 X-25.197 Y4.078
G1 X-25.197 Y4.341
G1 X-26.641 Y2.899
G1 X-26.641 Y3.160
G1 X-25.197 Y4.603
G1 X-25.197 Y4.866
G1 X-26.641 Y3.424
G1 X-26.641 Y3.685
G1 X-25.197 Y5.128
G1 X-25.197 Y5.390
G1 X-26.641 Y3.949
G1 X-26.641 Y4.210
G1 X-25.197 Y5.654
G1 X-25.197 Y5.915
G1 X-26.641 Y4.473
G1 X-26.641 Y4.735
G1 X-25.197 Y6.179
G1 X-25.197 Y6.440
G1 X-26.641 Y4.998
G1 X-26.641 Y5.260
G1 X-25.197 Y6.704
G1 X-25.197 Y6.964
G1 X-26.641 Y5.523
G1 X-26.641 Y5.785
G1 X-23.954 Y8.472
G1 X-24.213 Y8.472
G1 X-26.641 Y6.047
G1 X-26.641 Y6.310
G1 X-24.479 Y8.472
G1 X-24.738 Y8.472
G1 X-26.641 Y6.572
G1 X-26.641 Y6.835
G1 X-25.004 Y8.472
G1 X-25.264 Y8.472
G1 X-26.641 Y7.097
G1 X-26.641 Y7.360
G1 X-25.529 Y8.472
G1 X-25.789 Y8.472
G1 X-26.641 Y7.621
G1 X-26.641 Y7.885
G1 X-26.055 Y8.472
G1 X-26.315 Y8.472
G1 X-26.641 Y8.146
G1 X-25.133 Y7.028 F7800.000
G1 X-23.687 Y8.472 F3600.000
G1 X-23.429 Y8.472
G1 X-24.873 Y7.028
G1 X-24.608 Y7.028
G1 X-23.162 Y8.472
G1 X-22.904 Y8.472
G1 X-24.348 Y7.028
G1 X-24.082 Y7.028
G1 X-22.636 Y8.472
G1 X-22.379 Y8.472
G1 X-23.823 Y7.028
G1 X-23.557 Y7.028
G1 X-22.111 Y8.472
G1 X-21.854 Y8.472
G1 X-23.298 Y7.028
G1 X-23.031 Y7.028
G1 X-21.585 Y8.472
G1 X-21.329 Y8.472
G1 X-22.773 Y7.028
G1 X-22.506 Y7.028
G1 X-21.060 Y8.472
G1 X-20.804 Y8.472
G1 X-22.248 Y7.028
G1 X-21.980 Y7.028
G1 X-20.534 Y8.472
G1 X-20.279 Y8.472
G1 X-21.722 Y7.028
G1 X-21.455 Y7.028
G1 X-20.009 Y8.472
G1 X-19.754 Y8.472
G1 X-21.197 Y7.028
G1 X-20.929 Y7.028
G1 X-19.483 Y8.472
G1 X-19.228 Y8.472
G1 X-20.672 Y7.028
G1 X-20.404 Y7.028
G1 X-18.958 Y8.472
G1 X-18.703 Y8.472
G1 X-20.147 Y7.028
G1 X-19.878 Y7.028
G1 X-18.432 Y8.472
G1 X-18.178 Y8.472
G1 X-19.622 Y7.028
G1 X-19.353 Y7.028
G1 X-17.907 Y8.472
G1 X-17.653 Y8.472
G1 X-19.097 Y7.028
G1 X-18.827 Y7.028
G1 X-17.381 Y8.472
G1 X-17.128 Y8.472
G1 X-18.572 Y7.028
G1 X-18.302 Y7.028
G1 X-16.856 Y8.472
G1 X-16.603 Y8.472
G1 X-18.047 Y7.028
G1 X-17.776 Y7.028
G1 X-16.330 Y8.472
G1 X-16.078 Y8.472
G1 X-17.522 Y7.028
G1 X-17.251 Y7.028
G1 X-15.805 Y8.472
G1 X-15.553 Y8.472
G1 X-16.997 Y7.028
G1 X-16.725 Y7.028
G1 X-15.279 Y8.472
G1 X-15.028 Y8.472
G1 X-16.472 Y7.028
