; generated by Slic3r 1.2.9 on 2018-02-18 at 15:07:04

; external perimeters extrusion width = 0.20mm
; perimeters extrusion width = 0.21mm
; infill extrusion width = 0.21mm
; solid infill extrusion width = 0.21mm
; top infill extrusion width = 0.21mm

M107
M104 S200 ; set temperature

M109 S200 ; wait for temperature to be reached
G21 ; set units to millimeters
G90 ; use absolute coordinates
G1 Z0.200 F7800.000
G1 X1.628 Y0.943 F7800.000
G1 X3.072 Y2.385 F3600.000
G1 X3.072 Y2.127
G1 X0.473 Y-0.472
G1 X0.736 Y-0.472
G1 X3.072 Y1.860
G1 X3.072 Y1.602
G1 X0.998 Y-0.472
G1 X1.261 Y-0.472
G1 X3.072 Y1.336
G1 X3.072 Y1.077
G1 X1.523 Y-0.472
G1 X1.787 Y-0.472
G1 X3.072 Y0.811
G1 X3.072 Y0.552
G1 X2.048 Y-0.472
G1 X2.312 Y-0.472
G1 X3.072 Y0.286
G1 X3.072 Y0.027
G1 X2.573 Y-0.472
G1 X2.838 Y-0.472
G1 X3.072 Y-0.238
G1 X1.656 Y0.972 F7800.000
G1 X0.210 Y-0.472 F3600.000
G1 X-0.052 Y-0.472
G1 X1.392 Y0.972
G1 X1.131 Y0.972
G1 X-0.315 Y-0.472
G1 X-0.577 Y-0.472
G1 X0.867 Y0.972
G1 X0.605 Y0.972
G1 X-0.841 Y-0.472
G1 X-1.102 Y-0.472
G1 X0.342 Y0.972
G1 X0.080 Y0.972
G1 X-1.366 Y-0.472
G1 X-1.627 Y-0.472
G1 X-0.183 Y0.972
G1 X-0.446 Y0.972
G1 X-1.892 Y-0.472
G1 X-2.152 Y-0.472
G1 X-0.708 Y0.972
G1 X-0.971 Y0.972
G1 X-2.417 Y-0.472
G1 X-2.677 Y-0.472
G1 X-1.234 Y0.972
G1 X-1.497 Y0.972
G1 X-2.943 Y-0.472
G1 X-3.202 Y-0.472
G1 X-1.759 Y0.972
G1 X-2.022 Y0.972
G1 X-3.468 Y-0.472
G1 X-3.728 Y-0.472
G1 X-2.284 Y0.972
G1 X-2.548 Y0.972
G1 X-3.994 Y-0.472
G1 X-4.253 Y-0.472
G1 X-2.809 Y0.972
G1 X-3.073 Y0.972
G1 X-4.519 Y-0.472
G1 X-4.778 Y-0.472
G1 X-3.334 Y0.972
G1 X-3.599 Y0.972
G1 X-5.045 Y-0.472
G1 X-5.303 Y-0.472
G1 X-3.859 Y0.972
G1 X-4.124 Y0.972
G1 X-5.570 Y-0.472
G1 X-5.828 Y-0.472 F7800.000
G1 X-4.384 Y0.972 F3600.000
G1 X-4.428 Y1.193 F7800.000
G1 X-5.872 Y-0.248 F3600.000
G1 X-5.872 Y0.009
G1 X-4.428 Y1.453
G1 X-4.428 Y1.718
G1 X-5.872 Y0.276
G1 X-5.872 Y0.534
G1 X-4.428 Y1.978
G1 X-4.428 Y2.242
G1 X-5.872 Y0.801
G1 X-5.872 Y1.059
G1 X-4.428 Y2.503
G1 X-4.428 Y2.767
G1 X-5.872 Y1.325
G1 X-5.872 Y1.584
G1 X-4.428 Y3.028
G1 X-4.428 Y3.292
G1 X-5.872 Y1.850
G1 X-5.872 Y2.109
G1 X-4.428 Y3.553
G1 X-4.428 Y3.816
G1 X-5.872 Y2.375
G1 X-5.872 Y2.634
G1 X-4.428 Y4.078
G1 X-4.428 Y4.341
G1 X-5.872 Y2.899
G1 X-5.872 Y3.160
G1 X-4.428 Y4.603
G1 X-4.428 Y4.866
G1 X-5.872 Y3.424
G1 X-5.872 Y3.685
G1 X-4.428 Y5.128
G1 X-4.428 Y5.390
G1 X-5.872 Y3.949
G1 X-5.872 Y4.210
G1 X-4.428 Y5.654
G1 X-4.428 Y5.915
G1 X-5.872 Y4.473
G1 X-5.872 Y4.735
G1 X-4.428 Y6.179
G1 X-4.428 Y6.440
G1 X-5.872 Y4.998
G1 X-5.872 Y5.260
G1 X-4.428 Y6.704
G1 X-4.428 Y6.964
G1 X-5.872 Y5.523
G1 X-5.872 Y5.785
G1 X-3.185 Y8.472
G1 X-3.444 Y8.472
G1 X-5.872 Y6.047
G1 X-5.872 Y6.310
G1 X-3.710 Y8.472
G1 X-3.969 Y8.472
G1 X-5.872 Y6.572
G1 X-5.872 Y6.835
G1 X-4.235 Y8.472
G1 X-4.495 Y8.472
G1 X-5.872 Y7.097
G1 X-5.872 Y7.360
G1 X-4.760 Y8.472
G1 X-5.020 Y8.472
G1 X-5.872 Y7.621
G1 X-5.872 Y7.885
G1 X-5.285 Y8.472
G1 X-5.546 Y8.472
G1 X-5.872 Y8.146
G1 X-4.364 Y7.028 F7800.000
G1 X-2.918 Y8.472 F3600.000
G1 X-2.660 Y8.472
G1 X-4.104 Y7.028
G1 X-3.839 Y7.028
G1 X-2.393 Y8.472
G1 X-2.135 Y8.472
G1 X-3.579 Y7.028
G1 X-3.313 Y7.028
G1 X-1.867 Y8.472
G1 X-1.610 Y8.472
G1 X-3.054 Y7.028
G1 X-2.788 Y7.028
G1 X-1.342 Y8.472
G1 X-1.085 Y8.472
G1 X-2.528 Y7.028
G1 X-2.262 Y7.028
G1 X-0.816 Y8.472
G1 X-0.560 Y8.472
G1 X-2.003 Y7.028
G1 X-1.737 Y7.028
G1 X-0.291 Y8.472
G1 X-0.034 Y8.472
G1 X-1.478 Y7.028
G1 X-1.211 Y7.028
G1 X0.235 Y8.472
G1 X0.491 Y8.472
G1 X-0.953 Y7.028
G1 X-0.686 Y7.028
G1 X0.761 Y8.472
G1 X1.016 Y8.472
G1 X-0.428 Y7.028
G1 X-0.160 Y7.028
G1 X1.286 Y8.472
G1 X1.541 Y8.472
G1 X0.097 Y7.028
G1 X0.365 Y7.028
G1 X1.812 Y8.472
G1 X2.066 Y8.472
G1 X0.622 Y7.028
G1 X0.891 Y7.028
G1 X2.337 Y8.472
G1 X2.591 Y8.472
G1 X1.147 Y7.028
G1 X1.416 Y7.028
G1 X2.863 Y8.472
G1 X3.116 Y8.472
G1 X1.672 Y7.028
G1 X1.942 Y7.028
G1 X3.388 Y8.472
G1 X3.641 Y8.472
G1 X2.197 Y7.028
G1 X2.467 Y7.028
G1 X3.914 Y8.472
G1 X4.166 Y8.472
G1 X2.722 Y7.028
G1 X2.993 Y7.028
G1 X4.439 Y8.472
G1 X4.691 Y8.472
G1 X3.247 Y7.028
G1 X3.519 Y7.028
G1 X4.965 Y8.472
G1 X5.216 Y8.472
G1 X3.772 Y7.028
G1 X4.044 Y7.028
G1 X5.490 Y8.472
G1 X5.741 Y8.472
G1 X4.298 Y7.028
G1 X4.570 Y7.028
G1 X6.016 Y8.472
G1 X6.072 Y8.277
G1 X4.628 Y6.834
G1 X4.628 Y6.562
G1 X6.072 Y8.004
G1 X6.072 Y7.752
G1 X4.628 Y6.308
G1 X4.628 Y6.037
G1 X6.072 Y7.479
G1 X6.072 Y7.227
G1 X4.628 Y5.783
G1 X4.628 Y5.513
G1 X6.072 Y6.954
G1 X6.072 Y6.702
G1 X4.628 Y5.258
G1 X4.628 Y4.988
G1 X6.072 Y6.430
G1 X6.072 Y6.177
G1 X4.628 Y4.733
G1 X4.628 Y4.463
G1 X6.072 Y5.905
G1 X6.072 Y5.652
G1 X4.628 Y4.208
G1 X4.628 Y3.939
G1 X6.072 Y5.380
G1 X6.072 Y5.127
G1 X4.628 Y3.683
G1 X4.628 Y3.414
G1 X6.072 Y4.856
G1 X6.072 Y4.602
G1 X4.628 Y3.158
G1 X4.628 Y2.889
G1 X6.072 Y4.331
G1 X6.072 Y4.077
G1 X4.628 Y2.633
G1 X4.628 Y2.365
G1 X6.072 Y3.806
G1 X6.072 Y3.552
G1 X4.628 Y2.108
G1 X4.628 Y1.840
G1 X6.072 Y3.282
G1 X6.072 Y3.027
G1 X4.628 Y1.583
G1 X4.628 Y1.315
G1 X6.072 Y2.757
G1 X6.072 Y2.501
G1 X4.628 Y1.058
G1 X4.628 Y0.791
G1 X6.072 Y2.232
G1 X6.072 Y1.976
G1 X4.628 Y0.533
G1 X4.628 Y0.266
G1 X6.072 Y1.708
G1 X6.072 Y1.451
G1 X4.628 Y0.007
G1 X4.628 Y-0.259
G1 X6.072 Y1.183
G1 X6.072 Y0.926
G1 X4.628 Y-0.518
G1 X4.628 Y-0.783
G1 X6.072 Y0.658
G1 X6.072 Y0.401
G1 X4.628 Y-1.043
G1 X4.628 Y-1.308
G1 X6.072 Y0.134
G1 X6.072 Y-0.124
G1 X4.628 Y-1.568
G1 X5.874 Y-3.472 F7800.000
G1 X6.072 Y-3.274 F3600.000
G1 X6.072 Y-3.014
G1 X5.614 Y-3.472
G1 X5.349 Y-3.472
G1 X6.072 Y-2.749
G1 X6.072 Y-2.490
G1 X5.088 Y-3.472
G1 X4.824 Y-3.472
G1 X6.072 Y-2.224
G1 X6.072 Y-1.965
G1 X4.563 Y-3.472
G1 X4.299 Y-3.472
G1 X6.072 Y-1.699
G1 X6.072 Y-1.440
G1 X4.037 Y-3.472
G1 X3.774 Y-3.472
G1 X6.072 Y-1.174
G1 X6.072 Y-0.916
G1 X3.512 Y-3.472
G1 X3.249 Y-3.472
G1 X4.693 Y-2.028
G1 X4.628 Y-1.833
G1 X6.072 Y-0.391
G1 X6.072 Y-0.649
G1 X4.628 Y-2.093
G1 X4.432 Y-2.028
G1 X2.986 Y-3.472
G1 X2.724 Y-3.472
G1 X4.168 Y-2.028
G1 X3.907 Y-2.028
G1 X2.461 Y-3.472
G1 X2.199 Y-3.472
G1 X3.643 Y-2.028
G1 X3.381 Y-2.028
G1 X1.935 Y-3.472
G1 X1.674 Y-3.472
G1 X3.118 Y-2.028
G1 X2.856 Y-2.028
G1 X1.410 Y-3.472
G1 X1.149 Y-3.472
G1 X2.593 Y-2.028
G1 X2.330 Y-2.028
G1 X0.884 Y-3.472
G1 X0.624 Y-3.472
G1 X2.067 Y-2.028
G1 X1.805 Y-2.028
G1 X0.359 Y-3.472
G1 X0.099 Y-3.472
G1 X1.542 Y-2.028
G1 X1.279 Y-2.028
G1 X-0.167 Y-3.472
G1 X-0.427 Y-3.472
G1 X1.017 Y-2.028
G1 X0.754 Y-2.028
G1 X-0.692 Y-3.472
G1 X-0.952 Y-3.472
G1 X0.492 Y-2.028
G1 X0.228 Y-2.028
G1 X-1.218 Y-3.472
G1 X-1.477 Y-3.472
G1 X-0.033 Y-2.028
G1 X-0.297 Y-2.028
G1 X-1.743 Y-3.472
G1 X-2.002 Y-3.472
G1 X-0.558 Y-2.028
G1 X-0.823 Y-2.028
G1 X-2.269 Y-3.472
G1 X-2.527 Y-3.472
G1 X-1.083 Y-2.028
G1 X-1.348 Y-2.028
G1 X-2.794 Y-3.472
G1 X-3.052 Y-3.472
G1 X-1.608 Y-2.028
G1 X-1.874 Y-2.028
G1 X-3.320 Y-3.472
G1 X-3.577 Y-3.472
G1 X-2.133 Y-2.028
G1 X-2.399 Y-2.028
G1 X-3.845 Y-3.472
G1 X-4.102 Y-3.472
G1 X-2.658 Y-2.028
G1 X-2.925 Y-2.028
G1 X-4.371 Y-3.472
G1 X-4.627 Y-3.472
G1 X-3.183 Y-2.028
G1 X-3.450 Y-2.028
G1 X-4.897 Y-3.472
G1 X-5.152 Y-3.472
G1 X-3.708 Y-2.028
G1 X-3.976 Y-2.028
G1 X-5.422 Y-3.472
G1 X-5.677 Y-3.472
G1 X-4.234 Y-2.028
G1 X-4.501 Y-2.028
G1 X-5.948 Y-3.472
G1 X-6.202 Y-3.472
G1 X-4.759 Y-2.028
G1 X-5.027 Y-2.028
G1 X-6.473 Y-3.472
G1 X-6.728 Y-3.472
G1 X-5.284 Y-2.028
G1 X-5.552 Y-2.028
G1 X-6.999 Y-3.472
G1 X-7.253 Y-3.472
G1 X-5.809 Y-2.028
G1 X-6.078 Y-2.028
G1 X-7.524 Y-3.472
G1 X-7.778 Y-3.472
G1 X-6.334 Y-2.028
G1 X-6.603 Y-2.028
G1 X-8.050 Y-3.472
G1 X-8.303 Y-3.472
G1 X-6.859 Y-2.028
G1 X-7.129 Y-2.028
G1 X-8.575 Y-3.472
G1 X-8.828 Y-3.472
G1 X-7.384 Y-2.028
G1 X-7.428 Y-1.802 F7800.000
G1 X-8.872 Y-3.244 F3600.000
G1 X-8.872 Y-2.991
G1 X-7.428 Y-1.547
G1 X-7.428 Y-1.277
G1 X-8.872 Y-2.719
G1 X-8.872 Y-2.466
G1 X-7.428 Y-1.022
G1 X-7.428 Y-0.753
G1 X-8.872 Y-2.194
G1 X-8.872 Y-1.941
G1 X-7.428 Y-0.497
G1 X-7.428 Y-0.228
G1 X-8.872 Y-1.670
G1 X-8.872 Y-1.416
G1 X-7.428 Y0.028
G1 X-7.428 Y0.297
G1 X-8.872 Y-1.145
G1 X-8.872 Y-0.891
G1 X-7.428 Y0.553
G1 X-7.428 Y0.821
G1 X-8.872 Y-0.620
G1 X-8.872 Y-0.366
G1 X-7.428 Y1.078
G1 X-7.428 Y1.346
G1 X-8.872 Y-0.096
G1 X-8.872 Y0.160
G1 X-7.428 Y1.603
G1 X-7.428 Y1.871
G1 X-8.872 Y0.429
G1 X-8.872 Y0.685
G1 X-7.428 Y2.128
G1 X-7.428 Y2.395
G1 X-8.872 Y0.954
G1 X-8.872 Y1.210
G1 X-7.428 Y2.654
G1 X-7.428 Y2.920
G1 X-8.872 Y1.478
G1 X-8.872 Y1.735
G1 X-7.428 Y3.179
G1 X-7.428 Y3.445
G1 X-8.872 Y2.003
G1 X-8.872 Y2.260
G1 X-7.428 Y3.704
G1 X-7.428 Y3.969
G1 X-8.872 Y2.528
G1 X-8.872 Y2.785
G1 X-7.428 Y4.229
G1 X-7.428 Y4.494
G1 X-8.872 Y3.052
G1 X-8.872 Y3.310
G1 X-7.428 Y4.754
G1 X-7.428 Y5.018
G1 X-8.872 Y3.577
G1 X-8.872 Y3.835
G1 X-7.428 Y5.279
G1 X-7.428 Y5.543
G1 X-8.872 Y4.102
G1 X-8.872 Y4.360
G1 X-7.428 Y5.804
G1 X-7.428 Y6.068
G1 X-8.872 Y4.626
G1 X-8.872 Y4.885
G1 X-7.428 Y6.329
G1 X-7.428 Y6.592
G1 X-8.872 Y5.151
G1 X-8.872 Y5.410
G1 X-7.428 Y6.854
G1 X-7.428 Y7.117
G1 X-8.872 Y5.676
G1 X-8.872 Y5.935
G1 X-7.428 Y7.379
G1 X-7.428 Y7.642
G1 X-8.872 Y6.200
G1 X-8.872 Y6.461
G1 X-7.428 Y7.904
G1 X-7.428 Y8.166
G1 X-8.872 Y6.725
G1 X-8.872 Y6.986
G1 X-7.428 Y8.429
G1 X-7.428 Y8.691
G1 X-8.872 Y7.249
G1 X-8.872 Y7.511
G1 X-7.428 Y8.955
G1 X-7.428 Y9.216
G1 X-8.872 Y7.774
G1 X-8.872 Y8.036
G1 X-7.428 Y9.480
G1 X-7.428 Y9.740
G1 X-8.872 Y8.299
G1 X-8.872 Y8.561
G1 X-7.428 Y10.005
G1 X-8.586 Y11.472 F7800.000
G1 X-8.872 Y11.186 F3600.000
G1 X-8.872 Y10.922
G1 X-8.321 Y11.472
G1 X-8.061 Y11.472
G1 X-8.872 Y10.661
G1 X-8.872 Y10.397
G1 X-7.796 Y11.472
G1 X-7.536 Y11.472
G1 X-8.872 Y10.136
G1 X-8.872 Y9.873
G1 X-7.270 Y11.472
G1 X-7.011 Y11.472
G1 X-8.872 Y9.611
G1 X-8.872 Y9.348
G1 X-6.745 Y11.472
G1 X-6.486 Y11.472
G1 X-8.872 Y9.086
G1 X-8.872 Y8.823
G1 X-6.219 Y11.472
G1 X-5.961 Y11.472
G1 X-7.405 Y10.028
G1 X-7.140 Y10.028
G1 X-5.694 Y11.472
G1 X-5.436 Y11.472
G1 X-6.880 Y10.028
G1 X-6.614 Y10.028
G1 X-5.168 Y11.472
G1 X-4.911 Y11.472
G1 X-6.355 Y10.028
G1 X-6.089 Y10.028
G1 X-4.643 Y11.472
G1 X-4.386 Y11.472
G1 X-5.829 Y10.028
G1 X-5.563 Y10.028
G1 X-4.117 Y11.472
G1 X-3.861 Y11.472
G1 X-5.304 Y10.028
G1 X-5.038 Y10.028
G1 X-3.592 Y11.472
G1 X-3.335 Y11.472
G1 X-4.779 Y10.028
G1 X-4.512 Y10.028
G1 X-3.066 Y11.472
G1 X-2.810 Y11.472
G1 X-4.254 Y10.028
G1 X-3.987 Y10.028
G1 X-2.541 Y11.472
G1 X-2.285 Y11.472
G1 X-3.729 Y10.028
G1 X-3.461 Y10.028
G1 X-2.015 Y11.472
G1 X-1.760 Y11.472
G1 X-3.204 Y10.028
G1 X-2.936 Y10.028
G1 X-1.490 Y11.472
G1 X-1.235 Y11.472
G1 X-2.679 Y10.028
G1 X-2.410 Y10.028
G1 X-0.964 Y11.472
G1 X-0.710 Y11.472
G1 X-2.154 Y10.028
G1 X-1.885 Y10.028
G1 X-0.439 Y11.472
G1 X-0.185 Y11.472
G1 X-1.629 Y10.028
G1 X-1.359 Y10.028
G1 X0.087 Y11.472
G1 X0.340 Y11.472
G1 X-1.104 Y10.028
G1 X-0.834 Y10.028
G1 X0.612 Y11.472
G1 X0.865 Y11.472
G1 X-0.579 Y10.028
G1 X-0.308 Y10.028
G1 X1.138 Y11.472
G1 X1.390 Y11.472
G1 X-0.054 Y10.028
G1 X0.217 Y10.028
G1 X1.663 Y11.472
G1 X1.915 Y11.472
G1 X0.472 Y10.028
G1 X0.743 Y10.028
G1 X2.189 Y11.472
G1 X2.440 Y11.472
G1 X0.997 Y10.028
G1 X1.268 Y10.028
G1 X2.714 Y11.472
G1 X2.965 Y11.472
G1 X1.522 Y10.028
G1 X1.794 Y10.028
G1 X3.240 Y11.472
G1 X3.491 Y11.472
G1 X2.047 Y10.028
G1 X2.319 Y10.028
G1 X3.765 Y11.472
G1 X4.016 Y11.472
G1 X2.572 Y10.028
G1 X2.845 Y10.028
G1 X4.291 Y11.472
G1 X4.541 Y11.472
G1 X3.097 Y10.028
G1 X3.370 Y10.028
G1 X4.816 Y11.472
G1 X5.066 Y11.472
G1 X3.622 Y10.028
G1 X3.896 Y10.028
G1 X5.342 Y11.472
G1 X5.591 Y11.472
G1 X4.147 Y10.028
G1 X4.421 Y10.028
G1 X5.867 Y11.472
G1 X6.116 Y11.472
G1 X4.672 Y10.028
G1 X4.947 Y10.028
G1 X6.393 Y11.472
G1 X6.641 Y11.472
G1 X5.197 Y10.028
G1 X5.472 Y10.028
G1 X6.918 Y11.472
G1 X7.166 Y11.472
G1 X5.722 Y10.028
G1 X5.998 Y10.028
G1 X7.444 Y11.472
G1 X7.691 Y11.472
G1 X6.247 Y10.028
G1 X6.523 Y10.028
G1 X7.969 Y11.472
G1 X8.216 Y11.472
G1 X6.772 Y10.028
G1 X7.049 Y10.028
G1 X8.495 Y11.472
G1 X8.741 Y11.472
G1 X7.298 Y10.028
G1 X7.574 Y10.028
G1 X9.020 Y11.472
G1 X9.072 Y11.277
G1 X7.628 Y9.834
G1 X7.628 Y9.557
G1 X9.072 Y10.999
G1 X9.072 Y10.752
G1 X7.628 Y9.308
G1 X7.628 Y9.032
G1 X9.072 Y10.474
G1 X9.072 Y10.227
G1 X7.628 Y8.783
G1 X7.628 Y8.508
G1 X9.072 Y9.949
G1 X9.072 Y9.702
G1 X7.628 Y8.258
G1 X7.628 Y7.983
G1 X9.072 Y9.425
G1 X9.072 Y9.177
G1 X7.628 Y7.733
G1 X7.628 Y7.458
G1 X9.072 Y8.900
G1 X9.072 Y8.652
G1 X7.628 Y7.208
G1 X7.628 Y6.934
G1 X9.072 Y8.375
G1 X9.072 Y8.127
G1 X7.628 Y6.683
G1 X7.628 Y6.409
G1 X9.072 Y7.851
G1 X9.072 Y7.602
G1 X7.628 Y6.158
G1 X7.628 Y5.884
G1 X9.072 Y7.326
G1 X9.072 Y7.077
G1 X7.628 Y5.633
G1 X7.628 Y5.360
G1 X9.072 Y6.801
G1 X9.072 Y6.552
G1 X7.628 Y5.108
G1 X7.628 Y4.835
G1 X9.072 Y6.277
G1 X9.072 Y6.027
G1 X7.628 Y4.583
G1 X7.628 Y4.310
G1 X9.072 Y5.752
G1 X9.072 Y5.501
G1 X7.628 Y4.058
G1 X7.628 Y3.786
G1 X9.072 Y5.227
G1 X9.072 Y4.976
G1 X7.628 Y3.533
G1 X7.628 Y3.261
G1 X9.072 Y4.703
G1 X9.072 Y4.451
G1 X7.628 Y3.007
G1 X7.628 Y2.737
G1 X9.072 Y4.178
G1 X9.072 Y3.926
G1 X7.628 Y2.482
G1 X7.628 Y2.212
G1 X9.072 Y3.653
G1 X9.072 Y3.401
G1 X7.628 Y1.957
G1 X7.628 Y1.687
G1 X9.072 Y3.129
G1 X9.072 Y2.876
G1 X7.628 Y1.432
G1 X7.628 Y1.163
G1 X9.072 Y2.604
G1 X9.072 Y2.351
G1 X7.628 Y0.907
G1 X7.628 Y0.638
G1 X9.072 Y2.080
G1 X9.072 Y1.826
G1 X7.628 Y0.382
G1 X7.628 Y0.113
G1 X9.072 Y1.555
G1 X9.072 Y1.301
G1 X7.628 Y-0.143
G1 X7.628 Y-0.411
G1 X9.072 Y1.030
G1 X9.072 Y0.776
G1 X7.628 Y-0.668
G1 X7.628 Y-0.936
G1 X9.072 Y0.506
G1 X9.072 Y0.251
G1 X7.628 Y-1.193
G1 X7.628 Y-1.461
G1 X9.072 Y-0.019
G1 X9.072 Y-0.274
G1 X7.628 Y-1.718
G1 X7.628 Y-1.985
G1 X9.072 Y-0.544
G1 X9.072 Y-0.799
G1 X7.628 Y-2.243
G1 X7.628 Y-2.510
G1 X9.072 Y-1.068
G1 X9.072 Y-1.325
G1 X7.628 Y-2.768
G1 X7.628 Y-3.035
G1 X9.072 Y-1.593
G1 X9.072 Y-1.850
G1 X7.628 Y-3.293
G1 X7.628 Y-3.559
G1 X9.072 Y-2.118
G1 X9.072 Y-2.375
G1 X7.628 Y-3.819
G1 X7.628 Y-4.084
G1 X9.072 Y-2.642
G1 X9.072 Y-2.900
G1 X7.628 Y-4.344
G1 X7.628 Y-4.609
G1 X9.072 Y-3.167
G1 X9.072 Y-3.425
G1 X7.628 Y-4.869
G1 X7.488 Y-5.009 F7800.000
G1 X6.025 Y-6.472 F3600.000
G1 X6.287 Y-6.472
G1 X9.072 Y-3.692
G1 X9.072 Y-3.950
G1 X6.550 Y-6.472
G1 X6.813 Y-6.472
G1 X9.072 Y-4.216
G1 X9.072 Y-4.475
G1 X7.075 Y-6.472
G1 X7.338 Y-6.472
G1 X9.072 Y-4.741
G1 X9.072 Y-5.000
G1 X7.600 Y-6.472
G1 X7.864 Y-6.472
G1 X9.072 Y-5.266
G1 X9.072 Y-5.525
G1 X8.125 Y-6.472
G1 X8.389 Y-6.472
G1 X9.072 Y-5.790
G1 X9.072 Y-6.050
G1 X8.650 Y-6.472
G1 X8.915 Y-6.472
G1 X9.072 Y-6.315
G1 X10.528 Y-7.745 F7800.000
G1 X11.972 Y-6.301 F3600.000
G1 X11.972 Y-6.043
G1 X10.528 Y-7.485
G1 X10.528 Y-7.220
G1 X11.972 Y-5.776
G1 X11.972 Y-5.518
G1 X10.528 Y-6.960
G1 X10.528 Y-6.694
G1 X11.972 Y-5.251
G1 X11.972 Y-4.994
G1 X10.528 Y-6.435
G1 X10.528 Y-6.169
G1 X11.972 Y-4.726
G1 X11.972 Y-4.469
G1 X10.528 Y-5.911
G1 X10.528 Y-5.644
G1 X11.972 Y-4.200
G1 X11.972 Y-3.944
G1 X10.528 Y-5.386
G1 X10.528 Y-5.119
G1 X11.972 Y-3.675
G1 X11.972 Y-3.420
G1 X10.528 Y-4.861
G1 X10.528 Y-4.594
G1 X11.972 Y-3.150
G1 X11.972 Y-2.895
G1 X10.528 Y-4.337
G1 X10.528 Y-4.069
G1 X11.972 Y-2.625
G1 X11.972 Y-2.370
G1 X10.528 Y-3.812
G1 X10.528 Y-3.544
G1 X11.972 Y-2.100
G1 X11.972 Y-1.846
G1 X10.528 Y-3.287
G1 X10.528 Y-3.019
G1 X11.972 Y-1.575
G1 X11.972 Y-1.321
G1 X10.528 Y-2.763
G1 X10.528 Y-2.494
G1 X11.972 Y-1.050
G1 X11.972 Y-0.796
G1 X10.528 Y-2.238
G1 X10.528 Y-1.969
G1 X11.972 Y-0.525
G1 X11.972 Y-0.272
G1 X10.528 Y-1.713
G1 X10.528 Y-1.444
G1 X11.972 Y0.000
G1 X11.972 Y0.253
