; generated by Slic3r 1.2.9 on 2018-02-24 at 16:01:42

; external perimeters extrusion width = 0.20mm
; perimeters extrusion width = 0.21mm
; infill extrusion width = 0.21mm
; solid infill extrusion width = 0.21mm
; top infill extrusion width = 0.21mm

M107
M104 S200 ; set temperature

M109 S200 ; wait for temperature to be reached
G21 ; set units to millimeters
G90 ; use absolute coordinates
G1 Z0.200 F7800.000
G1 X2.472 Y1.333 F7800.000
G1 X2.167 Y1.028 F3600.000
G1 X1.903 Y1.028
G1 X2.472 Y1.597
G1 X2.472 Y1.857
G1 X1.642 Y1.028
G1 X1.378 Y1.028
G1 X2.472 Y2.122
G1 X2.472 Y2.382
G1 X1.117 Y1.028
G1 X0.853 Y1.028
G1 X2.472 Y2.647
G1 X2.472 Y2.907
G1 X0.591 Y1.028
G1 X0.328 Y1.028
G1 X2.472 Y3.172
G1 X2.472 Y3.432
G1 X0.066 Y1.028
G1 X0.028 Y1.253
G1 X2.472 Y3.697
G1 X2.472 Y3.957
G1 X0.028 Y1.515
G1 X0.028 Y1.779
G1 X2.472 Y4.222
G1 X2.472 Y4.481
G1 X0.028 Y2.040
G1 X0.028 Y2.304
G1 X2.472 Y4.747
G1 X2.472 Y5.006
G1 X0.028 Y2.565
G1 X0.028 Y2.829
G1 X2.472 Y5.273
G1 X2.472 Y5.531
G1 X0.028 Y3.090
G1 X0.028 Y3.354
G1 X2.472 Y5.798
G1 X2.388 Y5.972
G1 X0.028 Y3.614
G1 X0.028 Y3.879
G1 X2.121 Y5.972
G1 X1.863 Y5.972
G1 X0.028 Y4.139
G1 X0.028 Y4.404
G1 X1.596 Y5.972
G1 X1.337 Y5.972
G1 X-0.108 Y4.528
G1 X-0.373 Y4.528
G1 X1.071 Y5.972
G1 X0.812 Y5.972
G1 X-0.633 Y4.528
G1 X-0.898 Y4.528
G1 X0.546 Y5.972
G1 X0.286 Y5.972
G1 X-1.159 Y4.528
G1 X-1.423 Y4.528
G1 X0.021 Y5.972
G1 X-0.239 Y5.972
G1 X-1.684 Y4.528
G1 X-1.948 Y4.528
G1 X-0.504 Y5.972
G1 X-0.764 Y5.972
G1 X-2.209 Y4.528
G1 X-2.473 Y4.528 F7800.000
G1 X-1.029 Y5.972 F3600.000
G1 X-1.290 Y5.972
G1 X-3.972 Y3.292
G1 X-3.972 Y3.554
G1 X-1.554 Y5.972
G1 X-1.815 Y5.972
G1 X-3.972 Y3.817
G1 X-3.972 Y4.080
G1 X-2.080 Y5.972
G1 X-2.340 Y5.972
G1 X-3.972 Y4.342
G1 X-3.972 Y4.605
G1 X-2.605 Y5.972
G1 X-2.866 Y5.972
G1 X-3.972 Y4.867
G1 X-3.972 Y5.130
G1 X-3.130 Y5.972
G1 X-3.391 Y5.972
G1 X-3.972 Y5.391
G1 X-3.972 Y5.655
G1 X-3.655 Y5.972
G1 X-2.528 Y4.473 F7800.000
G1 X-3.972 Y3.029 F3600.000
G1 X-3.972 Y2.767
G1 X-2.528 Y4.210
G1 X-2.528 Y3.948
G1 X-3.972 Y2.504
G1 X-3.972 Y2.243
G1 X-2.528 Y3.685
G1 X-2.528 Y3.423
G1 X-3.972 Y1.979
G1 X-3.972 Y1.718
G1 X-2.528 Y3.160
G1 X-2.528 Y2.898
G1 X-3.972 Y1.454
G1 X-3.972 Y1.193
G1 X-2.528 Y2.635
G1 X-2.528 Y2.373
G1 X-3.972 Y0.929
G1 X-3.972 Y0.668
G1 X-2.528 Y2.111
G1 X-2.528 Y1.848
G1 X-3.972 Y0.404
G1 X-3.972 Y0.143
G1 X-2.528 Y1.586
G1 X-2.528 Y1.323
G1 X-3.972 Y-0.121
G1 X-3.972 Y-0.381
G1 X-2.528 Y1.061
G1 X-2.528 Y0.798
G1 X-3.972 Y-0.646
G1 X-3.972 Y-0.906
G1 X-2.528 Y0.536
G1 X-2.528 Y0.273
G1 X-3.972 Y-1.171
G1 X-3.972 Y-1.431
G1 X-2.528 Y0.011
G1 X-2.528 Y-0.253
G1 X-3.972 Y-1.696
G1 X-3.972 Y-1.956
G1 X-2.528 Y-0.513
G1 X-2.528 Y-0.778
G1 X-3.972 Y-2.221
G1 X-3.972 Y-2.481
G1 X-2.528 Y-1.038
G1 X-2.528 Y-1.303
G1 X-3.972 Y-2.747
G1 X-3.972 Y-3.006
G1 X-2.528 Y-1.563
G1 X-2.528 Y-1.828
G1 X-3.972 Y-3.272
G1 X-3.972 Y-3.530
G1 X-2.528 Y-2.088
G1 X-2.528 Y-2.353
G1 X-3.972 Y-3.797
G1 X-3.972 Y-4.055
G1 X-2.528 Y-2.613
G1 X-2.528 Y-2.878
G1 X-3.972 Y-4.322
G1 X-3.972 Y-4.580
G1 X-2.528 Y-3.138
G1 X-2.528 Y-3.403
G1 X-3.972 Y-4.847
G1 X-3.972 Y-5.105
G1 X-2.528 Y-3.662
G1 X-2.528 Y-3.928
G1 X-3.972 Y-5.372
G1 X-3.814 Y-5.472
G1 X-2.369 Y-4.028
G1 X-2.103 Y-4.028
G1 X-3.547 Y-5.472
G1 X-3.289 Y-5.472
G1 X-1.843 Y-4.028
G1 X-1.578 Y-4.028
G1 X-3.022 Y-5.472
G1 X-2.763 Y-5.472
G1 X-1.318 Y-4.028
G1 X-1.053 Y-4.028
G1 X-2.497 Y-5.472
G1 X-2.238 Y-5.472
G1 X-0.793 Y-4.028
G1 X-0.528 Y-4.028
G1 X-1.972 Y-5.472
G1 X-1.713 Y-5.472
G1 X-0.267 Y-4.028
G1 X-0.003 Y-4.028
G1 X-1.446 Y-5.472
G1 X-1.187 Y-5.472
G1 X0.258 Y-4.028
G1 X0.522 Y-4.028
G1 X-0.921 Y-5.472
G1 X-0.662 Y-5.472
G1 X0.783 Y-4.028
G1 X1.048 Y-4.028
G1 X-0.396 Y-5.472
G1 X-0.137 Y-5.472
G1 X1.309 Y-4.028
G1 X1.573 Y-4.028
G1 X0.129 Y-5.472
G1 X0.389 Y-5.472
G1 X1.834 Y-4.028
G1 X2.098 Y-4.028
G1 X0.654 Y-5.472
G1 X0.914 Y-5.472
G1 X2.359 Y-4.028
G1 X2.623 Y-4.028
G1 X1.179 Y-5.472
G1 X1.439 Y-5.472
G1 X2.885 Y-4.028
G1 X3.148 Y-4.028
G1 X1.704 Y-5.472
G1 X1.965 Y-5.472
G1 X3.410 Y-4.028
G1 X3.673 Y-4.028
G1 X2.229 Y-5.472
G1 X2.490 Y-5.472
G1 X3.935 Y-4.028
G1 X4.198 Y-4.028
G1 X2.754 Y-5.472
G1 X3.015 Y-5.472
G1 X4.461 Y-4.028
G1 X4.723 Y-4.028
G1 X3.279 Y-5.472
G1 X3.541 Y-5.472
G1 X4.986 Y-4.028
G1 X5.248 Y-4.028
G1 X3.804 Y-5.472
G1 X4.066 Y-5.472
G1 X5.511 Y-4.028
G1 X7.472 Y-5.218 F7800.000
G1 X7.218 Y-5.472 F3600.000
G1 X6.955 Y-5.472
G1 X7.472 Y-4.955
G1 X7.472 Y-4.694
G1 X6.693 Y-5.472
G1 X6.430 Y-5.472
G1 X7.472 Y-4.430
G1 X7.472 Y-4.169
G1 X6.168 Y-5.472
G1 X5.905 Y-5.472
G1 X7.472 Y-3.905
G1 X7.472 Y-3.644
G1 X5.642 Y-5.472
G1 X5.380 Y-5.472
G1 X7.472 Y-3.380
G1 X7.472 Y-3.119
G1 X5.117 Y-5.472
G1 X4.854 Y-5.472
G1 X7.472 Y-2.854
G1 X7.472 Y-2.594
G1 X6.028 Y-4.037
G1 X5.773 Y-4.028
G1 X4.329 Y-5.472
G1 X4.592 Y-5.472
G1 X6.037 Y-4.028
G1 X6.028 Y-3.773
G1 X7.472 Y-2.329
G1 X7.472 Y-2.070
G1 X6.028 Y-3.512
G1 X6.028 Y-3.248
G1 X7.472 Y-1.804
G1 X7.472 Y-1.545
G1 X6.028 Y-2.987
G1 X6.028 Y-2.723
G1 X7.472 Y-1.279
G1 X7.472 Y-1.020
G1 X6.028 Y-2.462
G1 X6.028 Y-2.198
G1 X7.472 Y-0.754
G1 X7.472 Y-0.495
G1 X6.028 Y-1.938
G1 X6.028 Y-1.673
G1 X7.472 Y-0.229
G1 X7.472 Y0.030
G1 X6.028 Y-1.413
G1 X6.028 Y-1.148
G1 X7.472 Y0.296
G1 X7.472 Y0.555
G1 X6.028 Y-0.888
G1 X6.028 Y-0.623
G1 X7.472 Y0.821
G1 X7.472 Y1.079
G1 X6.028 Y-0.363
G1 X6.028 Y-0.098
G1 X7.472 Y1.346
G1 X7.472 Y1.604
G1 X6.028 Y0.162
G1 X6.028 Y0.427
G1 X7.472 Y1.871
G1 X7.472 Y2.129
G1 X6.028 Y0.687
G1 X6.028 Y0.952
G1 X7.472 Y2.396
G1 X7.472 Y2.654
G1 X6.028 Y1.211
G1 X6.028 Y1.478
G1 X7.472 Y2.921
G1 X7.472 Y3.179
G1 X6.028 Y1.736
G1 X6.028 Y2.003
G1 X7.472 Y3.446
G1 X7.472 Y3.703
G1 X6.028 Y2.261
G1 X6.028 Y2.528
G1 X7.472 Y3.972
G1 X7.472 Y4.228
G1 X6.028 Y2.786
G1 X6.028 Y3.053
G1 X7.472 Y4.497
G1 X7.472 Y4.753
G1 X6.028 Y3.311
G1 X6.028 Y3.578
G1 X7.472 Y5.022
G1 X7.472 Y5.278
G1 X6.028 Y3.835
G1 X6.028 Y4.103
G1 X7.472 Y5.547
G1 X7.472 Y5.803
G1 X6.028 Y4.360
G1 X6.028 Y4.628
G1 X7.472 Y6.072
G1 X7.472 Y6.328
G1 X6.028 Y4.885
G1 X6.028 Y5.153
G1 X7.472 Y6.597
G1 X7.472 Y6.852
G1 X6.028 Y5.410
G1 X6.028 Y5.678
G1 X7.472 Y7.122
G1 X7.472 Y7.377
G1 X6.028 Y5.935
G1 X6.028 Y6.203
G1 X7.472 Y7.647
G1 X7.472 Y7.902
G1 X6.028 Y6.460
G1 X6.028 Y6.728
G1 X7.472 Y8.172
G1 X7.472 Y8.427
G1 X6.028 Y6.984
G1 X6.028 Y7.253
G1 X7.472 Y8.697
G1 X7.472 Y8.952
G1 X6.028 Y7.509
G1 X6.028 Y7.779
G1 X7.472 Y9.222
G1 X7.467 Y9.472
G1 X6.022 Y8.028
G1 X5.753 Y8.028
G1 X7.196 Y9.472
G1 X6.942 Y9.472
G1 X5.497 Y8.028
G1 X5.227 Y8.028
G1 X6.671 Y9.472
G1 X6.417 Y9.472
G1 X4.972 Y8.028
G1 X4.702 Y8.028
G1 X6.146 Y9.472
G1 X5.891 Y9.472
G1 X4.446 Y8.028
G1 X4.177 Y8.028
G1 X5.621 Y9.472
G1 X5.366 Y9.472
G1 X3.921 Y8.028
G1 X3.652 Y8.028
G1 X5.096 Y9.472
G1 X4.841 Y9.472
G1 X3.395 Y8.028
G1 X3.127 Y8.028
G1 X4.571 Y9.472
G1 X4.315 Y9.472
G1 X2.870 Y8.028
G1 X2.602 Y8.028
G1 X4.046 Y9.472
G1 X3.790 Y9.472
G1 X2.345 Y8.028
G1 X2.077 Y8.028
G1 X3.521 Y9.472
G1 X3.265 Y9.472
G1 X1.819 Y8.028
G1 X1.552 Y8.028
G1 X2.996 Y9.472
G1 X2.739 Y9.472
G1 X1.294 Y8.028
G1 X1.027 Y8.028
G1 X2.471 Y9.472
G1 X2.214 Y9.472
G1 X0.769 Y8.028
G1 X0.502 Y8.028
G1 X1.946 Y9.472
G1 X1.689 Y9.472
G1 X0.243 Y8.028
G1 X-0.023 Y8.028
G1 X1.420 Y9.472
G1 X1.163 Y9.472
G1 X-0.282 Y8.028
G1 X-0.548 Y8.028
G1 X0.895 Y9.472
G1 X0.638 Y9.472
G1 X-0.807 Y8.028
G1 X-1.073 Y8.028
G1 X0.370 Y9.472
G1 X0.113 Y9.472
G1 X-1.333 Y8.028
G1 X-1.599 Y8.028
G1 X-0.155 Y9.472
G1 X-0.413 Y9.472
G1 X-1.858 Y8.028
G1 X-2.124 Y8.028
G1 X-0.680 Y9.472
G1 X-0.938 Y9.472
G1 X-2.383 Y8.028
G1 X-2.649 Y8.028
G1 X-1.205 Y9.472
G1 X-1.463 Y9.472
G1 X-2.909 Y8.028
G1 X-3.174 Y8.028
G1 X-1.730 Y9.472
G1 X-1.989 Y9.472
G1 X-3.434 Y8.028
G1 X-3.699 Y8.028
G1 X-2.255 Y9.472
G1 X-2.514 Y9.472
G1 X-3.959 Y8.028
G1 X-4.224 Y8.028
G1 X-2.780 Y9.472
G1 X-3.039 Y9.472
G1 X-4.485 Y8.028
G1 X-4.749 Y8.028
G1 X-3.305 Y9.472
G1 X-3.565 Y9.472
G1 X-5.010 Y8.028
G1 X-5.274 Y8.028
G1 X-3.830 Y9.472
G1 X-4.090 Y9.472
G1 X-5.535 Y8.028
G1 X-7.472 Y9.242 F7800.000
G1 X-7.242 Y9.472 F3600.000
G1 X-6.981 Y9.472
G1 X-7.472 Y8.981
G1 X-7.472 Y8.718
G1 X-6.717 Y9.472
G1 X-6.456 Y9.472
G1 X-7.472 Y8.456
G1 X-7.472 Y8.193
G1 X-6.192 Y9.472
G1 X-5.931 Y9.472
G1 X-7.472 Y7.931
G1 X-7.472 Y7.668
G1 X-5.666 Y9.472
G1 X-5.406 Y9.472
G1 X-7.472 Y7.406
G1 X-7.472 Y7.143
G1 X-5.141 Y9.472
G1 X-4.880 Y9.472
G1 X-7.472 Y6.880
G1 X-7.472 Y6.618
G1 X-6.028 Y8.061
G1 X-5.799 Y8.028
G1 X-4.355 Y9.472
G1 X-4.616 Y9.472
G1 X-6.061 Y8.028
G1 X-6.028 Y7.799
G1 X-7.472 Y6.355
G1 X-7.472 Y6.094
G1 X-6.028 Y7.536
G1 X-6.028 Y7.274
G1 X-7.472 Y5.830
G1 X-7.472 Y5.569
G1 X-6.028 Y7.011
G1 X-6.028 Y6.749
G1 X-7.472 Y5.305
G1 X-7.472 Y5.044
G1 X-6.028 Y6.486
G1 X-6.028 Y6.224
G1 X-7.472 Y4.780
G1 X-7.472 Y4.519
G1 X-6.028 Y5.962
G1 X-6.028 Y5.699
G1 X-7.472 Y4.255
G1 X-7.472 Y3.994
G1 X-6.028 Y5.437
G1 X-6.028 Y5.174
G1 X-7.472 Y3.730
G1 X-7.472 Y3.469
G1 X-6.028 Y4.912
G1 X-6.028 Y4.649
G1 X-7.472 Y3.205
G1 X-7.472 Y2.945
G1 X-6.028 Y4.387
G1 X-6.028 Y4.124
G1 X-7.472 Y2.680
G1 X-7.472 Y2.420
G1 X-6.028 Y3.862
G1 X-6.028 Y3.599
G1 X-7.472 Y2.155
G1 X-7.472 Y1.895
G1 X-6.028 Y3.337
G1 X-6.028 Y3.073
G1 X-7.472 Y1.630
G1 X-7.472 Y1.370
G1 X-6.028 Y2.813
G1 X-6.028 Y2.548
G1 X-7.472 Y1.105
G1 X-7.472 Y0.845
G1 X-6.028 Y2.288
G1 X-6.028 Y2.023
G1 X-7.472 Y0.580
G1 X-7.472 Y0.321
G1 X-6.028 Y1.763
G1 X-6.028 Y1.498
G1 X-7.472 Y0.054
G1 X-7.472 Y-0.204
G1 X-6.028 Y1.238
G1 X-6.028 Y0.973
G1 X-7.472 Y-0.471
G1 X-7.472 Y-0.729
G1 X-6.028 Y0.713
G1 X-6.028 Y0.448
G1 X-7.472 Y-0.996
G1 X-7.472 Y-1.254
G1 X-6.028 Y0.189
G1 X-6.028 Y-0.077
G1 X-7.472 Y-1.521
G1 X-7.472 Y-1.779
G1 X-6.028 Y-0.336
G1 X-6.028 Y-0.602
G1 X-7.472 Y-2.046
G1 X-7.472 Y-2.304
G1 X-6.028 Y-0.861
G1 X-6.028 Y-1.127
G1 X-7.472 Y-2.571
G1 X-7.472 Y-2.828
G1 X-6.028 Y-1.386
G1 X-6.028 Y-1.652
G1 X-7.472 Y-3.096
G1 X-7.472 Y-3.353
G1 X-6.028 Y-1.911
G1 X-6.028 Y-2.177
G1 X-7.472 Y-3.621
G1 X-7.472 Y-3.878
G1 X-6.028 Y-2.436
G1 X-6.028 Y-2.702
G1 X-7.472 Y-4.146
G1 X-7.472 Y-4.403
G1 X-6.028 Y-2.960
G1 X-6.028 Y-3.227
G1 X-7.472 Y-4.671
G1 X-7.472 Y-4.928
G1 X-6.028 Y-3.485
G1 X-6.028 Y-3.753
G1 X-7.472 Y-5.196
G1 X-7.472 Y-5.452
G1 X-6.028 Y-4.010
G1 X-6.028 Y-4.278
G1 X-7.472 Y-5.721
G1 X-7.472 Y-5.977
G1 X-6.028 Y-4.535
G1 X-6.028 Y-4.803
G1 X-7.472 Y-6.247
G1 X-7.472 Y-6.502
G1 X-6.028 Y-5.060
G1 X-6.028 Y-5.328
G1 X-7.472 Y-6.772
G1 X-7.472 Y-7.027
G1 X-6.028 Y-5.584
G1 X-6.028 Y-5.853
G1 X-7.472 Y-7.297
G1 X-7.472 Y-7.552
G1 X-6.028 Y-6.109
G1 X-6.028 Y-6.378
G1 X-7.472 Y-7.822
G1 X-7.472 Y-8.076
G1 X-6.028 Y-6.634
G1 X-6.028 Y-6.903
G1 X-7.472 Y-8.347
G1 X-7.472 Y-8.601
G1 X-6.028 Y-7.159
G1 X-6.028 Y-7.428
G1 X-7.472 Y-8.872
G1 X-7.318 Y-8.972
G1 X-5.872 Y-7.528
G1 X-5.603 Y-7.528
G1 X-7.047 Y-8.972
G1 X-6.792 Y-8.972
G1 X-5.347 Y-7.528
G1 X-5.078 Y-7.528
G1 X-6.522 Y-8.972
G1 X-6.267 Y-8.972
G1 X-4.822 Y-7.528
G1 X-4.553 Y-7.528
G1 X-5.997 Y-8.972
G1 X-5.742 Y-8.972
G1 X-4.296 Y-7.528
G1 X-4.028 Y-7.528
G1 X-5.472 Y-8.972
G1 X-5.216 Y-8.972
G1 X-3.771 Y-7.528
G1 X-3.503 Y-7.528
G1 X-4.946 Y-8.972
G1 X-4.691 Y-8.972
G1 X-3.246 Y-7.528
G1 X-2.978 Y-7.528
G1 X-4.421 Y-8.972
G1 X-4.165 Y-8.972
G1 X-2.720 Y-7.528
G1 X-2.452 Y-7.528
G1 X-3.896 Y-8.972
G1 X-3.640 Y-8.972
G1 X-2.195 Y-7.528
G1 X-1.927 Y-7.528
G1 X-3.371 Y-8.972
G1 X-3.115 Y-8.972
G1 X-1.670 Y-7.528
G1 X-1.402 Y-7.528
G1 X-2.846 Y-8.972
G1 X-2.589 Y-8.972
G1 X-1.144 Y-7.528
G1 X-0.877 Y-7.528
G1 X-2.321 Y-8.972
G1 X-2.064 Y-8.972
G1 X-0.619 Y-7.528
G1 X-0.352 Y-7.528
G1 X-1.796 Y-8.972
G1 X-1.539 Y-8.972
G1 X-0.094 Y-7.528
G1 X0.173 Y-7.528
G1 X-1.271 Y-8.972
G1 X-1.013 Y-8.972
G1 X0.432 Y-7.528
G1 X0.698 Y-7.528
G1 X-0.746 Y-8.972
G1 X-0.488 Y-8.972
G1 X0.957 Y-7.528
G1 X1.223 Y-7.528
G1 X-0.221 Y-8.972
G1 X0.037 Y-8.972
G1 X1.482 Y-7.528
G1 X1.748 Y-7.528
G1 X0.304 Y-8.972
G1 X0.563 Y-8.972
G1 X2.008 Y-7.528
G1 X2.273 Y-7.528
G1 X0.829 Y-8.972
G1 X1.088 Y-8.972
G1 X2.533 Y-7.528
G1 X2.798 Y-7.528
G1 X1.354 Y-8.972
G1 X1.613 Y-8.972
G1 X3.059 Y-7.528
G1 X3.323 Y-7.528
G1 X1.880 Y-8.972
G1 X2.139 Y-8.972
G1 X3.584 Y-7.528
G1 X3.848 Y-7.528
G1 X2.405 Y-8.972
G1 X2.664 Y-8.972
G1 X4.109 Y-7.528
G1 X4.374 Y-7.528
G1 X2.930 Y-8.972
G1 X3.189 Y-8.972
G1 X4.635 Y-7.528
G1 X4.899 Y-7.528
G1 X3.455 Y-8.972
G1 X3.715 Y-8.972
G1 X5.160 Y-7.528
G1 X5.424 Y-7.528
G1 X3.980 Y-8.972
G1 X4.240 Y-8.972
G1 X5.685 Y-7.528
G1 X5.949 Y-7.528
G1 X4.505 Y-8.972
G1 X4.765 Y-8.972
G1 X6.211 Y-7.528
G1 X6.474 Y-7.528
G1 X5.030 Y-8.972
G1 X5.291 Y-8.972
G1 X6.736 Y-7.528
G1 X6.999 Y-7.528
G1 X5.555 Y-8.972
G1 X5.816 Y-8.972
G1 X7.261 Y-7.528
G1 X7.524 Y-7.528
G1 X6.080 Y-8.972
G1 X6.341 Y-8.972
G1 X7.787 Y-7.528
G1 X8.049 Y-7.528
G1 X6.605 Y-8.972
G1 X6.867 Y-8.972
G1 X8.312 Y-7.528
G1 X8.574 Y-7.528
G1 X7.130 Y-8.972
G1 X7.392 Y-8.972
G1 X8.837 Y-7.528
G1 X9.099 Y-7.528
G1 X7.655 Y-8.972
G1 X7.917 Y-8.972
G1 X9.363 Y-7.528
G1 X10.806 Y-8.972 F7800.000
G1 X10.972 Y-8.806 F3600.000
G1 X10.972 Y-8.545
G1 X10.544 Y-8.972
G1 X10.281 Y-8.972
G1 X10.972 Y-8.281
G1 X10.972 Y-8.020
G1 X10.019 Y-8.972
G1 X9.756 Y-8.972
G1 X10.972 Y-7.756
G1 X10.972 Y-7.495
G1 X9.494 Y-8.972
G1 X9.231 Y-8.972
G1 X10.972 Y-7.231
G1 X10.972 Y-6.970
G1 X8.968 Y-8.972
G1 X8.706 Y-8.972
G1 X10.972 Y-6.706
G1 X10.972 Y-6.445
G1 X8.443 Y-8.972
G1 X8.181 Y-8.972
G1 X10.972 Y-6.181
G1 X10.972 Y-5.920
G1 X9.528 Y-7.363
G1 X9.528 Y-7.099
G1 X10.972 Y-5.655
G1 X10.972 Y-5.396
G1 X9.528 Y-6.838
G1 X9.528 Y-6.574
G1 X10.972 Y-5.130
G1 X10.972 Y-4.871
G1 X9.528 Y-6.313
G1 X9.528 Y-6.049
G1 X10.972 Y-4.605
G1 X10.972 Y-4.346
G1 X9.528 Y-5.788
G1 X9.528 Y-5.524
G1 X10.972 Y-4.080
G1 X10.972 Y-3.821
G1 X9.528 Y-5.264
G1 X9.528 Y-4.999
G1 X10.972 Y-3.555
G1 X10.972 Y-3.296
G1 X9.528 Y-4.739
G1 X9.528 Y-4.474
G1 X10.972 Y-3.030
G1 X10.972 Y-2.772
G1 X9.528 Y-4.214
G1 X9.528 Y-3.949
G1 X10.972 Y-2.505
G1 X10.972 Y-2.247
G1 X9.528 Y-3.689
G1 X9.528 Y-3.424
G1 X10.972 Y-1.980
G1 X10.972 Y-1.722
G1 X9.528 Y-3.164
G1 X9.528 Y-2.899
G1 X10.972 Y-1.455
G1 X10.972 Y-1.197
G1 X9.528 Y-2.640
G1 X9.528 Y-2.374
G1 X10.972 Y-0.930
G1 X10.972 Y-0.672
G1 X9.528 Y-2.115
G1 X9.528 Y-1.848
G1 X10.972 Y-0.405
G1 X10.972 Y-0.148
G1 X9.528 Y-1.590
G1 X9.528 Y-1.323
G1 X10.972 Y0.120
G1 X10.972 Y0.377
G1 X9.528 Y-1.065
G1 X9.528 Y-0.798
G1 X10.972 Y0.646
G1 X10.972 Y0.902
G1 X9.528 Y-0.540
G1 X9.528 Y-0.273
G1 X10.972 Y1.171
G1 X10.972 Y1.427
G1 X9.528 Y-0.016
G1 X9.528 Y0.252
G1 X10.972 Y1.696
G1 X10.972 Y1.952
G1 X9.528 Y0.509
G1 X9.528 Y0.777
G1 X10.972 Y2.221
G1 X10.972 Y2.477
G1 X9.528 Y1.034
G1 X9.528 Y1.302
G1 X10.972 Y2.746
G1 X10.972 Y3.001
G1 X9.528 Y1.559
G1 X9.528 Y1.827
G1 X10.972 Y3.271
G1 X10.972 Y3.526
G1 X9.528 Y2.084
G1 X9.528 Y2.352
G1 X10.972 Y3.796
G1 X10.972 Y4.051
G1 X9.528 Y2.609
G1 X9.528 Y2.877
G1 X10.972 Y4.321
G1 X10.972 Y4.576
G1 X9.528 Y3.133
G1 X9.528 Y3.402
G1 X10.972 Y4.846
G1 X10.972 Y5.101
G1 X9.528 Y3.658
G1 X9.528 Y3.927
G1 X10.972 Y5.371
G1 X10.972 Y5.625
G1 X9.528 Y4.183
G1 X9.528 Y4.452
G1 X10.972 Y5.896
G1 X10.972 Y6.150
G1 X9.528 Y4.708
G1 X9.528 Y4.978
G1 X10.972 Y6.421
G1 X10.972 Y6.675
G1 X9.528 Y5.233
G1 X9.528 Y5.503
G1 X10.972 Y6.946
G1 X10.972 Y7.200
G1 X9.528 Y5.757
G1 X9.528 Y6.028
G1 X10.972 Y7.472
G1 X10.972 Y7.725
G1 X9.528 Y6.282
G1 X9.528 Y6.553
G1 X10.972 Y7.997
G1 X10.972 Y8.250
G1 X9.528 Y6.807
